;FLAVOR:Marlin
;TIME:2717
;Filament used: 1.08052m
;Layer height: 0.15
;MINX:94.5
;MINY:94.5
;MINZ:0.3
;MAXX:140.5
;MAXY:140.5
;MAXZ:17.85
;Generated with Cura_SteamEngine 4.5.0
M140 S60
M105
M190 S60
M104 S200
M105
M109 S200
M82 ;absolute extrusion mode
; Ender 3 Custom Start G-code
G92 E0 ; Reset Extruder
G28 ; Home all axes
G1 Z2.0 F3000 ; Move Z Axis up little to prevent scratching of Heat Bed
G1 X0.1 Y20 Z0.3 F5000.0 ; Move to start position
G1 X0.1 Y200.0 Z0.3 F1500.0 E15 ; Draw the first line
G1 X0.4 Y200.0 Z0.3 F5000.0 ; Move to side a little
G1 X0.4 Y20 Z0.3 F1500.0 E30 ; Draw the second line
G92 E0 ; Reset Extruder
G1 Z2.0 F3000 ; Move Z Axis up little to prevent scratching of Heat Bed
G1 X5 Y20 Z0.3 F5000.0 ; Move over to prevent blob squish
G92 E0
G92 E0
G1 F2700 E-5
;LAYER_COUNT:118
;LAYER:0
M107
G0 F6000 X97.71 Y97.752 Z0.3
;TYPE:SKIRT
G1 F2700 E0
G1 F1200 X98.399 Y97.116 E0.04678
G1 X99.14 Y96.541 E0.09357
G1 X99.927 Y96.031 E0.14036
G1 X100.755 Y95.59 E0.18716
G1 X101.617 Y95.221 E0.23394
G1 X102.508 Y94.927 E0.28075
G1 X103.42 Y94.709 E0.32753
G1 X104.347 Y94.571 E0.37429
G1 X105.201 Y94.513 E0.417
G1 X105.83 Y94.5 E0.44838
G1 X114.937 Y94.501 E0.90273
G1 X116.53 Y94.524 E0.98222
G1 X119.844 Y94.512 E1.14756
G1 X120.569 Y94.5 E1.18373
G1 X128.951 Y94.501 E1.60191
G1 X129.649 Y94.511 E1.63674
G1 X130.585 Y94.565 E1.68351
G1 X131.513 Y94.697 E1.73028
G1 X132.427 Y94.909 E1.77709
G1 X133.319 Y95.198 E1.82387
G1 X134.184 Y95.561 E1.87067
G1 X135.014 Y95.997 E1.91744
G1 X135.805 Y96.502 E1.96426
G1 X136.549 Y97.073 E2.01105
G1 X137.242 Y97.705 E2.05784
G1 X137.879 Y98.393 E2.10462
G1 X138.454 Y99.134 E2.15141
G1 X138.965 Y99.92 E2.19819
G1 X139.407 Y100.748 E2.24501
G1 X139.776 Y101.61 E2.29179
G1 X140.071 Y102.5 E2.33857
G1 X140.289 Y103.412 E2.38535
G1 X140.429 Y104.34 E2.43218
G1 X140.487 Y105.201 E2.47523
G1 X140.5 Y105.83 E2.50662
G1 X140.499 Y114.937 E2.96097
G1 X140.476 Y116.53 E3.04045
G1 X140.488 Y119.844 E3.20579
G1 X140.5 Y120.569 E3.24196
G1 X140.499 Y128.9 E3.6576
G1 X140.49 Y129.627 E3.69387
G1 X140.439 Y130.564 E3.74069
G1 X140.307 Y131.492 E3.78745
G1 X140.098 Y132.406 E3.83423
G1 X139.811 Y133.299 E3.88102
G1 X139.449 Y134.165 E3.92785
G1 X139.015 Y134.996 E3.97462
G1 X138.511 Y135.787 E4.02142
G1 X137.942 Y136.532 E4.06819
G1 X137.311 Y137.227 E4.11502
G1 X136.624 Y137.865 E4.16179
G1 X135.885 Y138.442 E4.20857
G1 X135.099 Y138.954 E4.25537
G1 X134.273 Y139.397 E4.30213
G1 X133.411 Y139.769 E4.34897
G1 X132.522 Y140.065 E4.39572
G1 X131.61 Y140.285 E4.44252
G1 X130.683 Y140.426 E4.4893
G1 X129.799 Y140.487 E4.53351
G1 X129.17 Y140.5 E4.5649
G1 X120.03 Y140.499 E5.02089
G1 X118.886 Y140.483 E5.07797
G1 X116.224 Y140.483 E5.21078
G1 X115.187 Y140.5 E5.26252
G1 X106.065 Y140.499 E5.71762
G1 X105.367 Y140.49 E5.75245
G1 X104.431 Y140.438 E5.79922
G1 X103.502 Y140.306 E5.84603
G1 X102.588 Y140.096 E5.89282
G1 X101.695 Y139.809 E5.93961
G1 X100.83 Y139.446 E5.98642
G1 X99.999 Y139.012 E6.03319
G1 X99.208 Y138.508 E6.07998
G1 X98.463 Y137.938 E6.12678
G1 X97.769 Y137.307 E6.17358
G1 X97.132 Y136.62 E6.22032
G1 X96.555 Y135.88 E6.26713
G1 X96.043 Y135.094 E6.31393
G1 X95.6 Y134.267 E6.36074
G1 X95.229 Y133.406 E6.40751
G1 X94.933 Y132.516 E6.45431
G1 X94.714 Y131.604 E6.5011
G1 X94.573 Y130.677 E6.54788
G1 X94.513 Y129.788 E6.59233
G1 X94.5 Y129.158 E6.62377
G1 X94.501 Y120.063 E7.07752
G1 X94.524 Y118.47 E7.157
G1 X94.512 Y115.156 E7.32234
G1 X94.5 Y114.431 E7.35852
G1 X94.501 Y106.009 E7.77869
G1 X94.511 Y105.344 E7.81187
G1 X94.565 Y104.407 E7.8587
G1 X94.699 Y103.479 E7.90548
G1 X94.911 Y102.565 E7.95229
G1 X95.2 Y101.673 E7.99907
G1 X95.565 Y100.809 E8.04586
G1 X96.001 Y99.979 E8.09263
G1 X96.507 Y99.189 E8.13944
G1 X97.078 Y98.445 E8.18623
G1 X97.71 Y97.752 E8.23302
G0 F6000 X98.102 Y97.927
G1 F1200 X98.788 Y97.313 E8.27895
G1 X99.524 Y96.761 E8.32485
G1 X100.306 Y96.274 E8.37081
G1 X101.127 Y95.858 E8.41673
G1 X101.981 Y95.514 E8.46266
G1 X102.861 Y95.245 E8.50857
G1 X103.762 Y95.054 E8.55452
G1 X104.676 Y94.942 E8.60046
G1 X105.212 Y94.913 E8.62724
G1 X105.83 Y94.9 E8.65808
G1 X114.932 Y94.901 E9.11218
G1 X116.526 Y94.924 E9.19172
G1 X119.854 Y94.912 E9.35775
G1 X120.569 Y94.9 E9.39343
G1 X128.945 Y94.901 E9.81131
G1 X129.643 Y94.911 E9.84613
G1 X130.562 Y94.964 E9.89206
G1 X131.473 Y95.097 E9.93799
G1 X132.369 Y95.308 E9.98392
G1 X133.243 Y95.596 E10.02983
G1 X134.09 Y95.959 E10.0758
G1 X134.901 Y96.394 E10.12171
G1 X135.671 Y96.898 E10.16763
G1 X136.395 Y97.467 E10.21357
G1 X137.067 Y98.097 E10.25952
G1 X137.682 Y98.782 E10.30545
G1 X138.235 Y99.518 E10.35138
G1 X138.722 Y100.299 E10.3973
G1 X139.139 Y101.12 E10.44324
G1 X139.484 Y101.974 E10.48919
G1 X139.753 Y102.854 E10.5351
G1 X139.945 Y103.755 E10.58106
G1 X140.058 Y104.668 E10.62696
G1 X140.087 Y105.212 E10.65414
G1 X140.1 Y105.83 E10.68498
G1 X140.099 Y114.932 E11.13908
G1 X140.076 Y116.526 E11.21861
G1 X140.088 Y119.854 E11.38464
G1 X140.1 Y120.569 E11.42032
G1 X140.099 Y128.895 E11.83571
G1 X140.09 Y129.622 E11.87198
G1 X140.039 Y130.541 E11.9179
G1 X139.908 Y131.453 E11.96387
G1 X139.698 Y132.349 E12.00978
G1 X139.412 Y133.224 E12.05571
G1 X139.051 Y134.071 E12.10164
G1 X138.617 Y134.883 E12.14758
G1 X138.115 Y135.655 E12.19352
G1 X137.547 Y136.38 E12.23947
G1 X136.919 Y137.053 E12.28539
G1 X136.235 Y137.669 E12.33131
G1 X135.5 Y138.223 E12.37723
G1 X134.72 Y138.712 E12.42316
G1 X133.9 Y139.131 E12.4691
G1 X133.047 Y139.477 E12.51503
G1 X132.167 Y139.748 E12.56097
G1 X131.267 Y139.941 E12.60689
G1 X130.353 Y140.056 E12.65285
G1 X129.788 Y140.087 E12.68108
G1 X129.17 Y140.1 E12.71192
G1 X120.036 Y140.099 E13.16761
G1 X118.892 Y140.083 E13.22469
G1 X116.217 Y140.083 E13.35815
G1 X115.187 Y140.1 E13.40954
G1 X106.07 Y140.099 E13.86439
G1 X105.372 Y140.09 E13.89922
G1 X104.453 Y140.038 E13.94514
G1 X103.542 Y139.907 E13.99106
G1 X102.646 Y139.697 E14.03697
G1 X101.771 Y139.41 E14.08291
G1 X100.924 Y139.048 E14.12887
G1 X100.112 Y138.614 E14.1748
G1 X99.341 Y138.112 E14.2207
G1 X98.616 Y137.544 E14.26665
G1 X97.943 Y136.915 E14.31261
G1 X97.328 Y136.231 E14.3585
G1 X96.774 Y135.496 E14.40442
G1 X96.286 Y134.715 E14.45036
G1 X95.867 Y133.895 E14.49631
G1 X95.521 Y133.042 E14.54223
G1 X95.251 Y132.162 E14.58815
G1 X95.058 Y131.261 E14.63412
G1 X94.944 Y130.348 E14.68003
G1 X94.913 Y129.777 E14.70856
G1 X94.9 Y129.158 E14.73945
G1 X94.901 Y120.068 E15.19295
G1 X94.924 Y118.474 E15.27248
G1 X94.912 Y115.146 E15.43852
G1 X94.9 Y114.431 E15.47419
G1 X94.901 Y106.015 E15.89407
G1 X94.911 Y105.35 E15.92725
G1 X94.965 Y104.431 E15.97318
G1 X95.098 Y103.52 E16.01911
G1 X95.31 Y102.624 E16.06505
G1 X95.599 Y101.749 E16.11102
G1 X95.963 Y100.904 E16.15692
G1 X96.398 Y100.093 E16.20283
G1 X96.903 Y99.322 E16.24882
G1 X97.472 Y98.599 E16.29472
G1 X98.102 Y97.927 E16.34067
G0 F6000 X98.493 Y98.106
G1 F1200 X99.175 Y97.514 E16.38573
G1 X99.907 Y96.985 E16.43079
G1 X100.683 Y96.523 E16.47584
G1 X101.497 Y96.132 E16.5209
G1 X102.342 Y95.813 E16.56596
G1 X103.212 Y95.571 E16.61101
G1 X104.1 Y95.407 E16.65606
G1 X105.223 Y95.313 E16.71229
G1 X105.83 Y95.3 E16.74258
G1 X114.926 Y95.301 E17.19638
G1 X116.522 Y95.324 E17.27601
G1 X119.864 Y95.312 E17.44274
G1 X120.569 Y95.3 E17.47792
G1 X128.939 Y95.301 E17.8955
G1 X129.637 Y95.311 E17.93033
G1 X130.539 Y95.364 E17.97541
G1 X131.432 Y95.496 E18.02044
G1 X132.31 Y95.707 E18.06549
G1 X133.166 Y95.995 E18.11055
G1 X133.993 Y96.357 E18.15559
G1 X134.785 Y96.792 E18.20067
G1 X135.536 Y97.294 E18.24574
G1 X136.239 Y97.861 E18.2908
G1 X136.889 Y98.488 E18.33586
G1 X137.481 Y99.17 E18.38091
G1 X138.011 Y99.901 E18.42596
G1 X138.473 Y100.677 E18.47101
G1 X138.866 Y101.49 E18.51607
G1 X139.184 Y102.335 E18.56111
G1 X139.427 Y103.205 E18.60618
G1 X139.592 Y104.093 E18.65124
G1 X139.687 Y105.223 E18.70781
G1 X139.7 Y105.83 E18.7381
G1 X139.699 Y114.926 E19.1919
G1 X139.676 Y116.522 E19.27154
G1 X139.688 Y119.864 E19.43827
G1 X139.7 Y120.569 E19.47345
G1 X139.699 Y128.89 E19.88858
G1 X139.69 Y129.617 E19.92486
G1 X139.639 Y130.519 E19.96993
G1 X139.508 Y131.413 E20.01501
G1 X139.299 Y132.291 E20.06004
G1 X139.013 Y133.148 E20.10511
G1 X138.652 Y133.976 E20.15017
G1 X138.22 Y134.768 E20.19518
G1 X137.719 Y135.52 E20.24026
G1 X137.153 Y136.224 E20.28533
G1 X136.528 Y136.875 E20.33035
G1 X135.847 Y137.469 E20.37544
G1 X135.116 Y138 E20.42051
G1 X134.342 Y138.464 E20.46554
G1 X133.529 Y138.858 E20.51061
G1 X132.685 Y139.178 E20.55564
G1 X131.815 Y139.423 E20.60073
G1 X130.928 Y139.589 E20.64575
G1 X129.777 Y139.687 E20.70339
G1 X129.17 Y139.7 E20.73368
G1 X120.041 Y139.699 E21.18912
G1 X118.897 Y139.683 E21.2462
G1 X116.21 Y139.683 E21.38026
G1 X115.187 Y139.7 E21.4313
G1 X106.075 Y139.699 E21.8859
G1 X105.377 Y139.69 E21.92073
G1 X104.476 Y139.639 E21.96575
G1 X103.582 Y139.507 E22.01084
G1 X102.704 Y139.298 E22.05587
G1 X101.847 Y139.011 E22.10095
G1 X101.02 Y138.65 E22.14597
G1 X100.227 Y138.217 E22.19105
G1 X99.476 Y137.716 E22.23609
G1 X98.772 Y137.15 E22.28116
G1 X98.121 Y136.524 E22.32621
G1 X97.528 Y135.843 E22.37127
G1 X96.998 Y135.112 E22.41631
G1 X96.534 Y134.337 E22.46138
G1 X96.14 Y133.524 E22.50645
G1 X95.82 Y132.68 E22.55148
G1 X95.576 Y131.81 E22.59656
G1 X95.41 Y130.922 E22.64163
G1 X95.313 Y129.767 E22.69946
G1 X95.3 Y129.158 E22.72985
G1 X95.301 Y120.074 E23.18305
G1 X95.324 Y118.478 E23.26268
G1 X95.312 Y115.136 E23.42942
G1 X95.3 Y114.431 E23.4646
G1 X95.301 Y106.021 E23.88417
G1 X95.311 Y105.356 E23.91735
G1 X95.365 Y104.454 E23.96243
G1 X95.498 Y103.561 E24.00748
G1 X95.709 Y102.683 E24.05253
G1 X95.998 Y101.827 E24.0976
G1 X96.361 Y101 E24.14266
G1 X96.795 Y100.209 E24.18767
G1 X97.298 Y99.458 E24.23277
G1 X97.866 Y98.756 E24.27782
G1 X98.493 Y98.106 E24.32288
G1 F2700 E19.32288
;MESH:D_Ring_1.stl
G0 F6000 X104.847 Y116.152
G0 X105.914 Y118.835
G0 X105.914 Y119.914
G0 X106.682 Y128.318
G0 X114.501 Y128.5
;TYPE:WALL-INNER
G1 F2700 E24.32288
G1 F1200 X106.5 Y128.5 E24.72205
G1 X106.5 Y120.5 E25.12117
G1 X110.5 Y120.5 E25.32073
G1 X110.5 Y120.004 E25.34548
G1 X114.996 Y120.004 E25.56978
G1 X115 Y124.301 E25.78416
G1 X115 Y124.5 E25.79409
G1 X114.801 Y124.5 E25.80051
G1 X114.508 Y124.5 E25.81513
G1 X114.501 Y128.5 E26.01469
G0 F6000 X114.9 Y128.9
G1 F1200 X106.1 Y128.9 E26.45373
G1 X106.1 Y120.1 E26.89276
G1 X110.1 Y120.1 E27.09232
G1 X110.1 Y119.604 E27.11707
G1 X115.396 Y119.604 E27.38128
G1 X115.4 Y124.701 E27.63557
G1 X115.4 Y124.9 E27.6455
G1 X115.201 Y124.9 E27.65193
G1 X114.907 Y124.9 E27.66659
G1 X114.9 Y128.9 E27.86616
G0 F6000 X115.3 Y129.3
;TYPE:WALL-OUTER
G1 F1200 X105.7 Y129.3 E28.3451
G1 X105.7 Y119.7 E28.82405
G1 X109.7 Y119.7 E29.02361
G1 X109.7 Y119.204 E29.04835
G1 X115.796 Y119.204 E29.35248
G1 X115.8 Y125.3 E29.65662
G1 X115.306 Y125.3 E29.68126
G1 X115.3 Y129.199 E29.87578
G1 X115.3 Y129.3 E29.88082
G0 F6000 X115.03 Y129.03
G0 X114.111 Y128.39
G0 X114.111 Y128.11
;TYPE:SKIN
G1 F1200 X106.89 Y128.11 E30.24108
G1 X106.89 Y120.89 E30.60129
G1 X110.89 Y120.89 E30.80085
G1 X110.89 Y120.394 E30.82559
G1 X114.606 Y120.394 E31.01098
G1 X114.61 Y124.11 E31.19638
G1 X114.118 Y124.11 E31.22092
G1 X114.111 Y128.11 E31.42048
G0 F6000 X114.111 Y128.39
G0 X107.584 Y128.39
G0 X107.584 Y127.948
G1 F1200 X107.05 Y127.414 E31.45816
G0 F6000 X107.05 Y126.849
G1 F1200 X108.149 Y127.948 E31.5357
G0 F6000 X108.715 Y127.948
G1 F1200 X107.05 Y126.283 E31.65318
G0 F6000 X107.05 Y125.717
G1 F1200 X109.281 Y127.948 E31.81058
G0 F6000 X109.846 Y127.948
G1 F1200 X107.05 Y125.152 E32.00786
G0 F6000 X107.05 Y124.586
G1 F1200 X110.412 Y127.948 E32.24506
G0 F6000 X110.978 Y127.948
G1 F1200 X107.05 Y124.02 E32.52221
G0 F6000 X107.05 Y123.455
G1 F1200 X111.543 Y127.948 E32.83921
G0 F6000 X112.109 Y127.948
G1 F1200 X107.05 Y122.889 E33.19615
G0 F6000 X107.05 Y122.323
G1 F1200 X112.675 Y127.948 E33.59303
G0 F6000 X113.241 Y127.948
G1 F1200 X107.05 Y121.758 E34.0298
G0 F6000 X107.05 Y121.192
G1 F1200 X113.806 Y127.948 E34.50647
G0 F6000 X113.952 Y127.528
G1 F1200 X107.473 Y121.049 E34.9636
G0 F6000 X108.038 Y121.049
G1 F1200 X113.953 Y126.963 E35.3809
G0 F6000 X113.953 Y126.398
G1 F1200 X108.604 Y121.049 E35.7583
G0 F6000 X109.17 Y121.049
G1 F1200 X113.955 Y125.834 E36.09591
G0 F6000 X113.955 Y125.269
G1 F1200 X109.735 Y121.049 E36.39365
G0 F6000 X110.301 Y121.049
G1 F1200 X113.957 Y124.705 E36.6516
G0 F6000 X113.958 Y124.14
G1 F1200 X110.867 Y121.049 E36.86969
G0 F6000 X111.049 Y120.666
G1 F1200 X114.332 Y123.949 E37.10132
G0 F6000 X114.45 Y123.501
G1 F1200 X111.502 Y120.553 E37.30932
G0 F6000 X112.068 Y120.553
G1 F1200 X114.449 Y122.934 E37.47731
G0 F6000 X114.448 Y122.368
G1 F1200 X112.634 Y120.553 E37.60533
G0 F6000 X113.2 Y120.553
G1 F1200 X114.448 Y121.801 E37.69339
G0 F6000 X114.447 Y121.235
G1 F1200 X113.765 Y120.553 E37.74151
G0 F6000 X114.331 Y120.553
G1 F1200 X114.446 Y120.669 E37.74966
G0 F6000 X115.187 Y120.669
G1 F2700 E32.74966
G0 F6000 X115.586 Y125.086
G0 X116.664 Y125.085
G0 X118.339 Y125.087
G0 X119.914 Y125.086
G0 X120.5 Y128.5
;TYPE:WALL-INNER
G1 F2700 E37.74966
G1 F1200 X120.5 Y124.5 E37.94922
G1 X120.004 Y124.5 E37.97396
G1 X120.003 Y120.202 E38.18839
G1 X120.003 Y120.003 E38.19832
G1 X120.202 Y120.003 E38.20474
G1 X124.5 Y120.004 E38.41917
G1 X124.5 Y120.492 E38.44352
G1 X128.5 Y120.498 E38.64308
G1 X128.5 Y128.5 E39.0423
G1 X120.5 Y128.5 E39.44142
G0 F6000 X120.1 Y128.9
G1 F1200 X120.1 Y124.9 E39.64098
G1 X119.604 Y124.9 E39.66573
G1 X119.603 Y119.802 E39.92007
G1 X119.603 Y119.603 E39.93
G1 X119.802 Y119.603 E39.93642
G1 X124.9 Y119.604 E40.19076
G1 X124.9 Y120.093 E40.21516
G1 X128.9 Y120.099 E40.41472
G1 X128.9 Y128.9 E40.8538
G1 X120.1 Y128.9 E41.29283
G0 F6000 X119.7 Y129.3
;TYPE:WALL-OUTER
G1 F1200 X119.7 Y125.3 E41.49239
G1 X119.204 Y125.3 E41.51714
G1 X119.203 Y119.203 E41.82132
G1 X125.3 Y119.204 E42.1255
G1 X125.3 Y119.694 E42.14995
G1 X129.3 Y119.7 E42.34951
G1 X129.3 Y129.3 E42.82845
G1 X119.7 Y129.3 E43.3074
G0 F6000 X119.97 Y129.03
G0 X120.61 Y128.11
G0 X120.89 Y128.11
;TYPE:SKIN
G1 F1200 X120.89 Y124.11 E43.50696
G1 X120.394 Y124.11 E43.53171
G1 X120.393 Y120.393 E43.71715
G1 X124.11 Y120.394 E43.90259
G1 X124.11 Y120.882 E43.92694
G1 X128.11 Y120.888 E44.1265
G1 X128.11 Y128.11 E44.48681
G1 X120.89 Y128.11 E44.84701
G0 F6000 X121.161 Y127.949
G1 F1200 X121.049 Y127.837 E44.85491
G0 F6000 X121.049 Y127.272
G1 F1200 X121.727 Y127.949 E44.90272
G0 F6000 X122.292 Y127.949
G1 F1200 X121.049 Y126.706 E44.99042
G0 F6000 X121.049 Y126.14
G1 F1200 X122.858 Y127.949 E45.11805
G0 F6000 X123.424 Y127.949
G1 F1200 X121.049 Y125.575 E45.28558
G0 F6000 X121.049 Y125.009
G1 F1200 X123.989 Y127.949 E45.49302
G0 F6000 X124.555 Y127.949
G1 F1200 X121.049 Y124.443 E45.74039
G0 F6000 X120.61 Y124.443
G0 X120.186 Y124.318
G0 X120.113 Y123.381
G0 X120.553 Y123.381
G1 F1200 X125.121 Y127.949 E46.06268
G0 F6000 X125.686 Y127.949
G1 F1200 X120.553 Y122.815 E46.42488
G0 F6000 X120.552 Y122.249
G1 F1200 X126.252 Y127.949 E46.82704
G0 F6000 X126.818 Y127.949
G1 F1200 X120.552 Y121.683 E47.26914
G0 F6000 X120.552 Y121.118
G1 F1200 X127.383 Y127.949 E47.75111
G0 F6000 X127.949 Y127.949
G1 F1200 X120.552 Y120.552 E48.27301
G0 F6000 X121.118 Y120.553
G1 F1200 X127.949 Y127.383 E48.75494
G0 F6000 X127.949 Y126.818
G1 F1200 X121.684 Y120.553 E49.19696
G0 F6000 X122.25 Y120.553
G1 F1200 X127.949 Y126.252 E49.59906
G0 F6000 X127.949 Y125.686
G1 F1200 X122.816 Y120.553 E49.96122
G0 F6000 X123.382 Y120.553
G1 F1200 X127.949 Y125.121 E50.28348
G0 F6000 X127.949 Y124.555
G1 F1200 X124.437 Y121.043 E50.53127
G0 F6000 X125.003 Y121.043
G1 F1200 X127.949 Y123.989 E50.73913
G0 F6000 X127.949 Y123.424
G1 F1200 X125.57 Y121.044 E50.90702
G0 F6000 X126.136 Y121.045
G1 F1200 X127.949 Y122.858 E51.03493
G0 F6000 X127.949 Y122.292
G1 F1200 X126.703 Y121.046 E51.12284
G0 F6000 X127.27 Y121.047
G1 F1200 X127.949 Y121.727 E51.17079
G0 F6000 X127.949 Y121.161
G1 F1200 X127.836 Y121.048 E51.17876
G0 F6000 X127.837 Y120.308
G1 F2700 E46.17876
G0 F6000 X125.086 Y119.908
G0 X125.086 Y118.338
G0 X124.095 Y116.662
G0 X124.096 Y115.577
G0 X120.004 Y114.996
;TYPE:WALL-INNER
G1 F2700 E51.17876
