;FLAVOR:Marlin
;TIME:2337
;Filament used: 1.20591m
;Layer height: 0.15
;MINX:97.7
;MINY:97.7
;MINZ:0.3
;MAXX:137.3
;MAXY:137.3
;MAXZ:13.65
;Generated with Cura_SteamEngine 4.5.0
M140 S60
M105
M190 S60
M104 S200
M105
M109 S200
M82 ;absolute extrusion mode
; Ender 3 Custom Start G-code
G92 E0 ; Reset Extruder
G28 ; Home all axes
G1 Z2.0 F3000 ; Move Z Axis up little to prevent scratching of Heat Bed
G1 X0.1 Y20 Z0.3 F5000.0 ; Move to start position
G1 X0.1 Y200.0 Z0.3 F1500.0 E15 ; Draw the first line
G1 X0.4 Y200.0 Z0.3 F5000.0 ; Move to side a little
G1 X0.4 Y20 Z0.3 F1500.0 E30 ; Draw the second line
G92 E0 ; Reset Extruder
G1 Z2.0 F3000 ; Move Z Axis up little to prevent scratching of Heat Bed
G1 X5 Y20 Z0.3 F5000.0 ; Move over to prevent blob squish
G92 E0
G92 E0
G1 F2700 E-5
;LAYER_COUNT:90
;LAYER:0
M107
G0 F6000 X100.123 Y99.849 Z0.3
;TYPE:SKIRT
G1 F2700 E0
G1 F1200 X100.722 Y99.334 E0.03941
G1 X101.37 Y98.883 E0.0788
G1 X102.061 Y98.499 E0.11824
G1 X102.786 Y98.187 E0.15762
G1 X103.539 Y97.95 E0.197
G1 X104.313 Y97.791 E0.23642
G1 X105.098 Y97.71 E0.27579
G1 X105.5 Y97.7 E0.29586
G1 X115.5 Y97.7 E0.79476
G1 X116.289 Y97.74 E0.83417
G1 X117.069 Y97.859 E0.87354
G1 X117.486 Y97.967 E0.89503
G1 X117.539 Y97.95 E0.8978
G1 X118.313 Y97.791 E0.93723
G1 X119.098 Y97.71 E0.9766
G1 X119.5 Y97.7 E0.99666
G1 X129.5 Y97.7 E1.49556
G1 X130.289 Y97.74 E1.53497
G1 X131.069 Y97.859 E1.57434
G1 X131.834 Y98.057 E1.61376
G1 X132.574 Y98.331 E1.65313
G1 X133.283 Y98.679 E1.69253
G1 X133.954 Y99.097 E1.73198
G1 X134.578 Y99.58 E1.77134
G1 X135.151 Y100.123 E1.81073
G1 X135.666 Y100.722 E1.85014
G1 X136.117 Y101.37 E1.88953
G1 X136.501 Y102.061 E1.92897
G1 X136.813 Y102.786 E1.96834
G1 X137.05 Y103.539 E2.00773
G1 X137.209 Y104.313 E2.04715
G1 X137.29 Y105.098 E2.08652
G1 X137.3 Y105.5 E2.10658
G1 X137.3 Y115.5 E2.60548
G1 X137.26 Y116.289 E2.6449
G1 X137.141 Y117.069 E2.68426
G1 X137.033 Y117.486 E2.70575
G1 X137.05 Y117.539 E2.70853
G1 X137.209 Y118.313 E2.74795
G1 X137.29 Y119.098 E2.78732
G1 X137.3 Y119.5 E2.80739
G1 X137.3 Y129.5 E3.30629
G1 X137.26 Y130.289 E3.3457
G1 X137.141 Y131.069 E3.38507
G1 X136.943 Y131.834 E3.42449
G1 X136.669 Y132.574 E3.46386
G1 X136.321 Y133.283 E3.50326
G1 X135.903 Y133.954 E3.5427
G1 X135.42 Y134.578 E3.58207
G1 X134.877 Y135.151 E3.62145
G1 X134.278 Y135.666 E3.66087
G1 X133.63 Y136.117 E3.70025
G1 X132.939 Y136.501 E3.73969
G1 X132.214 Y136.813 E3.77907
G1 X131.461 Y137.05 E3.81846
G1 X130.687 Y137.209 E3.85788
G1 X129.902 Y137.29 E3.89725
G1 X129.5 Y137.3 E3.91731
G1 X119.5 Y137.3 E4.41621
G1 X118.711 Y137.26 E4.45563
G1 X117.931 Y137.141 E4.49499
G1 X117.514 Y137.033 E4.51648
G1 X117.461 Y137.05 E4.51926
G1 X116.687 Y137.209 E4.55868
G1 X115.902 Y137.29 E4.59805
G1 X115.5 Y137.3 E4.61811
G1 X105.5 Y137.3 E5.11702
G1 X104.711 Y137.26 E5.15643
G1 X103.931 Y137.141 E5.19579
G1 X103.166 Y136.943 E5.23522
G1 X102.426 Y136.669 E5.27459
G1 X101.717 Y136.321 E5.31399
G1 X101.046 Y135.903 E5.35343
G1 X100.422 Y135.42 E5.3928
G1 X99.849 Y134.877 E5.43218
G1 X99.334 Y134.278 E5.47159
G1 X98.883 Y133.63 E5.51098
G1 X98.499 Y132.939 E5.55042
G1 X98.187 Y132.214 E5.5898
G1 X97.95 Y131.461 E5.62918
G1 X97.791 Y130.687 E5.6686
G1 X97.71 Y129.902 E5.70798
G1 X97.7 Y129.5 E5.72804
G1 X97.7 Y119.5 E6.22694
G1 X97.74 Y118.711 E6.26635
G1 X97.859 Y117.931 E6.30572
G1 X97.967 Y117.514 E6.32721
G1 X97.95 Y117.461 E6.32999
G1 X97.791 Y116.687 E6.36941
G1 X97.71 Y115.902 E6.40878
G1 X97.7 Y115.5 E6.42884
G1 X97.7 Y105.5 E6.92774
G1 X97.74 Y104.711 E6.96716
G1 X97.859 Y103.931 E7.00652
G1 X98.057 Y103.166 E7.04595
G1 X98.331 Y102.426 E7.08531
G1 X98.679 Y101.717 E7.12472
G1 X99.097 Y101.046 E7.16416
G1 X99.58 Y100.422 E7.20353
G1 X100.123 Y99.849 E7.24291
G0 F6000 X100.516 Y100.03
G1 F1200 X101.111 Y99.542 E7.2813
G1 X101.753 Y99.119 E7.31966
G1 X102.436 Y98.764 E7.35806
G1 X103.151 Y98.483 E7.39639
G1 X103.893 Y98.277 E7.43481
G1 X104.651 Y98.149 E7.47316
G1 X105.5 Y98.1 E7.51559
G1 X115.5 Y98.1 E8.01449
G1 X116.268 Y98.14 E8.05286
G1 X117.028 Y98.259 E8.09123
G1 X117.502 Y98.385 E8.1157
G1 X117.893 Y98.277 E8.13594
G1 X118.651 Y98.149 E8.17429
G1 X119.5 Y98.1 E8.21672
G1 X129.5 Y98.1 E8.71562
G1 X130.268 Y98.14 E8.75399
G1 X131.028 Y98.259 E8.79237
G1 X131.771 Y98.457 E8.83073
G1 X132.49 Y98.731 E8.86912
G1 X133.176 Y99.078 E8.90747
G1 X133.823 Y99.494 E8.94585
G1 X134.423 Y99.975 E8.98421
G1 X134.97 Y100.516 E9.0226
G1 X135.458 Y101.111 E9.06099
G1 X135.881 Y101.753 E9.09934
G1 X136.236 Y102.436 E9.13775
G1 X136.517 Y103.151 E9.17608
G1 X136.723 Y103.893 E9.21449
G1 X136.851 Y104.651 E9.25285
G1 X136.9 Y105.5 E9.29527
G1 X136.9 Y115.5 E9.79418
G1 X136.86 Y116.268 E9.83254
G1 X136.741 Y117.028 E9.87092
G1 X136.615 Y117.502 E9.89539
G1 X136.723 Y117.893 E9.91563
G1 X136.851 Y118.651 E9.95398
G1 X136.9 Y119.5 E9.99641
G1 X136.9 Y129.5 E10.49531
G1 X136.86 Y130.268 E10.53368
G1 X136.741 Y131.028 E10.57206
G1 X136.543 Y131.771 E10.61042
G1 X136.269 Y132.49 E10.64881
G1 X135.922 Y133.176 E10.68716
G1 X135.506 Y133.823 E10.72553
G1 X135.025 Y134.423 E10.7639
G1 X134.484 Y134.97 E10.80228
G1 X133.889 Y135.458 E10.84067
G1 X133.247 Y135.881 E10.87903
G1 X132.564 Y136.236 E10.91743
G1 X131.849 Y136.517 E10.95576
G1 X131.107 Y136.723 E10.99418
G1 X130.349 Y136.851 E11.03253
G1 X129.5 Y136.9 E11.07496
G1 X119.5 Y136.9 E11.57386
G1 X118.732 Y136.86 E11.61223
G1 X117.972 Y136.741 E11.65061
G1 X117.498 Y136.615 E11.67508
G1 X117.107 Y136.723 E11.69532
G1 X116.349 Y136.851 E11.73367
G1 X115.5 Y136.9 E11.77609
G1 X105.5 Y136.9 E12.275
G1 X104.732 Y136.86 E12.31336
G1 X103.972 Y136.741 E12.35174
G1 X103.229 Y136.543 E12.3901
G1 X102.51 Y136.269 E12.42849
G1 X101.824 Y135.922 E12.46685
G1 X101.177 Y135.506 E12.50522
G1 X100.577 Y135.025 E12.54359
G1 X100.03 Y134.484 E12.58197
G1 X99.542 Y133.889 E12.62036
G1 X99.119 Y133.247 E12.65872
G1 X98.764 Y132.564 E12.69712
G1 X98.483 Y131.849 E12.73545
G1 X98.277 Y131.107 E12.77387
G1 X98.149 Y130.349 E12.81222
G1 X98.1 Y129.5 E12.85465
G1 X98.1 Y119.5 E13.35355
G1 X98.14 Y118.732 E13.39192
G1 X98.259 Y117.972 E13.4303
G1 X98.385 Y117.498 E13.45476
G1 X98.277 Y117.107 E13.475
G1 X98.149 Y116.349 E13.51335
G1 X98.1 Y115.5 E13.55578
G1 X98.1 Y105.5 E14.05468
G1 X98.14 Y104.732 E14.09305
G1 X98.259 Y103.972 E14.13143
G1 X98.457 Y103.229 E14.16979
G1 X98.731 Y102.51 E14.20818
G1 X99.078 Y101.824 E14.24653
G1 X99.494 Y101.177 E14.28491
G1 X99.975 Y100.577 E14.32327
G1 X100.516 Y100.03 E14.36166
G0 F6000 X100.908 Y100.216
G1 F1200 X101.498 Y99.757 E14.39895
G1 X102.134 Y99.362 E14.4363
G1 X102.808 Y99.038 E14.47361
G1 X103.513 Y98.788 E14.51093
G1 X104.241 Y98.614 E14.54827
G1 X104.983 Y98.519 E14.58559
G1 X105.5 Y98.5 E14.61141
G1 X115.5 Y98.5 E15.11031
G1 X116.247 Y98.54 E15.14763
G1 X116.985 Y98.659 E15.18492
G1 X117.488 Y98.797 E15.21095
G1 X118.241 Y98.614 E15.24961
G1 X118.983 Y98.519 E15.28693
G1 X119.5 Y98.5 E15.31274
G1 X129.5 Y98.5 E15.81164
G1 X130.247 Y98.54 E15.84896
G1 X130.985 Y98.659 E15.88626
G1 X131.707 Y98.857 E15.92361
G1 X132.403 Y99.13 E15.96091
G1 X133.066 Y99.477 E15.99824
G1 X133.689 Y99.892 E16.03558
G1 X134.263 Y100.371 E16.07288
G1 X134.784 Y100.908 E16.11021
G1 X135.243 Y101.498 E16.14751
G1 X135.638 Y102.134 E16.18486
G1 X135.962 Y102.808 E16.22217
G1 X136.212 Y103.513 E16.25948
G1 X136.386 Y104.241 E16.29683
G1 X136.481 Y104.983 E16.33415
G1 X136.5 Y105.5 E16.35996
G1 X136.5 Y115.5 E16.85886
G1 X136.46 Y116.247 E16.89618
G1 X136.341 Y116.985 E16.93348
G1 X136.203 Y117.487 E16.95945
G1 X136.386 Y118.241 E16.99816
G1 X136.481 Y118.983 E17.03548
G1 X136.5 Y119.5 E17.06129
G1 X136.5 Y129.5 E17.56019
G1 X136.46 Y130.247 E17.59752
G1 X136.341 Y130.985 E17.63481
G1 X136.143 Y131.707 E17.67216
G1 X135.87 Y132.403 E17.70946
G1 X135.523 Y133.066 E17.74679
G1 X135.108 Y133.689 E17.78414
G1 X134.629 Y134.263 E17.82144
G1 X134.092 Y134.784 E17.85877
G1 X133.502 Y135.243 E17.89606
G1 X132.866 Y135.638 E17.93341
G1 X132.192 Y135.962 E17.97072
G1 X131.487 Y136.212 E18.00804
G1 X130.759 Y136.386 E18.04538
G1 X130.017 Y136.481 E18.0827
G1 X129.5 Y136.5 E18.10851
G1 X119.5 Y136.5 E18.60742
G1 X118.753 Y136.46 E18.64474
G1 X118.015 Y136.341 E18.68203
G1 X117.512 Y136.203 E18.70805
G1 X116.759 Y136.386 E18.74671
G1 X116.017 Y136.481 E18.78404
G1 X115.5 Y136.5 E18.80985
G1 X105.5 Y136.5 E19.30875
G1 X104.753 Y136.46 E19.34607
G1 X104.015 Y136.341 E19.38336
G1 X103.293 Y136.143 E19.42071
G1 X102.597 Y135.87 E19.45801
G1 X101.934 Y135.523 E19.49535
G1 X101.311 Y135.108 E19.53269
G1 X100.737 Y134.629 E19.56999
G1 X100.216 Y134.092 E19.60732
G1 X99.757 Y133.502 E19.64461
G1 X99.362 Y132.866 E19.68197
G1 X99.038 Y132.192 E19.71928
G1 X98.788 Y131.487 E19.75659
G1 X98.614 Y130.759 E19.79394
G1 X98.519 Y130.017 E19.83126
G1 X98.5 Y129.5 E19.85707
G1 X98.5 Y119.5 E20.35597
G1 X98.54 Y118.753 E20.39329
G1 X98.659 Y118.015 E20.43059
G1 X98.797 Y117.512 E20.45661
G1 X98.614 Y116.759 E20.49527
G1 X98.519 Y116.017 E20.53259
G1 X98.5 Y115.5 E20.5584
G1 X98.5 Y105.5 E21.0573
G1 X98.54 Y104.753 E21.09462
G1 X98.659 Y104.015 E21.13192
G1 X98.857 Y103.293 E21.16927
G1 X99.13 Y102.597 E21.20657
G1 X99.477 Y101.934 E21.2439
G1 X99.892 Y101.311 E21.28125
G1 X100.371 Y100.737 E21.31855
G1 X100.908 Y100.216 E21.35587
G0 F6000 X100.765 Y100.902
G1 F1200 X101.299 Y100.409 E21.39213
G1 X101.884 Y99.979 E21.42836
G1 X102.513 Y99.615 E21.46461
G1 X103.178 Y99.322 E21.50087
G1 X103.871 Y99.104 E21.53711
G1 X104.583 Y98.964 E21.57331
G1 X105.5 Y98.9 E21.61917
G1 X115.5 Y98.9 E22.11808
G1 X116.225 Y98.94 E22.1543
G1 X116.942 Y99.059 E22.19056
G1 X117.506 Y99.219 E22.21981
G1 X117.871 Y99.104 E22.2389
G1 X118.583 Y98.964 E22.2751
G1 X119.5 Y98.9 E22.32097
G1 X129.5 Y98.9 E22.81987
G1 X130.225 Y98.94 E22.85609
G1 X130.942 Y99.059 E22.89235
G1 X131.641 Y99.257 E22.9286
G1 X132.314 Y99.53 E22.96483
G1 X132.953 Y99.875 E23.00106
G1 X133.55 Y100.289 E23.03731
G1 X134.098 Y100.765 E23.07352
G1 X134.591 Y101.299 E23.10978
G1 X135.021 Y101.884 E23.146
G1 X135.385 Y102.513 E23.18226
G1 X135.678 Y103.178 E23.21851
G1 X135.896 Y103.871 E23.25476
G1 X136.036 Y104.583 E23.29096
G1 X136.1 Y105.5 E23.33682
G1 X136.1 Y115.5 E23.83572
G1 X136.06 Y116.225 E23.87195
G1 X135.941 Y116.942 E23.90821
G1 X135.781 Y117.506 E23.93746
G1 X135.896 Y117.871 E23.95655
G1 X136.036 Y118.583 E23.99275
G1 X136.1 Y119.5 E24.03861
G1 X136.1 Y129.5 E24.53751
G1 X136.06 Y130.225 E24.57374
G1 X135.941 Y130.942 E24.61
G1 X135.743 Y131.641 E24.64624
G1 X135.47 Y132.314 E24.68248
G1 X135.125 Y132.953 E24.71871
G1 X134.711 Y133.55 E24.75495
G1 X134.235 Y134.098 E24.79117
G1 X133.701 Y134.591 E24.82743
G1 X133.116 Y135.021 E24.86365
G1 X132.487 Y135.385 E24.8999
G1 X131.822 Y135.678 E24.93616
G1 X131.129 Y135.896 E24.9724
G1 X130.417 Y136.036 E25.0086
G1 X129.5 Y136.1 E25.05447
G1 X119.5 Y136.1 E25.55337
G1 X118.775 Y136.06 E25.58959
G1 X118.058 Y135.941 E25.62585
G1 X117.494 Y135.781 E25.6551
G1 X117.129 Y135.896 E25.67419
G1 X116.417 Y136.036 E25.7104
G1 X115.5 Y136.1 E25.75626
G1 X105.5 Y136.1 E26.25516
G1 X104.775 Y136.06 E26.29138
G1 X104.058 Y135.941 E26.32764
G1 X103.359 Y135.743 E26.36389
G1 X102.686 Y135.47 E26.40012
G1 X102.047 Y135.125 E26.43635
G1 X101.45 Y134.711 E26.4726
G1 X100.902 Y134.235 E26.50881
G1 X100.409 Y133.701 E26.54507
G1 X99.979 Y133.116 E26.58129
G1 X99.615 Y132.487 E26.61755
G1 X99.322 Y131.822 E26.6538
G1 X99.104 Y131.129 E26.69005
G1 X98.964 Y130.417 E26.72625
G1 X98.9 Y129.5 E26.77211
G1 X98.9 Y119.5 E27.27101
G1 X98.94 Y118.775 E27.30724
G1 X99.059 Y118.058 E27.3435
G1 X99.219 Y117.494 E27.37275
G1 X99.104 Y117.129 E27.39184
G1 X98.964 Y116.417 E27.42804
G1 X98.9 Y115.5 E27.4739
G1 X98.9 Y105.5 E27.9728
G1 X98.94 Y104.775 E28.00903
G1 X99.059 Y104.058 E28.04529
G1 X99.257 Y103.359 E28.08154
G1 X99.53 Y102.686 E28.11777
G1 X99.875 Y102.047 E28.154
G1 X100.289 Y101.45 E28.19024
G1 X100.765 Y100.902 E28.22646
G0 F6000 X101.159 Y101.073
G1 F1200 X101.689 Y100.609 E28.2616
G1 X102.268 Y100.209 E28.29671
G1 X102.889 Y99.877 E28.33184
G1 X103.543 Y99.617 E28.36695
G1 X104.223 Y99.433 E28.4021
G1 X104.919 Y99.327 E28.43722
G1 X105.5 Y99.3 E28.46624
G1 X115.5 Y99.3 E28.96514
G1 X116.203 Y99.34 E29.00027
G1 X116.897 Y99.459 E29.0354
G1 X117.497 Y99.635 E29.0666
G1 X118.223 Y99.433 E29.10419
G1 X118.919 Y99.327 E29.13932
G1 X119.5 Y99.3 E29.16833
G1 X129.5 Y99.3 E29.66724
G1 X130.203 Y99.34 E29.70237
G1 X130.897 Y99.459 E29.7375
G1 X131.572 Y99.657 E29.77259
G1 X132.221 Y99.929 E29.8077
G1 X132.835 Y100.274 E29.84283
G1 X133.406 Y100.685 E29.87793
G1 X133.927 Y101.159 E29.91307
G1 X134.391 Y101.689 E29.94822
G1 X134.791 Y102.268 E29.98333
G1 X135.123 Y102.889 E30.01846
G1 X135.383 Y103.543 E30.05357
G1 X135.567 Y104.223 E30.08872
G1 X135.673 Y104.919 E30.12384
G1 X135.7 Y105.5 E30.15286
G1 X135.7 Y115.5 E30.65176
G1 X135.66 Y116.203 E30.68689
G1 X135.541 Y116.897 E30.72202
G1 X135.365 Y117.497 E30.75321
G1 X135.567 Y118.223 E30.79081
G1 X135.673 Y118.919 E30.82593
G1 X135.7 Y119.5 E30.85495
G1 X135.7 Y129.5 E31.35385
G1 X135.66 Y130.203 E31.38898
G1 X135.541 Y130.897 E31.42411
G1 X135.343 Y131.572 E31.45921
G1 X135.071 Y132.221 E31.49431
G1 X134.726 Y132.835 E31.52945
G1 X134.315 Y133.406 E31.56455
G1 X133.841 Y133.927 E31.59969
G1 X133.311 Y134.391 E31.63483
G1 X132.732 Y134.791 E31.66994
G1 X132.111 Y135.123 E31.70508
G1 X131.457 Y135.383 E31.74019
G1 X130.777 Y135.567 E31.77533
G1 X130.081 Y135.673 E31.81046
G1 X129.5 Y135.7 E31.83947
G1 X119.5 Y135.7 E32.33838
G1 X118.797 Y135.66 E32.37351
G1 X118.103 Y135.541 E32.40864
G1 X117.503 Y135.365 E32.43983
G1 X116.777 Y135.567 E32.47743
G1 X116.081 Y135.673 E32.51255
G1 X115.5 Y135.7 E32.54157
G1 X105.5 Y135.7 E33.04047
G1 X104.797 Y135.66 E33.0756
G1 X104.103 Y135.541 E33.11073
G1 X103.428 Y135.343 E33.14582
G1 X102.779 Y135.071 E33.18093
G1 X102.165 Y134.726 E33.21607
G1 X101.594 Y134.315 E33.25117
G1 X101.073 Y133.841 E33.28631
G1 X100.609 Y133.311 E33.32145
G1 X100.209 Y132.732 E33.35656
G1 X99.877 Y132.111 E33.39169
G1 X99.617 Y131.457 E33.4268
G1 X99.433 Y130.777 E33.46195
G1 X99.327 Y130.081 E33.49707
G1 X99.3 Y129.5 E33.52609
G1 X99.3 Y119.5 E34.02499
G1 X99.34 Y118.797 E34.06012
G1 X99.459 Y118.103 E34.09525
G1 X99.635 Y117.503 E34.12645
G1 X99.433 Y116.777 E34.16404
G1 X99.327 Y116.081 E34.19917
G1 X99.3 Y115.5 E34.22818
G1 X99.3 Y105.5 E34.72709
G1 X99.34 Y104.797 E34.76222
G1 X99.459 Y104.103 E34.79735
G1 X99.657 Y103.428 E34.83244
G1 X99.929 Y102.779 E34.86755
G1 X100.274 Y102.165 E34.90268
G1 X100.685 Y101.594 E34.93778
G1 X101.159 Y101.073 E34.97292
G0 F6000 X101.553 Y101.251
G1 F1200 X102.078 Y100.817 E35.00691
G1 X102.65 Y100.448 E35.04087
G1 X103.262 Y100.149 E35.07485
G1 X103.904 Y99.924 E35.10879
G1 X104.569 Y99.775 E35.14279
G1 X105.5 Y99.7 E35.18939
G1 X115.5 Y99.7 E35.68829
G1 X116.18 Y99.74 E35.72227
G1 X116.85 Y99.859 E35.75622
G1 X117.502 Y100.056 E35.7902
G1 X117.904 Y99.924 E35.81131
G1 X118.569 Y99.775 E35.84531
G1 X119.5 Y99.7 E35.89191
G1 X129.5 Y99.7 E36.39081
G1 X130.18 Y99.74 E36.4248
G1 X130.85 Y99.859 E36.45875
G1 X131.502 Y100.056 E36.49273
G1 X132.126 Y100.328 E36.52669
G1 X132.714 Y100.672 E36.56067
G1 X133.258 Y101.082 E36.59466
G1 X133.749 Y101.553 E36.6286
G1 X134.183 Y102.078 E36.66259
G1 X134.552 Y102.65 E36.69655
G1 X134.851 Y103.262 E36.73053
G1 X135.076 Y103.904 E36.76447
G1 X135.225 Y104.569 E36.79847
G1 X135.3 Y105.5 E36.84507
G1 X135.3 Y115.5 E37.34397
G1 X135.26 Y116.18 E37.37795
G1 X135.141 Y116.85 E37.4119
G1 X134.944 Y117.502 E37.44588
G1 X135.076 Y117.904 E37.46699
G1 X135.225 Y118.569 E37.50099
G1 X135.3 Y119.5 E37.54759
G1 X135.3 Y129.5 E38.04649
G1 X135.26 Y130.18 E38.08048
G1 X135.141 Y130.85 E38.11443
G1 X134.944 Y131.502 E38.14841
G1 X134.672 Y132.126 E38.18237
G1 X134.328 Y132.714 E38.21635
G1 X133.918 Y133.258 E38.25034
G1 X133.447 Y133.749 E38.28428
G1 X132.922 Y134.183 E38.31827
G1 X132.35 Y134.552 E38.35223
G1 X131.738 Y134.851 E38.38621
G1 X131.096 Y135.076 E38.42015
G1 X130.431 Y135.225 E38.45415
G1 X129.5 Y135.3 E38.50075
G1 X119.5 Y135.3 E38.99965
G1 X118.82 Y135.26 E39.03363
