;FLAVOR:Marlin
;TIME:3154
;Filament used: 1.70896m
;Layer height: 0.15
;MINX:84.387
;MINY:84.387
;MINZ:0.3
;MAXX:150.613
;MAXY:150.613
;MAXZ:6.9
;Generated with Cura_SteamEngine 4.5.0
M140 S60
M105
M190 S60
M104 S200
M105
M109 S200
M82 ;absolute extrusion mode
; Ender 3 Custom Start G-code
G92 E0 ; Reset Extruder
G28 ; Home all axes
G1 Z2.0 F3000 ; Move Z Axis up little to prevent scratching of Heat Bed
G1 X0.1 Y20 Z0.3 F5000.0 ; Move to start position
G1 X0.1 Y200.0 Z0.3 F1500.0 E15 ; Draw the first line
G1 X0.4 Y200.0 Z0.3 F5000.0 ; Move to side a little
G1 X0.4 Y20 Z0.3 F1500.0 E30 ; Draw the second line
G92 E0 ; Reset Extruder
G1 Z2.0 F3000 ; Move Z Axis up little to prevent scratching of Heat Bed
G1 X5 Y20 Z0.3 F5000.0 ; Move over to prevent blob squish
G92 E0
G92 E0
G1 F2700 E-5
;LAYER_COUNT:45
;LAYER:0
M107
G0 F6000 X89.832 Y94.438 Z0.3
;TYPE:SKIRT
G1 F2700 E0
G1 F1200 X90.564 Y93.762 E0.04971
G1 X92.349 Y92.014 E0.17435
G1 X94.195 Y90.102 E0.30695
G1 X95.029 Y89.212 E0.3678
G1 X95.699 Y88.556 E0.41458
G1 X96.199 Y88.132 E0.44729
G1 X96.76 Y87.685 E0.48307
G1 X97.048 Y87.463 E0.50121
G1 X97.435 Y87.175 E0.52528
G1 X98.21 Y86.648 E0.57204
G1 X99.028 Y86.189 E0.61883
G1 X99.489 Y85.968 E0.64434
G1 X99.838 Y85.811 E0.66343
G1 X100.246 Y85.638 E0.68554
G1 X100.962 Y85.35 E0.72404
G1 X101.846 Y85.037 E0.77083
G1 X102.754 Y84.801 E0.81764
G1 X103.359 Y84.688 E0.84834
G1 X103.868 Y84.608 E0.87405
G1 X104.298 Y84.549 E0.8957
G1 X104.965 Y84.471 E0.9292
G1 X105.894 Y84.403 E0.97568
G1 X106.555 Y84.387 E1.00866
G1 X110.193 Y84.387 E1.19016
G1 X111.087 Y84.401 E1.23477
G1 X113.9 Y84.482 E1.37517
G1 X116.424 Y84.482 E1.50109
G1 X120.013 Y84.387 E1.68021
G1 X128.201 Y84.387 E2.08871
G1 X128.898 Y84.397 E2.12349
G1 X130.025 Y84.471 E2.17984
G1 X130.844 Y84.571 E2.221
G1 X131.458 Y84.658 E2.25194
G1 X132.38 Y84.829 E2.29872
G1 X133.285 Y85.078 E2.34555
G1 X133.92 Y85.304 E2.37918
G1 X134.296 Y85.451 E2.39932
G1 X134.606 Y85.578 E2.41603
G1 X135.286 Y85.868 E2.45292
G1 X136.132 Y86.272 E2.49969
G1 X136.941 Y86.747 E2.54649
G1 X137.52 Y87.148 E2.58163
G1 X138.103 Y87.58 E2.61783
G1 X138.39 Y87.8 E2.63587
G1 X138.748 Y88.084 E2.65867
G1 X139.458 Y88.698 E2.7055
G1 X139.849 Y89.086 E2.73298
G1 X140.561 Y89.831 E2.78439
G1 X141.237 Y90.563 E2.8341
G1 X142.986 Y92.349 E2.95882
G1 X144.898 Y94.195 E3.09141
G1 X145.788 Y95.029 E3.15226
G1 X146.444 Y95.699 E3.19904
G1 X146.868 Y96.199 E3.23175
G1 X147.315 Y96.76 E3.26754
G1 X147.549 Y97.064 E3.28668
G1 X147.827 Y97.439 E3.30997
G1 X148.353 Y98.216 E3.35678
G1 X148.81 Y99.034 E3.40353
G1 X149.074 Y99.595 E3.43446
G1 X149.356 Y100.242 E3.46967
G1 X149.492 Y100.568 E3.48729
G1 X149.66 Y100.99 E3.50995
G1 X149.969 Y101.876 E3.55677
G1 X150.202 Y102.784 E3.60353
G1 X150.317 Y103.421 E3.63583
G1 X150.428 Y104.158 E3.67301
G1 X150.476 Y104.514 E3.69093
G1 X150.526 Y104.94 E3.71233
G1 X150.592 Y105.787 E3.75472
G1 X150.604 Y106.09 E3.76985
G1 X150.613 Y106.522 E3.7914
G1 X150.613 Y110.201 E3.97495
G1 X150.585 Y111.423 E4.03593
G1 X150.511 Y113.99 E4.16405
G1 X150.511 Y116.531 E4.29082
G1 X150.6 Y119.617 E4.44485
G1 X150.61 Y120.407 E4.48427
G1 X150.613 Y128.223 E4.87421
G1 X150.604 Y128.886 E4.90729
G1 X150.554 Y129.793 E4.95261
G1 X150.492 Y130.393 E4.9827
G1 X150.431 Y130.852 E5.0058
G1 X150.339 Y131.479 E5.03742
G1 X150.164 Y132.4 E5.08419
G1 X149.91 Y133.303 E5.13099
G1 X149.693 Y133.907 E5.16301
G1 X149.428 Y134.581 E5.19914
G1 X149.294 Y134.907 E5.21672
G1 X149.114 Y135.325 E5.23943
G1 X148.707 Y136.169 E5.28618
G1 X148.229 Y136.976 E5.33297
G1 X147.851 Y137.52 E5.36602
G1 X147.42 Y138.102 E5.40215
G1 X147.209 Y138.378 E5.41948
G1 X146.926 Y138.736 E5.44225
G1 X146.314 Y139.446 E5.48902
G1 X145.907 Y139.857 E5.51787
G1 X145.168 Y140.562 E5.56883
G1 X144.436 Y141.238 E5.61854
G1 X142.651 Y142.986 E5.74318
G1 X140.84 Y144.862 E5.87327
G1 X139.974 Y145.786 E5.93645
G1 X139.304 Y146.442 E5.98323
G1 X138.807 Y146.863 E6.01573
G1 X138.244 Y147.312 E6.05165
G1 X137.952 Y147.537 E6.07005
G1 X137.565 Y147.825 E6.09411
G1 X136.79 Y148.352 E6.14087
G1 X135.972 Y148.811 E6.18767
G1 X135.517 Y149.029 E6.21284
G1 X135.173 Y149.184 E6.23166
G1 X134.752 Y149.363 E6.25448
G1 X134.037 Y149.65 E6.29292
G1 X133.152 Y149.962 E6.33974
G1 X132.244 Y150.198 E6.38654
G1 X131.689 Y150.302 E6.41471
G1 X131.174 Y150.385 E6.44074
G1 X130.702 Y150.451 E6.46452
G1 X130.035 Y150.529 E6.49802
G1 X129.106 Y150.597 E6.54449
G1 X128.445 Y150.613 E6.57748
G1 X124.807 Y150.613 E6.75898
G1 X123.914 Y150.599 E6.80354
G1 X121.1 Y150.518 E6.94399
G1 X118.577 Y150.518 E7.06986
G1 X114.987 Y150.613 E7.24903
G1 X106.799 Y150.613 E7.65753
G1 X106.102 Y150.603 E7.69231
G1 X104.975 Y150.529 E7.74865
G1 X104.156 Y150.429 E7.78982
G1 X103.542 Y150.342 E7.82076
G1 X102.62 Y150.171 E7.86754
G1 X101.715 Y149.922 E7.91437
G1 X101.08 Y149.696 E7.94799
G1 X100.704 Y149.549 E7.96814
G1 X100.394 Y149.422 E7.98485
G1 X99.714 Y149.132 E8.02173
G1 X98.868 Y148.728 E8.0685
G1 X98.059 Y148.253 E8.11531
G1 X97.474 Y147.848 E8.15081
G1 X96.63 Y147.216 E8.20341
G1 X96.277 Y146.938 E8.22583
G1 X95.566 Y146.327 E8.2726
G1 X95.126 Y145.891 E8.3035
G1 X94.439 Y145.169 E8.35322
G1 X93.763 Y144.437 E8.40293
G1 X92.014 Y142.651 E8.52765
G1 X90.135 Y140.837 E8.65795
G1 X89.209 Y139.969 E8.72127
G1 X88.553 Y139.299 E8.76805
G1 X88.127 Y138.795 E8.80097
G1 X87.682 Y138.236 E8.83662
G1 X87.451 Y137.936 E8.85551
G1 X87.173 Y137.561 E8.8788
G1 X86.647 Y136.784 E8.92561
G1 X86.19 Y135.966 E8.97236
G1 X85.926 Y135.405 E9.00329
G1 X85.644 Y134.758 E9.0385
G1 X85.508 Y134.432 E9.05612
G1 X85.34 Y134.01 E9.07878
G1 X85.031 Y133.124 E9.1256
G1 X84.798 Y132.216 E9.17237
G1 X84.683 Y131.579 E9.20466
G1 X84.572 Y130.842 E9.24184
G1 X84.524 Y130.483 E9.25991
G1 X84.474 Y130.056 E9.28136
G1 X84.408 Y129.214 E9.3235
G1 X84.396 Y128.912 E9.33858
G1 X84.387 Y128.478 E9.36023
G1 X84.387 Y124.801 E9.54368
G1 X84.397 Y124.095 E9.57891
G1 X84.415 Y123.578 E9.60472
G1 X84.489 Y121.01 E9.73289
G1 X84.489 Y118.469 E9.85966
G1 X84.4 Y115.383 E10.01368
G1 X84.39 Y114.593 E10.0531
G1 X84.387 Y106.763 E10.44374
G1 X84.397 Y106.088 E10.47742
G1 X84.447 Y105.189 E10.52234
G1 X84.473 Y104.921 E10.53577
G1 X84.566 Y104.162 E10.57392
G1 X84.657 Y103.536 E10.60548
G1 X84.832 Y102.614 E10.6523
G1 X85.084 Y101.711 E10.69908
G1 X85.311 Y101.08 E10.73253
G1 X85.577 Y100.406 E10.76868
G1 X85.706 Y100.093 E10.78557
G1 X85.886 Y99.675 E10.80828
G1 X86.293 Y98.831 E10.85502
G1 X86.771 Y98.024 E10.90182
G1 X87.149 Y97.48 E10.93487
G1 X87.58 Y96.898 E10.971
G1 X87.791 Y96.622 E10.98833
G1 X88.074 Y96.264 E11.0111
G1 X88.686 Y95.554 E11.05786
G1 X89.093 Y95.143 E11.08672
G1 X89.832 Y94.438 E11.13768
G0 F6000 X90.103 Y94.732
G1 F1200 X90.831 Y94.059 E11.18714
G1 X92.651 Y92.277 E11.31422
G1 X94.459 Y90.405 E11.44406
G1 X95.321 Y89.485 E11.50695
G1 X95.979 Y88.842 E11.55285
G1 X96.448 Y88.445 E11.58351
G1 X97.009 Y87.998 E11.6193
G1 X97.287 Y87.784 E11.6368
G1 X97.674 Y87.496 E11.66087
G1 X98.435 Y86.979 E11.70677
G1 X99.653 Y86.333 E11.77555
G1 X100.002 Y86.176 E11.79464
G1 X100.395 Y86.009 E11.81595
G1 X101.111 Y85.721 E11.85445
G1 X101.98 Y85.415 E11.90041
G1 X102.871 Y85.185 E11.94632
G1 X103.421 Y85.084 E11.97422
G1 X103.93 Y85.004 E11.99993
G1 X104.345 Y84.947 E12.02083
G1 X105.012 Y84.869 E12.05433
G1 X105.907 Y84.802 E12.09911
G1 X106.222 Y84.792 E12.11483
G1 X106.555 Y84.787 E12.13144
G1 X110.188 Y84.787 E12.3127
G1 X111.075 Y84.8 E12.35695
G1 X113.923 Y84.882 E12.4991
G1 X116.435 Y84.882 E12.62442
G1 X120.013 Y84.787 E12.80299
G1 X128.195 Y84.787 E13.21119
G1 X128.892 Y84.797 E13.24597
G1 X129.979 Y84.869 E13.30032
G1 X130.788 Y84.967 E13.34098
G1 X131.402 Y85.054 E13.37192
G1 X132.307 Y85.222 E13.41784
G1 X133.194 Y85.469 E13.46377
G1 X133.775 Y85.677 E13.49456
G1 X134.151 Y85.824 E13.5147
G1 X134.449 Y85.946 E13.53077
G1 X135.129 Y86.236 E13.56765
G1 X135.96 Y86.633 E13.6136
G1 X136.752 Y87.101 E13.65949
G1 X137.282 Y87.469 E13.69168
G1 X137.865 Y87.901 E13.72788
G1 X138.142 Y88.114 E13.74532
G1 X138.5 Y88.398 E13.76812
G1 X139.195 Y89.001 E13.81402
G1 X139.56 Y89.363 E13.83967
G1 X140.267 Y90.102 E13.89069
G1 X140.94 Y90.83 E13.94015
G1 X142.723 Y92.651 E14.0673
G1 X144.595 Y94.459 E14.19714
G1 X145.515 Y95.321 E14.26004
G1 X146.158 Y95.979 E14.30594
G1 X146.555 Y96.448 E14.3366
G1 X147.002 Y97.009 E14.37238
G1 X147.227 Y97.302 E14.39081
G1 X147.505 Y97.677 E14.4141
G1 X148.021 Y98.44 E14.46006
G1 X148.468 Y99.245 E14.506
G1 X148.707 Y99.755 E14.53409
G1 X148.989 Y100.402 E14.56931
G1 X149.12 Y100.716 E14.58628
G1 X149.288 Y101.138 E14.60894
G1 X149.591 Y102.008 E14.6549
G1 X149.818 Y102.9 E14.70082
G1 X149.922 Y103.48 E14.73022
G1 X150.033 Y104.217 E14.7674
G1 X150.079 Y104.56 E14.78467
G1 X150.129 Y104.986 E14.80607
G1 X150.193 Y105.803 E14.84695
G1 X150.205 Y106.106 E14.86208
G1 X150.213 Y106.522 E14.88284
G1 X150.213 Y110.196 E15.06614
G1 X150.195 Y111.181 E15.11529
G1 X150.186 Y111.393 E15.12587
G1 X150.111 Y114.014 E15.25669
G1 X150.111 Y116.508 E15.38112
G1 X150.2 Y119.622 E15.53654
G1 X150.21 Y120.407 E15.5757
G1 X150.213 Y128.218 E15.9654
G1 X150.204 Y128.881 E15.99848
G1 X150.156 Y129.754 E16.0421
G1 X150.095 Y130.343 E16.07164
G1 X150.036 Y130.794 E16.09433
G1 X149.944 Y131.421 E16.12595
G1 X149.771 Y132.325 E16.17187
G1 X149.52 Y133.211 E16.21781
G1 X149.321 Y133.761 E16.24699
G1 X149.056 Y134.435 E16.28312
G1 X148.927 Y134.748 E16.30001
G1 X148.747 Y135.166 E16.32272
G1 X148.346 Y135.995 E16.36866
G1 X147.875 Y136.786 E16.41459
G1 X147.529 Y137.282 E16.44476
G1 X146.896 Y138.13 E16.49756
G1 X146.613 Y138.488 E16.52032
G1 X146.011 Y139.184 E16.56623
G1 X145.63 Y139.568 E16.59322
G1 X144.897 Y140.268 E16.64379
G1 X144.169 Y140.941 E16.69325
G1 X142.349 Y142.723 E16.82033
G1 X140.543 Y144.593 E16.95003
G1 X139.682 Y145.512 E17.01285
G1 X139.024 Y146.156 E17.05879
G1 X138.557 Y146.55 E17.08927
G1 X137.994 Y146.999 E17.1252
G1 X137.713 Y147.216 E17.14291
G1 X137.326 Y147.504 E17.16698
G1 X136.565 Y148.021 E17.21288
G1 X135.353 Y148.664 E17.28133
G1 X135.009 Y148.819 E17.30015
G1 X134.603 Y148.992 E17.32217
G1 X133.888 Y149.279 E17.36061
G1 X133.019 Y149.585 E17.40657
G1 X132.127 Y149.814 E17.45252
G1 X131.626 Y149.907 E17.47794
G1 X131.111 Y149.99 E17.50396
G1 X130.655 Y150.053 E17.52693
G1 X129.988 Y150.131 E17.56043
G1 X129.093 Y150.198 E17.60521
G1 X128.778 Y150.208 E17.62093
G1 X128.445 Y150.213 E17.63755
G1 X124.812 Y150.213 E17.8188
G1 X123.925 Y150.2 E17.86306
G1 X121.076 Y150.118 E18.00525
G1 X118.565 Y150.118 E18.13053
G1 X114.987 Y150.213 E18.3091
G1 X106.805 Y150.213 E18.7173
G1 X106.108 Y150.203 E18.75208
G1 X105.021 Y150.131 E18.80643
G1 X104.212 Y150.033 E18.84708
G1 X103.598 Y149.946 E18.87802
G1 X102.693 Y149.778 E18.92394
G1 X101.806 Y149.531 E18.96988
G1 X101.225 Y149.323 E19.00067
G1 X100.849 Y149.176 E19.02081
G1 X100.551 Y149.054 E19.03687
G1 X99.871 Y148.764 E19.07375
G1 X99.04 Y148.367 E19.1197
G1 X98.248 Y147.899 E19.1656
G1 X97.713 Y147.527 E19.19811
G1 X96.878 Y146.902 E19.25014
G1 X96.525 Y146.624 E19.27256
G1 X95.827 Y146.023 E19.31851
G1 X95.415 Y145.615 E19.34744
G1 X94.733 Y144.898 E19.39681
G1 X94.06 Y144.17 E19.44627
G1 X92.277 Y142.349 E19.57342
G1 X90.404 Y140.541 E19.7033
G1 X89.483 Y139.677 E19.7663
G1 X88.839 Y139.019 E19.81223
G1 X88.44 Y138.546 E19.84311
G1 X87.995 Y137.987 E19.87875
G1 X87.773 Y137.698 E19.89693
G1 X87.495 Y137.323 E19.92022
G1 X86.979 Y136.56 E19.96618
G1 X86.532 Y135.755 E20.01211
G1 X86.293 Y135.245 E20.04021
G1 X86.011 Y134.598 E20.07543
G1 X85.88 Y134.284 E20.0924
G1 X85.712 Y133.862 E20.11506
G1 X85.409 Y132.992 E20.16102
G1 X85.182 Y132.1 E20.20694
G1 X85.078 Y131.52 E20.23634
G1 X84.967 Y130.783 E20.27352
G1 X84.921 Y130.437 E20.29094
G1 X84.871 Y130.01 E20.31239
G1 X84.807 Y129.198 E20.35302
G1 X84.795 Y128.896 E20.3681
G1 X84.787 Y128.478 E20.38896
G1 X84.787 Y124.807 E20.57211
G1 X84.814 Y123.606 E20.63204
G1 X84.889 Y120.986 E20.76281
G1 X84.889 Y118.492 E20.88723
G1 X84.8 Y115.378 E21.04265
G1 X84.79 Y114.593 E21.08182
G1 X84.787 Y106.769 E21.47216
G1 X84.797 Y106.094 E21.50584
G1 X84.846 Y105.227 E21.54917
G1 X84.962 Y104.219 E21.59979
G1 X85.053 Y103.593 E21.63135
G1 X85.225 Y102.689 E21.67726
G1 X85.475 Y101.803 E21.72318
G1 X85.683 Y101.227 E21.75374
G1 X86.073 Y100.252 E21.80613
G1 X86.253 Y99.834 E21.82883
G1 X86.654 Y99.005 E21.87478
G1 X87.125 Y98.214 E21.92071
G1 X87.471 Y97.718 E21.95088
G1 X88.104 Y96.87 E22.00367
G1 X88.387 Y96.512 E22.02644
G1 X88.989 Y95.816 E22.07235
G1 X89.37 Y95.432 E22.09934
G1 X90.103 Y94.732 E22.1499
G0 F6000 X90.375 Y95.025
G1 F1200 X91.119 Y94.338 E22.20043
G1 X92.918 Y92.576 E22.32606
G1 X94.755 Y90.674 E22.45798
G1 X95.612 Y89.759 E22.52052
G1 X96.259 Y89.128 E22.56561
G1 X96.698 Y88.758 E22.59426
G1 X97.525 Y88.105 E22.64683
G1 X97.912 Y87.817 E22.67089
G1 X98.66 Y87.311 E22.71595
G1 X99.817 Y86.698 E22.78127
G1 X100.166 Y86.541 E22.80037
G1 X100.545 Y86.38 E22.82091
G1 X101.261 Y86.092 E22.85941
G1 X102.113 Y85.792 E22.90448
G1 X102.988 Y85.569 E22.94953
G1 X103.483 Y85.479 E22.97463
G1 X103.992 Y85.399 E23.00033
G1 X104.391 Y85.344 E23.02043
G1 X105.058 Y85.266 E23.05393
G1 X105.919 Y85.202 E23.097
G1 X106.234 Y85.192 E23.11273
G1 X106.555 Y85.187 E23.12874
G1 X110.182 Y85.187 E23.3097
G1 X111.064 Y85.2 E23.3537
G1 X113.912 Y85.282 E23.49585
G1 X116.447 Y85.282 E23.62232
G1 X120.013 Y85.187 E23.80029
G1 X128.189 Y85.187 E24.2082
G1 X128.886 Y85.197 E24.24297
G1 X129.932 Y85.266 E24.29527
G1 X130.732 Y85.363 E24.33548
G1 X131.346 Y85.45 E24.36641
G1 X132.234 Y85.616 E24.41148
G1 X133.103 Y85.86 E24.45652
G1 X133.629 Y86.049 E24.4844
G1 X134.005 Y86.196 E24.50454
G1 X134.292 Y86.314 E24.52002
G1 X134.972 Y86.604 E24.5569
G1 X135.787 Y86.994 E24.60198
G1 X136.563 Y87.455 E24.64701
G1 X137.044 Y87.791 E24.67628
G1 X137.627 Y88.223 E24.71249
G1 X137.893 Y88.427 E24.72921
G1 X138.251 Y88.711 E24.75201
G1 X138.933 Y89.303 E24.79706
G1 X139.271 Y89.639 E24.82084
G1 X139.974 Y90.374 E24.87158
G1 X140.661 Y91.118 E24.92211
G1 X142.424 Y92.918 E25.04781
G1 X144.326 Y94.755 E25.17973
G1 X145.241 Y95.612 E25.24228
G1 X145.872 Y96.259 E25.28736
G1 X146.242 Y96.698 E25.31601
G1 X146.689 Y97.259 E25.35179
G1 X146.906 Y97.541 E25.36955
G1 X147.184 Y97.916 E25.39283
G1 X147.689 Y98.664 E25.43786
G1 X148.126 Y99.454 E25.4829
G1 X148.34 Y99.915 E25.50826
G1 X148.749 Y100.864 E25.55982
G1 X148.917 Y101.286 E25.58248
G1 X149.213 Y102.139 E25.62752
G1 X149.433 Y103.015 E25.67258
G1 X149.526 Y103.54 E25.69918
G1 X149.637 Y104.277 E25.73637
G1 X149.681 Y104.607 E25.75298
G1 X149.731 Y105.033 E25.77438
G1 X149.793 Y105.818 E25.81366
G1 X149.805 Y106.121 E25.82879
G1 X149.813 Y106.522 E25.8488
G1 X149.813 Y110.19 E26.0318
G1 X149.795 Y111.165 E26.08045
G1 X149.786 Y111.368 E26.09059
G1 X149.711 Y114.002 E26.22205
G1 X149.711 Y116.519 E26.34762
G1 X149.8 Y119.628 E26.5028
G1 X149.81 Y120.408 E26.54171
G1 X149.813 Y128.212 E26.93106
G1 X149.804 Y128.875 E26.96414
G1 X149.758 Y129.716 E27.00616
G1 X149.698 Y130.293 E27.0351
G1 X149.64 Y130.736 E27.05739
G1 X149.548 Y131.363 E27.089
G1 X149.377 Y132.25 E27.13407
G1 X149.129 Y133.118 E27.17911
G1 X148.949 Y133.614 E27.20543
G1 X148.684 Y134.288 E27.24157
G1 X148.559 Y134.59 E27.25787
G1 X148.379 Y135.008 E27.28058
G1 X147.986 Y135.821 E27.32563
G1 X147.522 Y136.596 E27.37069
G1 X147.208 Y137.044 E27.39799
G1 X146.582 Y137.881 E27.45013
G1 X146.299 Y138.239 E27.4729
G1 X145.708 Y138.922 E27.51796
G1 X145.353 Y139.28 E27.54311
G1 X144.625 Y139.975 E27.59333
G1 X143.881 Y140.662 E27.64385
G1 X142.082 Y142.424 E27.76948
G1 X140.214 Y144.359 E27.90366
G1 X139.39 Y145.238 E27.96377
G1 X138.744 Y145.869 E28.00883
G1 X138.308 Y146.238 E28.03732
G1 X137.745 Y146.687 E28.07325
G1 X137.475 Y146.895 E28.09025
G1 X137.088 Y147.183 E28.11432
G1 X136.34 Y147.689 E28.15937
G1 X135.188 Y148.3 E28.22443
G1 X134.844 Y148.455 E28.24326
G1 X134.454 Y148.621 E28.2644
G1 X133.739 Y148.908 E28.30284
G1 X132.886 Y149.207 E28.34794
G1 X132.011 Y149.429 E28.39297
G1 X131.562 Y149.512 E28.41575
G1 X131.047 Y149.595 E28.44178
G1 X130.609 Y149.656 E28.46384
