;FLAVOR:Marlin
;TIME:9321
;Filament used: 4.85785m
;Layer height: 0.15
;MINX:86.587
;MINY:86.608
;MINZ:0.3
;MAXX:148.414
;MAXY:148.392
;MAXZ:24
;Generated with Cura_SteamEngine 4.5.0
M140 S60
M105
M190 S60
M104 S200
M105
M109 S200
M82 ;absolute extrusion mode
; Ender 3 Custom Start G-code
G92 E0 ; Reset Extruder
G28 ; Home all axes
G1 Z2.0 F3000 ; Move Z Axis up little to prevent scratching of Heat Bed
G1 X0.1 Y20 Z0.3 F5000.0 ; Move to start position
G1 X0.1 Y200.0 Z0.3 F1500.0 E15 ; Draw the first line
G1 X0.4 Y200.0 Z0.3 F5000.0 ; Move to side a little
G1 X0.4 Y20 Z0.3 F1500.0 E30 ; Draw the second line
G92 E0 ; Reset Extruder
G1 Z2.0 F3000 ; Move Z Axis up little to prevent scratching of Heat Bed
G1 X5 Y20 Z0.3 F5000.0 ; Move over to prevent blob squish
G92 E0
G92 E0
G1 F2700 E-5
;LAYER_COUNT:159
;LAYER:0
M107
G0 F6000 X95.321 Y95.961 Z0.3
;TYPE:SKIRT
G1 F2700 E0
G1 F1200 X97.173 Y94.201 E0.12746
G1 X97.822 Y93.649 E0.16997
G1 X99.782 Y92.157 E0.29286
G1 X100.505 Y91.667 E0.33644
G1 X102.677 Y90.369 E0.46267
G1 X103.396 Y89.989 E0.50325
G1 X105.677 Y88.931 E0.62869
G1 X106.447 Y88.623 E0.67007
G1 X108.778 Y87.83 E0.79291
G1 X109.618 Y87.595 E0.83642
G1 X112.065 Y87.058 E0.96141
G1 X112.91 Y86.921 E1.00412
G1 X115.422 Y86.653 E1.13015
G1 X116.246 Y86.609 E1.17132
G1 X118.698 Y86.608 E1.29365
G1 X119.57 Y86.657 E1.33722
G1 X122.211 Y86.953 E1.46981
G1 X123.026 Y87.088 E1.51102
G1 X125.287 Y87.588 E1.62655
G1 X126.073 Y87.805 E1.66723
G1 X128.562 Y88.636 E1.79815
G1 X129.381 Y88.962 E1.84212
G1 X131.65 Y90.017 E1.96696
G1 X132.373 Y90.401 E2.00781
G1 X134.464 Y91.655 E2.12945
G1 X135.166 Y92.13 E2.17174
G1 X137.184 Y93.661 E2.29811
G1 X137.831 Y94.209 E2.34041
G1 X139.651 Y95.931 E2.46541
G1 X140.241 Y96.554 E2.50822
G1 X141.868 Y98.474 E2.63378
G1 X142.371 Y99.137 E2.6753
G1 X143.767 Y101.194 E2.79932
G1 X144.204 Y101.92 E2.8416
G1 X145.368 Y104.115 E2.96555
G1 X145.724 Y104.886 E3.00792
G1 X146.649 Y107.211 E3.13276
G1 X146.916 Y108.001 E3.17436
G1 X147.587 Y110.41 E3.29912
G1 X147.771 Y111.243 E3.34168
G1 X148.187 Y113.784 E3.47014
G1 X148.277 Y114.609 E3.51154
G1 X148.413 Y117.043 E3.63317
G1 X148.414 Y117.895 E3.67567
G1 X148.278 Y120.435 E3.80257
G1 X148.187 Y121.273 E3.84463
G1 X147.797 Y123.665 E3.96554
G1 X147.615 Y124.496 E4.00798
G1 X146.908 Y127.043 E4.13986
G1 X146.643 Y127.833 E4.18143
G1 X145.757 Y130.067 E4.30133
G1 X145.389 Y130.86 E4.34494
G1 X144.226 Y133.042 E4.4683
G1 X143.798 Y133.752 E4.50966
G1 X142.334 Y135.91 E4.63976
G1 X141.819 Y136.586 E4.68216
G1 X140.213 Y138.473 E4.80578
G1 X139.645 Y139.073 E4.847
G1 X137.85 Y140.778 E4.97052
G1 X137.203 Y141.329 E5.01291
G1 X135.199 Y142.855 E5.13858
G1 X134.47 Y143.348 E5.18249
G1 X132.346 Y144.615 E5.30588
G1 X131.642 Y144.987 E5.3456
G1 X129.305 Y146.075 E5.47421
G1 X128.523 Y146.389 E5.51625
G1 X126.225 Y147.17 E5.63734
G1 X125.385 Y147.404 E5.68084
G1 X122.931 Y147.942 E5.80618
G1 X122.088 Y148.079 E5.84879
G1 X119.576 Y148.347 E5.97483
G1 X118.752 Y148.391 E6.01599
G1 X116.302 Y148.392 E6.13822
G1 X115.43 Y148.343 E6.1818
G1 X112.789 Y148.047 E6.31438
G1 X111.974 Y147.912 E6.3556
G1 X109.713 Y147.412 E6.47112
G1 X108.927 Y147.195 E6.5118
G1 X106.438 Y146.364 E6.64272
G1 X105.619 Y146.038 E6.6867
G1 X103.348 Y144.982 E6.81165
G1 X102.625 Y144.598 E6.85249
G1 X100.536 Y143.345 E6.97402
G1 X99.834 Y142.87 E7.01631
G1 X97.816 Y141.339 E7.14268
G1 X97.169 Y140.791 E7.18498
G1 X95.349 Y139.069 E7.30999
G1 X94.759 Y138.446 E7.35279
G1 X93.132 Y136.526 E7.47835
G1 X92.628 Y135.862 E7.51994
G1 X91.231 Y133.803 E7.64407
G1 X90.794 Y133.077 E7.68635
G1 X89.629 Y130.879 E7.81046
G1 X89.274 Y130.11 E7.85272
G1 X88.352 Y127.793 E7.97713
G1 X88.085 Y127.002 E8.01878
G1 X87.413 Y124.59 E8.1437
G1 X87.229 Y123.754 E8.1864
G1 X86.813 Y121.207 E8.31516
G1 X86.723 Y120.379 E8.35671
G1 X86.587 Y117.909 E8.48013
G1 X86.587 Y117.044 E8.52328
G1 X86.723 Y114.615 E8.64465
G1 X86.814 Y113.789 E8.68611
G1 X87.229 Y111.258 E8.81407
G1 X87.411 Y110.43 E8.85637
G1 X88.096 Y107.967 E8.98391
G1 X88.361 Y107.181 E9.02529
G1 X89.263 Y104.907 E9.14734
G1 X89.624 Y104.124 E9.19036
G1 X90.793 Y101.923 E9.31469
G1 X91.217 Y101.218 E9.35574
G1 X92.626 Y99.131 E9.48136
G1 X93.156 Y98.434 E9.52505
G1 X94.759 Y96.554 E9.64831
G1 X95.321 Y95.961 E9.68907
G0 F6000 X95.596 Y96.251
G1 F1200 X97.448 Y94.491 E9.81653
G1 X98.064 Y93.967 E9.85688
G1 X100.024 Y92.475 E9.97977
G1 X100.71 Y92.011 E10.02109
G1 X102.882 Y90.713 E10.14733
G1 X103.564 Y90.352 E10.18583
G1 X105.845 Y89.294 E10.31127
G1 X106.576 Y89.001 E10.35056
G1 X108.907 Y88.208 E10.4734
G1 X109.704 Y87.986 E10.51468
G1 X112.151 Y87.449 E10.63966
G1 X112.952 Y87.319 E10.68015
G1 X115.464 Y87.051 E10.80619
G1 X116.246 Y87.009 E10.84526
G1 X118.698 Y87.008 E10.96759
G1 X119.525 Y87.054 E11.00891
G1 X122.166 Y87.35 E11.14149
G1 X122.94 Y87.479 E11.18064
G1 X125.201 Y87.979 E11.29617
G1 X125.946 Y88.185 E11.33473
G1 X128.435 Y89.016 E11.46565
G1 X129.212 Y89.325 E11.50736
G1 X131.481 Y90.38 E11.6322
G1 X132.167 Y90.744 E11.67095
G1 X134.258 Y91.998 E11.79259
G1 X134.925 Y92.449 E11.83276
G1 X136.943 Y93.98 E11.95913
G1 X137.556 Y94.5 E11.99924
G1 X139.376 Y96.222 E12.12424
G1 X139.936 Y96.813 E12.16486
G1 X141.563 Y98.733 E12.29041
G1 X142.04 Y99.362 E12.3298
G1 X143.436 Y101.419 E12.45382
G1 X143.851 Y102.107 E12.49391
G1 X145.015 Y104.302 E12.61786
G1 X145.353 Y105.033 E12.65804
G1 X146.278 Y107.358 E12.78288
G1 X146.531 Y108.108 E12.82237
G1 X147.202 Y110.517 E12.94713
G1 X147.376 Y111.307 E12.98749
G1 X147.792 Y113.848 E13.11595
G1 X147.877 Y114.631 E13.15524
G1 X148.013 Y117.065 E13.27686
G1 X148.014 Y117.874 E13.31722
G1 X147.878 Y120.414 E13.44413
G1 X147.793 Y121.209 E13.48402
G1 X147.403 Y123.601 E13.60493
G1 X147.229 Y124.389 E13.64519
G1 X146.522 Y126.936 E13.77706
G1 X146.271 Y127.685 E13.81647
G1 X145.385 Y129.919 E13.93637
G1 X145.036 Y130.672 E13.97778
G1 X143.873 Y132.854 E14.10114
G1 X143.467 Y133.527 E14.14035
G1 X142.003 Y135.685 E14.27045
G1 X141.514 Y136.327 E14.31071
G1 X139.908 Y138.214 E14.43434
G1 X139.369 Y138.783 E14.47344
G1 X137.574 Y140.488 E14.59695
G1 X136.961 Y141.01 E14.63712
G1 X134.957 Y142.536 E14.76279
G1 X134.265 Y143.004 E14.80447
G1 X132.141 Y144.271 E14.92785
G1 X131.473 Y144.625 E14.96557
G1 X129.136 Y145.713 E15.09418
G1 X128.394 Y146.01 E15.13405
G1 X126.096 Y146.791 E15.25514
G1 X125.3 Y147.013 E15.29637
G1 X122.846 Y147.551 E15.42171
G1 X122.046 Y147.681 E15.46214
G1 X119.534 Y147.949 E15.58818
G1 X118.752 Y147.991 E15.62725
G1 X116.302 Y147.992 E15.74948
G1 X115.475 Y147.946 E15.7908
G1 X112.834 Y147.65 E15.92339
G1 X112.06 Y147.521 E15.96254
G1 X109.799 Y147.021 E16.07806
G1 X109.054 Y146.815 E16.11663
G1 X106.565 Y145.984 E16.24754
G1 X105.788 Y145.675 E16.28926
G1 X103.517 Y144.619 E16.41421
G1 X102.831 Y144.255 E16.45295
G1 X100.742 Y143.002 E16.57448
G1 X100.075 Y142.551 E16.61465
G1 X98.057 Y141.02 E16.74103
G1 X97.444 Y140.5 E16.78113
G1 X95.624 Y138.778 E16.90613
G1 X95.064 Y138.187 E16.94675
G1 X93.437 Y136.267 E17.07231
G1 X92.959 Y135.638 E17.11172
G1 X91.562 Y133.579 E17.23586
G1 X91.148 Y132.89 E17.27596
G1 X89.983 Y130.692 E17.40007
G1 X89.645 Y129.962 E17.44021
G1 X88.723 Y127.645 E17.56462
G1 X88.47 Y126.895 E17.60411
G1 X87.798 Y124.483 E17.72902
G1 X87.624 Y123.69 E17.76953
G1 X87.208 Y121.143 E17.89828
G1 X87.122 Y120.357 E17.93773
G1 X86.986 Y117.887 E18.06115
G1 X86.987 Y117.066 E18.10211
G1 X87.123 Y114.637 E18.22348
G1 X87.209 Y113.854 E18.26278
G1 X87.624 Y111.323 E18.39074
G1 X87.797 Y110.537 E18.43089
G1 X88.482 Y108.074 E18.55843
G1 X88.732 Y107.329 E18.59764
G1 X89.634 Y105.055 E18.71969
G1 X89.978 Y104.312 E18.76054
G1 X91.147 Y102.111 E18.88487
G1 X91.549 Y101.441 E18.92385
G1 X92.958 Y99.354 E19.04948
G1 X93.46 Y98.694 E19.09085
G1 X95.063 Y96.814 E19.21411
G1 X95.596 Y96.251 E19.25279
G0 F6000 X95.872 Y96.541
G1 F1200 X97.724 Y94.781 E19.38025
G1 X98.306 Y94.285 E19.4184
G1 X100.266 Y92.793 E19.5413
G1 X100.915 Y92.354 E19.58039
G1 X103.087 Y91.056 E19.70662
G1 X103.733 Y90.715 E19.74307
G1 X106.014 Y89.657 E19.86851
G1 X106.705 Y89.38 E19.90565
G1 X109.036 Y88.587 E20.02849
G1 X109.79 Y88.377 E20.06754
G1 X112.237 Y87.84 E20.19253
G1 X112.994 Y87.717 E20.23079
G1 X115.506 Y87.449 E20.35683
G1 X116.246 Y87.409 E20.3938
G1 X118.698 Y87.408 E20.51613
G1 X119.481 Y87.452 E20.55526
G1 X122.122 Y87.748 E20.68784
G1 X122.853 Y87.869 E20.72481
G1 X125.114 Y88.369 E20.84033
G1 X125.82 Y88.564 E20.87687
G1 X128.309 Y89.395 E21.00779
G1 X129.043 Y89.688 E21.04722
G1 X131.312 Y90.743 E21.17206
G1 X131.961 Y91.087 E21.2087
G1 X134.052 Y92.341 E21.33035
G1 X134.683 Y92.767 E21.36833
G1 X136.701 Y94.298 E21.4947
G1 X137.281 Y94.79 E21.53265
G1 X139.101 Y96.512 E21.65765
G1 X139.63 Y97.072 E21.69608
G1 X141.257 Y98.992 E21.82164
G1 X141.709 Y99.586 E21.85888
G1 X143.105 Y101.643 E21.9829
G1 X143.497 Y102.295 E22.02086
G1 X144.661 Y104.49 E22.14481
G1 X144.981 Y105.181 E22.1828
G1 X145.906 Y107.506 E22.30764
G1 X146.145 Y108.216 E22.34502
G1 X146.816 Y110.625 E22.46978
G1 X146.981 Y111.372 E22.50794
G1 X147.397 Y113.913 E22.6364
G1 X147.478 Y114.653 E22.67354
G1 X147.614 Y117.087 E22.79516
G1 X147.615 Y117.852 E22.83333
G1 X147.479 Y120.392 E22.96023
G1 X147.398 Y121.144 E22.99797
G1 X147.008 Y123.536 E23.11888
G1 X146.844 Y124.282 E23.15699
G1 X146.137 Y126.829 E23.28886
G1 X145.899 Y127.538 E23.32617
G1 X145.013 Y129.772 E23.44607
G1 X144.683 Y130.484 E23.48523
G1 X143.52 Y132.666 E23.60858
G1 X143.136 Y133.303 E23.64569
G1 X141.672 Y135.461 E23.77579
G1 X141.21 Y136.068 E23.81385
G1 X139.604 Y137.955 E23.93747
G1 X139.094 Y138.493 E23.97446
G1 X137.299 Y140.198 E24.09797
G1 X136.719 Y140.692 E24.13598
G1 X134.715 Y142.218 E24.26164
G1 X134.06 Y142.661 E24.3011
G1 X131.936 Y143.928 E24.42448
G1 X131.304 Y144.262 E24.46015
G1 X128.967 Y145.35 E24.58876
G1 X128.265 Y145.632 E24.6265
G1 X125.967 Y146.413 E24.74759
G1 X125.214 Y146.623 E24.78659
G1 X122.76 Y147.161 E24.91193
G1 X122.004 Y147.283 E24.95013
G1 X119.492 Y147.551 E25.07617
G1 X118.752 Y147.591 E25.11314
G1 X116.302 Y147.592 E25.23537
G1 X115.519 Y147.548 E25.2745
G1 X112.878 Y147.252 E25.40708
G1 X112.147 Y147.131 E25.44405
G1 X109.886 Y146.631 E25.55957
G1 X109.18 Y146.436 E25.59611
G1 X106.691 Y145.605 E25.72703
G1 X105.957 Y145.312 E25.76646
G1 X103.686 Y144.256 E25.89141
G1 X103.036 Y143.912 E25.9281
G1 X100.947 Y142.659 E26.04963
G1 X100.317 Y142.233 E26.08757
G1 X98.299 Y140.702 E26.21395
G1 X97.719 Y140.21 E26.25189
G1 X95.899 Y138.488 E26.37689
G1 X95.37 Y137.928 E26.41533
G1 X93.743 Y136.008 E26.54088
G1 X93.29 Y135.413 E26.57819
G1 X91.893 Y133.354 E26.70233
G1 X91.501 Y132.702 E26.74028
G1 X90.336 Y130.504 E26.86439
G1 X90.017 Y129.814 E26.90232
G1 X89.095 Y127.497 E27.02673
G1 X88.856 Y126.788 E27.06406
G1 X88.184 Y124.376 E27.18897
G1 X88.019 Y123.625 E27.22734
G1 X87.603 Y121.078 E27.35609
G1 X87.522 Y120.335 E27.39338
G1 X87.386 Y117.865 E27.51679
G1 X87.386 Y117.089 E27.55551
G1 X87.522 Y114.66 E27.67688
G1 X87.603 Y113.918 E27.71412
G1 X88.018 Y111.387 E27.84208
G1 X88.182 Y110.644 E27.88004
G1 X88.867 Y108.181 E28.00758
G1 X89.104 Y107.476 E28.04469
G1 X90.006 Y105.202 E28.16674
G1 X90.331 Y104.5 E28.20533
G1 X91.5 Y102.299 E28.32967
G1 X91.88 Y101.665 E28.36654
G1 X93.289 Y99.578 E28.49217
G1 X93.764 Y98.953 E28.53134
G1 X95.367 Y97.073 E28.6546
G1 X95.872 Y96.541 E28.69119
G0 F6000 X96.147 Y96.831
G1 F1200 X97.999 Y95.071 E28.81866
G1 X98.548 Y94.603 E28.85465
G1 X100.508 Y93.111 E28.97754
G1 X101.12 Y92.698 E29.01438
G1 X103.292 Y91.4 E29.14061
G1 X103.901 Y91.078 E29.17498
G1 X106.182 Y90.02 E29.30043
G1 X106.833 Y89.759 E29.33542
G1 X109.164 Y88.966 E29.45826
G1 X109.875 Y88.767 E29.49509
G1 X112.322 Y88.23 E29.62008
G1 X113.037 Y88.114 E29.65622
G1 X115.549 Y87.846 E29.78225
G1 X116.246 Y87.809 E29.81707
G1 X118.698 Y87.808 E29.93941
G1 X119.436 Y87.849 E29.97628
G1 X122.077 Y88.145 E30.10887
G1 X122.767 Y88.26 E30.14377
G1 X125.028 Y88.76 E30.25929
G1 X125.693 Y88.944 E30.29372
G1 X128.182 Y89.775 E30.42463
G1 X128.875 Y90.05 E30.46183
G1 X131.144 Y91.105 E30.58667
G1 X131.755 Y91.43 E30.62119
G1 X133.846 Y92.684 E30.74284
G1 X134.441 Y93.086 E30.77866
G1 X136.459 Y94.617 E30.90503
G1 X137.006 Y95.081 E30.94082
G1 X138.826 Y96.803 E31.06582
G1 X139.325 Y97.33 E31.10203
G1 X140.952 Y99.25 E31.22759
G1 X141.378 Y99.811 E31.26273
G1 X142.774 Y101.868 E31.38675
G1 X143.144 Y102.482 E31.42252
G1 X144.308 Y104.677 E31.54647
G1 X144.609 Y105.329 E31.5823
G1 X145.534 Y107.654 E31.70714
G1 X145.76 Y108.323 E31.74237
G1 X146.431 Y110.732 E31.86713
G1 X146.586 Y111.437 E31.90314
G1 X147.002 Y113.978 E32.0316
G1 X147.079 Y114.676 E32.06663
G1 X147.215 Y117.11 E32.18826
G1 X147.216 Y117.831 E32.22423
G1 X147.08 Y120.371 E32.35113
G1 X147.003 Y121.08 E32.38671
G1 X146.613 Y123.472 E32.50762
G1 X146.459 Y124.175 E32.54353
G1 X145.752 Y126.722 E32.6754
G1 X145.527 Y127.39 E32.71057
G1 X144.641 Y129.624 E32.83047
G1 X144.33 Y130.295 E32.86737
G1 X143.167 Y132.477 E32.99072
G1 X142.805 Y133.078 E33.02573
G1 X141.341 Y135.236 E33.15583
G1 X140.905 Y135.809 E33.19175
G1 X139.299 Y137.696 E33.31537
G1 X138.818 Y138.203 E33.35024
G1 X137.023 Y139.908 E33.47375
G1 X136.476 Y140.374 E33.5096
G1 X134.472 Y141.9 E33.63527
G1 X133.855 Y142.317 E33.67242
G1 X131.731 Y143.584 E33.79581
G1 X131.136 Y143.899 E33.8294
G1 X128.799 Y144.987 E33.95801
G1 X128.137 Y145.253 E33.9936
G1 X125.839 Y146.034 E34.11469
G1 X125.128 Y146.232 E34.15151
G1 X122.674 Y146.77 E34.27685
G1 X121.961 Y146.886 E34.31289
G1 X119.449 Y147.154 E34.43892
G1 X118.752 Y147.191 E34.47375
G1 X116.302 Y147.192 E34.59598
G1 X115.564 Y147.151 E34.63285
G1 X112.923 Y146.855 E34.76544
G1 X112.233 Y146.74 E34.80034
G1 X109.972 Y146.24 E34.91586
G1 X109.307 Y146.056 E34.95029
G1 X106.818 Y145.225 E35.0812
G1 X106.125 Y144.95 E35.1184
G1 X103.854 Y143.894 E35.24335
G1 X103.242 Y143.569 E35.27792
G1 X101.153 Y142.316 E35.39945
G1 X100.559 Y141.914 E35.43524
G1 X98.541 Y140.383 E35.56161
G1 X97.994 Y139.919 E35.5974
G1 X96.174 Y138.197 E35.7224
G1 X95.675 Y137.67 E35.75861
G1 X94.048 Y135.75 E35.88416
G1 X93.621 Y135.189 E35.91933
G1 X92.224 Y133.13 E36.04347
G1 X91.854 Y132.515 E36.07928
G1 X90.689 Y130.317 E36.20339
G1 X90.389 Y129.666 E36.23915
G1 X89.467 Y127.349 E36.36356
G1 X89.241 Y126.68 E36.39879
G1 X88.569 Y124.268 E36.52371
G1 X88.413 Y123.561 E36.55983
G1 X87.997 Y121.014 E36.68858
G1 X87.921 Y120.313 E36.72376
G1 X87.785 Y117.843 E36.84718
G1 X87.785 Y117.111 E36.8837
G1 X87.921 Y114.682 E37.00507
G1 X87.998 Y113.983 E37.04015
G1 X88.413 Y111.452 E37.16811
G1 X88.567 Y110.752 E37.20387
G1 X89.252 Y108.289 E37.33141
G1 X89.476 Y107.624 E37.36642
G1 X90.378 Y105.35 E37.48847
G1 X90.684 Y104.687 E37.5249
G1 X91.853 Y102.486 E37.64924
G1 X92.212 Y101.889 E37.68399
G1 X93.621 Y99.802 E37.80962
G1 X94.069 Y99.213 E37.84654
G1 X95.672 Y97.333 E37.9698
G1 X96.147 Y96.831 E38.00428
G0 F6000 X96.423 Y97.121
G1 F1200 X98.275 Y95.361 E38.13174
G1 X98.791 Y94.922 E38.16554
G1 X100.751 Y93.43 E38.28844
G1 X101.326 Y93.041 E38.32307
G1 X103.498 Y91.743 E38.44931
G1 X104.069 Y91.441 E38.48154
G1 X106.35 Y90.383 E38.60698
G1 X106.962 Y90.137 E38.63989
G1 X109.293 Y89.344 E38.76273
G1 X109.961 Y89.158 E38.79732
G1 X112.408 Y88.621 E38.92231
G1 X113.079 Y88.512 E38.95622
G1 X115.591 Y88.244 E39.08226
G1 X116.246 Y88.209 E39.11498
G1 X118.698 Y88.208 E39.23731
G1 X119.392 Y88.247 E39.27199
G1 X122.033 Y88.543 E39.40458
G1 X122.681 Y88.65 E39.43734
G1 X124.942 Y89.15 E39.55287
G1 X125.566 Y89.323 E39.58518
G1 X128.055 Y90.154 E39.71609
G1 X128.706 Y90.413 E39.75105
G1 X130.975 Y91.468 E39.87588
G1 X131.55 Y91.773 E39.90836
G1 X133.641 Y93.027 E40.03
G1 X134.199 Y93.405 E40.06362
G1 X136.217 Y94.936 E40.19
G1 X136.731 Y95.371 E40.22359
G1 X138.551 Y97.093 E40.34859
G1 X139.02 Y97.589 E40.38265
G1 X140.647 Y99.509 E40.50821
G1 X141.047 Y100.035 E40.54117
G1 X142.443 Y102.092 E40.6652
G1 X142.79 Y102.669 E40.69879
G1 X143.954 Y104.864 E40.82275
G1 X144.238 Y105.477 E40.85645
G1 X145.163 Y107.802 E40.98129
G1 X145.375 Y108.43 E41.01436
