;FLAVOR:Marlin
;TIME:3710
;Filament used: 1.94246m
;Layer height: 0.15
;MINX:91.844
;MINY:91.861
;MINZ:0.3
;MAXX:143.155
;MAXY:143.138
;MAXZ:13.95
;Generated with Cura_SteamEngine 4.6.0
M140 S60
M105
M190 S60
M104 S200
M105
M109 S200
M82 ;absolute extrusion mode
; Ender 3 Custom Start G-code
G92 E0 ; Reset Extruder
G28 ; Home all axes
G1 Z2.0 F3000 ; Move Z Axis up little to prevent scratching of Heat Bed
G1 X0.1 Y20 Z0.3 F5000.0 ; Move to start position
G1 X0.1 Y200.0 Z0.3 F1500.0 E15 ; Draw the first line
G1 X0.4 Y200.0 Z0.3 F5000.0 ; Move to side a little
G1 X0.4 Y20 Z0.3 F1500.0 E30 ; Draw the second line
G92 E0 ; Reset Extruder
G1 Z2.0 F3000 ; Move Z Axis up little to prevent scratching of Heat Bed
G1 X5 Y20 Z0.3 F5000.0 ; Move over to prevent blob squish
G92 E0
G92 E0
G1 F2700 E-5
;LAYER_COUNT:92
;LAYER:0
M107
G0 F6000 X99.172 Y99.542 Z0.3
;TYPE:SKIRT
G1 F2700 E0
G1 F1200 X99.339 Y99.384 E0.01147
G1 X99.491 Y99.254 E0.02145
G1 X99.718 Y99.028 E0.03743
G1 X100.555 Y98.238 E0.09485
G1 X101.182 Y97.706 E0.13587
G1 X102.761 Y96.503 E0.23491
G1 X103.476 Y96.018 E0.27801
G1 X105.143 Y95.018 E0.375
G1 X105.856 Y94.639 E0.41528
G1 X107.542 Y93.852 E0.50811
G1 X108.363 Y93.524 E0.55222
G1 X110.318 Y92.869 E0.65508
G1 X111.103 Y92.651 E0.69573
G1 X112.83 Y92.267 E0.78399
G1 X113.729 Y92.122 E0.82942
G1 X115.869 Y91.903 E0.93674
G1 X116.659 Y91.862 E0.97621
G1 X118.448 Y91.861 E1.06546
G1 X119.282 Y91.905 E1.10713
G1 X121.226 Y92.113 E1.20467
G1 X122.075 Y92.252 E1.24759
G1 X123.912 Y92.657 E1.34144
G1 X124.711 Y92.878 E1.3828
G1 X126.621 Y93.518 E1.4833
G1 X127.433 Y93.842 E1.52691
G1 X129.157 Y94.644 E1.62178
G1 X129.884 Y95.03 E1.66284
G1 X131.532 Y96.02 E1.75875
G1 X132.235 Y96.496 E1.80111
G1 X133.823 Y97.703 E1.90062
G1 X134.501 Y98.282 E1.94511
G1 X135.322 Y99.069 E2.00184
G1 X135.501 Y99.259 E2.01487
G1 X135.688 Y99.42 E2.02718
G1 X135.912 Y99.634 E2.04263
G1 X136.48 Y100.237 E2.08396
G1 X137.67 Y101.644 E2.1759
G1 X138.176 Y102.313 E2.21775
G1 X139.261 Y103.918 E2.3144
G1 X139.68 Y104.614 E2.35493
G1 X140.591 Y106.321 E2.45146
G1 X140.981 Y107.17 E2.49807
G1 X141.681 Y108.919 E2.59206
G1 X141.675 Y108.921 E2.59238
G1 X141.753 Y109.103 E2.60226
G1 X141.959 Y109.742 E2.63575
G1 X142.464 Y111.572 E2.73046
G1 X142.643 Y112.387 E2.77209
G1 X142.946 Y114.238 E2.86567
G1 X143.028 Y114.939 E2.90088
G1 X143.083 Y115.719 E2.93989
G1 X143.154 Y117.039 E3.00584
G1 X143.155 Y117.851 E3.04635
G1 X143.057 Y119.794 E3.14341
G1 X142.981 Y120.558 E3.18172
G1 X142.937 Y120.844 E3.19615
G1 X142.655 Y122.562 E3.28301
G1 X142.476 Y123.376 E3.32459
G1 X141.949 Y125.284 E3.42335
G1 X141.701 Y126.033 E3.46271
G1 X141.655 Y126.135 E3.46829
G1 X141.659 Y126.137 E3.46852
G1 X140.889 Y128.037 E3.5708
G1 X140.538 Y128.787 E3.61211
G1 X139.69 Y130.372 E3.70179
G1 X139.281 Y131.05 E3.74129
G1 X138.176 Y132.69 E3.83995
G1 X137.614 Y133.426 E3.88615
G1 X136.287 Y134.965 E3.98754
G1 X135.752 Y135.526 E4.02621
G1 X135.672 Y135.602 E4.03172
G1 X135.515 Y135.736 E4.04201
G1 X135.28 Y135.971 E4.05859
G1 X134.42 Y136.783 E4.1176
G1 X133.806 Y137.306 E4.15784
G1 X132.28 Y138.474 E4.25372
G1 X131.559 Y138.964 E4.29721
G1 X129.873 Y139.978 E4.39536
G1 X129.126 Y140.374 E4.43754
G1 X127.402 Y141.171 E4.5323
G1 X126.612 Y141.485 E4.57471
G1 X124.721 Y142.12 E4.67423
G1 X123.923 Y142.342 E4.71556
G1 X122.07 Y142.752 E4.81024
G1 X121.223 Y142.891 E4.85306
G1 X119.353 Y143.093 E4.9469
G1 X118.515 Y143.138 E4.98877
G1 X116.505 Y143.138 E5.08905
G1 X115.645 Y143.09 E5.13202
G1 X113.796 Y142.885 E5.22483
G1 X112.995 Y142.754 E5.26532
G1 X111.017 Y142.323 E5.36632
G1 X110.198 Y142.097 E5.40871
G1 X108.4 Y141.494 E5.50332
G1 X107.583 Y141.168 E5.54721
G1 X105.855 Y140.362 E5.64233
G1 X105.143 Y139.984 E5.68255
G1 X103.459 Y138.975 E5.78049
G1 X102.75 Y138.496 E5.82318
G1 X101.224 Y137.337 E5.91878
G1 X100.565 Y136.776 E5.96196
G1 X99.698 Y135.951 E6.02167
G1 X99.521 Y135.764 E6.03451
G1 X99.32 Y135.592 E6.04771
G1 X99.13 Y135.411 E6.0608
G1 X98.564 Y134.811 E6.10196
G1 X97.344 Y133.374 E6.196
G1 X96.831 Y132.699 E6.2383
G1 X95.703 Y131.033 E6.33868
G1 X95.263 Y130.299 E6.38137
G1 X94.408 Y128.678 E6.4728
G1 X94.036 Y127.864 E6.51745
G1 X93.662 Y126.902 E6.56895
G1 X93.4 Y126.274 E6.6029
G1 X93.317 Y126.062 E6.61425
G1 X93.321 Y126.06 E6.61448
G1 X93.266 Y125.932 E6.62143
G1 X93.067 Y125.319 E6.65358
G1 X92.523 Y123.374 E6.75434
G1 X92.34 Y122.546 E6.79665
G1 X92.037 Y120.715 E6.88924
G1 X91.942 Y119.834 E6.93345
G1 X91.844 Y117.887 E7.03071
G1 X91.846 Y117.068 E7.07157
G1 X91.952 Y115.133 E7.16825
G1 X92.045 Y114.282 E7.21096
G1 X92.369 Y112.332 E7.30958
G1 X92.546 Y111.531 E7.3505
G1 X93.035 Y109.763 E7.44202
G1 X93.284 Y109.013 E7.48145
G1 X93.323 Y108.925 E7.48625
G1 X93.32 Y108.924 E7.48641
G1 X94.101 Y106.988 E7.59056
G1 X94.441 Y106.257 E7.63078
G1 X95.283 Y104.666 E7.72058
G1 X95.718 Y103.942 E7.76272
G1 X96.827 Y102.304 E7.86141
G1 X97.34 Y101.629 E7.90371
G1 X98.587 Y100.16 E7.99984
G1 X99.172 Y99.542 E8.0423
G0 F6000 X99.447 Y99.833
G1 F1200 X99.614 Y99.675 E8.05377
G1 X99.813 Y99.505 E8.06683
G1 X99.993 Y99.318 E8.07978
G1 X100.83 Y98.528 E8.1372
G1 X101.424 Y98.024 E8.17606
G1 X103.003 Y96.821 E8.2751
G1 X103.681 Y96.361 E8.31597
G1 X105.348 Y95.361 E8.41295
G1 X106.025 Y95.002 E8.45119
G1 X107.711 Y94.215 E8.54401
G1 X108.49 Y93.903 E8.58588
G1 X110.445 Y93.248 E8.68874
G1 X111.19 Y93.041 E8.72732
G1 X112.917 Y92.657 E8.81558
G1 X113.77 Y92.519 E8.85869
G1 X115.91 Y92.3 E8.96602
G1 X116.659 Y92.262 E9.00343
G1 X118.448 Y92.261 E9.09269
G1 X119.239 Y92.303 E9.1322
G1 X121.183 Y92.511 E9.22974
G1 X121.989 Y92.643 E9.27049
G1 X123.826 Y93.048 E9.36434
G1 X124.584 Y93.257 E9.40357
G1 X126.494 Y93.897 E9.50407
G1 X127.264 Y94.204 E9.54542
G1 X128.988 Y95.006 E9.64028
G1 X129.678 Y95.373 E9.67927
G1 X131.326 Y96.363 E9.77519
G1 X131.993 Y96.815 E9.81539
G1 X133.581 Y98.022 E9.9149
G1 X134.224 Y98.571 E9.95708
G1 X135.045 Y99.358 E10.01382
G1 X135.251 Y99.577 E10.02882
G1 X135.412 Y99.709 E10.03921
G1 X135.636 Y99.923 E10.05466
G1 X136.174 Y100.495 E10.09384
G1 X137.364 Y101.902 E10.18578
G1 X137.845 Y102.537 E10.22552
G1 X138.93 Y104.142 E10.32217
G1 X139.327 Y104.802 E10.3606
G1 X140.238 Y106.509 E10.45713
G1 X140.608 Y107.315 E10.50138
G1 X140.613 Y107.328 E10.50207
G1 X141.309 Y109.067 E10.59552
G1 X141.301 Y109.07 E10.59595
G1 X141.457 Y109.468 E10.61727
G1 X141.573 Y109.849 E10.63714
G1 X142.078 Y111.679 E10.73185
G1 X142.248 Y112.452 E10.77134
G1 X142.551 Y114.303 E10.86492
G1 X142.629 Y114.967 E10.89827
G1 X142.683 Y115.741 E10.93698
G1 X142.754 Y117.061 E11.00293
G1 X142.756 Y117.831 E11.04135
G1 X142.658 Y119.774 E11.13841
G1 X142.585 Y120.499 E11.17476
G1 X142.542 Y120.78 E11.18894
G1 X142.26 Y122.498 E11.2758
G1 X142.091 Y123.269 E11.31518
G1 X141.564 Y125.177 E11.41393
G1 X141.321 Y125.907 E11.45232
G1 X141.286 Y125.985 E11.45658
G1 X141.288 Y125.986 E11.4567
G1 X140.518 Y127.886 E11.55898
G1 X140.185 Y128.598 E11.59819
G1 X139.337 Y130.183 E11.68787
G1 X138.949 Y130.827 E11.72538
G1 X137.844 Y132.467 E11.82404
G1 X137.311 Y133.164 E11.86782
G1 X135.984 Y134.703 E11.9692
G1 X135.477 Y135.236 E12.0059
G1 X135.397 Y135.312 E12.0114
G1 X135.186 Y135.492 E12.02524
G1 X135.005 Y135.681 E12.0383
G1 X134.145 Y136.493 E12.09731
G1 X133.563 Y136.988 E12.13542
G1 X132.037 Y138.156 E12.2313
G1 X131.353 Y138.621 E12.27256
G1 X129.667 Y139.635 E12.37072
G1 X128.958 Y140.011 E12.41076
G1 X127.234 Y140.808 E12.50551
G1 X126.485 Y141.106 E12.54573
G1 X124.594 Y141.741 E12.64525
G1 X123.837 Y141.951 E12.68444
G1 X121.984 Y142.361 E12.77912
G1 X121.18 Y142.493 E12.81977
G1 X119.31 Y142.695 E12.91361
G1 X118.515 Y142.738 E12.95333
G1 X116.505 Y142.738 E13.05361
G1 X115.69 Y142.693 E13.09433
G1 X113.841 Y142.488 E13.18714
G1 X113.081 Y142.363 E13.22557
G1 X111.103 Y141.932 E13.32657
G1 X110.325 Y141.718 E13.36683
G1 X108.527 Y141.115 E13.46144
G1 X107.752 Y140.805 E13.50308
G1 X106.024 Y139.999 E13.59821
G1 X105.349 Y139.641 E13.63633
G1 X103.665 Y138.632 E13.73427
G1 X102.992 Y138.177 E13.7748
G1 X101.466 Y137.018 E13.8704
G1 X100.841 Y136.486 E13.91135
G1 X99.974 Y135.661 E13.97106
G1 X99.767 Y135.442 E13.98609
G1 X99.596 Y135.302 E13.99712
G1 X99.406 Y135.121 E14.01021
G1 X98.869 Y134.552 E14.04924
G1 X97.649 Y133.115 E14.14329
G1 X97.162 Y132.475 E14.18341
G1 X96.034 Y130.809 E14.28379
G1 X95.617 Y130.112 E14.32431
G1 X94.762 Y128.491 E14.41574
G1 X94.409 Y127.719 E14.45809
G1 X94.039 Y126.768 E14.509
G1 X93.772 Y126.128 E14.5436
G1 X93.689 Y125.916 E14.55496
G1 X93.707 Y125.909 E14.55592
G1 X93.452 Y125.211 E14.59299
G1 X92.908 Y123.266 E14.69375
G1 X92.734 Y122.481 E14.73387
G1 X92.431 Y120.65 E14.82646
G1 X92.341 Y119.814 E14.86841
G1 X92.243 Y117.867 E14.96567
G1 X92.245 Y117.09 E15.00443
G1 X92.351 Y115.155 E15.10112
G1 X92.44 Y114.347 E15.14167
G1 X92.764 Y112.397 E15.24029
G1 X92.932 Y111.637 E15.27912
G1 X93.421 Y109.869 E15.37064
G1 X93.664 Y109.14 E15.40898
G1 X93.693 Y109.075 E15.41253
G1 X93.691 Y109.074 E15.41264
G1 X94.472 Y107.138 E15.51679
G1 X94.794 Y106.445 E15.55491
G1 X95.636 Y104.854 E15.64472
G1 X96.049 Y104.166 E15.68475
G1 X97.158 Y102.528 E15.78344
G1 X97.645 Y101.888 E15.82356
G1 X98.892 Y100.419 E15.9197
G1 X99.447 Y99.833 E15.95997
G0 F6000 X99.722 Y100.123
G1 F1200 X99.889 Y99.965 E15.97143
G1 X100.12 Y99.769 E15.98655
G1 X100.267 Y99.609 E15.99739
G1 X101.104 Y98.819 E16.05481
G1 X101.667 Y98.342 E16.09162
G1 X103.246 Y97.139 E16.19066
G1 X103.887 Y96.704 E16.22931
G1 X105.554 Y95.704 E16.32629
G1 X106.194 Y95.364 E16.36245
G1 X107.88 Y94.577 E16.45527
G1 X108.617 Y94.283 E16.49486
G1 X110.572 Y93.628 E16.59772
G1 X111.277 Y93.432 E16.63423
G1 X113.004 Y93.048 E16.7225
G1 X113.81 Y92.917 E16.76323
G1 X115.95 Y92.698 E16.87056
G1 X116.659 Y92.662 E16.90597
G1 X118.448 Y92.661 E16.99523
G1 X119.197 Y92.701 E17.03265
G1 X121.141 Y92.909 E17.13019
G1 X121.903 Y93.033 E17.16871
G1 X123.74 Y93.438 E17.26256
G1 X124.457 Y93.637 E17.29968
G1 X126.367 Y94.277 E17.40018
G1 X127.096 Y94.567 E17.43932
G1 X128.82 Y95.369 E17.53418
G1 X129.472 Y95.715 E17.57101
G1 X131.12 Y96.705 E17.66692
G1 X131.751 Y97.133 E17.70496
G1 X133.339 Y98.34 E17.80447
G1 X133.947 Y98.86 E17.84439
G1 X134.768 Y99.647 E17.90112
G1 X134.931 Y99.82 E17.91298
G1 X135.135 Y99.999 E17.92652
G1 X135.359 Y100.213 E17.94198
G1 X135.869 Y100.754 E17.97907
G1 X137.059 Y102.161 E18.07101
G1 X137.513 Y102.761 E18.10855
G1 X138.598 Y104.366 E18.2052
G1 X138.975 Y104.99 E18.24157
G1 X139.886 Y106.697 E18.3381
G1 X140.235 Y107.46 E18.37996
G1 X140.242 Y107.477 E18.38088
G1 X140.938 Y109.216 E18.47433
G1 X140.934 Y109.218 E18.47455
G1 X141.188 Y109.955 E18.51344
G1 X141.693 Y111.785 E18.60816
G1 X141.853 Y112.516 E18.64549
G1 X142.156 Y114.367 E18.73906
G1 X142.23 Y114.996 E18.77066
G1 X142.284 Y115.762 E18.80897
G1 X142.355 Y117.082 E18.87492
G1 X142.356 Y117.811 E18.91129
G1 X142.258 Y119.754 E19.00835
G1 X142.19 Y120.439 E19.0427
G1 X142.148 Y120.715 E19.05662
G1 X141.866 Y122.433 E19.14348
G1 X141.705 Y123.163 E19.18078
G1 X141.178 Y125.071 E19.27953
G1 X140.941 Y125.78 E19.31683
G1 X140.916 Y125.835 E19.31984
G1 X140.917 Y125.836 E19.31991
G1 X140.147 Y127.736 E19.42219
G1 X139.832 Y128.409 E19.45926
G1 X138.984 Y129.994 E19.54895
G1 X138.617 Y130.603 E19.58442
G1 X137.512 Y132.243 E19.68308
G1 X137.008 Y132.903 E19.72451
G1 X135.681 Y134.442 E19.82589
G1 X135.201 Y134.946 E19.86062
G1 X135.121 Y135.022 E19.86612
G1 X134.88 Y135.228 E19.88194
G1 X134.731 Y135.39 E19.89292
G1 X133.871 Y136.202 E19.95193
G1 X133.32 Y136.671 E19.98803
G1 X131.794 Y137.839 E20.0839
G1 X131.147 Y138.279 E20.12294
G1 X129.461 Y139.293 E20.22109
G1 X128.79 Y139.648 E20.25896
G1 X127.066 Y140.445 E20.35372
G1 X126.357 Y140.727 E20.39179
G1 X124.466 Y141.362 E20.49131
G1 X123.75 Y141.561 E20.52838
G1 X121.897 Y141.971 E20.62307
G1 X121.137 Y142.096 E20.66149
G1 X119.267 Y142.298 E20.75533
G1 X118.515 Y142.338 E20.7929
G1 X116.505 Y142.338 E20.89318
G1 X115.734 Y142.295 E20.93171
G1 X113.885 Y142.09 E21.02452
G1 X113.166 Y141.973 E21.06086
G1 X111.188 Y141.542 E21.16186
G1 X110.452 Y141.339 E21.19995
G1 X108.654 Y140.736 E21.29456
G1 X107.921 Y140.443 E21.33394
G1 X106.193 Y139.637 E21.42907
G1 X105.554 Y139.298 E21.46516
G1 X103.87 Y138.289 E21.5631
G1 X103.234 Y137.858 E21.60143
G1 X101.708 Y136.699 E21.69703
G1 X101.117 Y136.196 E21.73575
G1 X100.25 Y135.371 E21.79546
G1 X100.094 Y135.205 E21.80682
G1 X99.872 Y135.012 E21.8215
G1 X99.682 Y134.831 E21.83459
G1 X99.174 Y134.293 E21.87151
G1 X97.954 Y132.856 E21.96555
G1 X97.494 Y132.251 E22.00347
G1 X96.366 Y130.585 E22.10385
G1 X95.97 Y129.926 E22.1422
G1 X95.115 Y128.305 E22.23364
G1 X94.782 Y127.574 E22.27371
G1 X94.41 Y126.616 E22.32498
G1 X94.145 Y125.982 E22.35927
G1 X94.062 Y125.77 E22.37062
G1 X94.068 Y125.768 E22.37094
G1 X93.838 Y125.103 E22.40604
G1 X93.294 Y123.158 E22.5068
G1 X93.129 Y122.416 E22.54473
G1 X92.826 Y120.585 E22.63732
G1 X92.741 Y119.794 E22.67701
G1 X92.643 Y117.847 E22.77427
G1 X92.644 Y117.112 E22.81094
G1 X92.75 Y115.177 E22.90762
G1 X92.835 Y114.413 E22.94597
G1 X93.159 Y112.463 E23.04459
G1 X93.317 Y111.744 E23.08132
G1 X93.806 Y109.976 E23.17284
G1 X94.044 Y109.267 E23.21015
G1 X94.062 Y109.223 E23.21252
G1 X94.843 Y107.287 E23.31667
G1 X95.148 Y106.632 E23.35272
G1 X95.99 Y105.041 E23.44252
G1 X96.381 Y104.391 E23.48037
G1 X97.49 Y102.753 E23.57905
G1 X97.949 Y102.147 E23.61698
G1 X99.196 Y100.678 E23.71312
G1 X99.722 Y100.123 E23.75126
G0 F6000 X99.997 Y100.414
G1 F1200 X100.164 Y100.256 E23.76273
G1 X100.33 Y100.115 E23.7736
G1 X100.542 Y99.9 E23.78866
G1 X101.379 Y99.11 E23.84608
G1 X101.909 Y98.66 E23.88077
G1 X103.488 Y97.457 E23.97981
G1 X104.093 Y97.047 E24.01627
G1 X105.76 Y96.047 E24.11325
G1 X106.363 Y95.726 E24.14733
G1 X108.049 Y94.939 E24.24016
G1 X108.744 Y94.662 E24.27749
G1 X110.699 Y94.007 E24.38035
G1 X111.363 Y93.822 E24.41474
G1 X113.09 Y93.438 E24.503
G1 X113.851 Y93.315 E24.54146
G1 X115.991 Y93.096 E24.64879
G1 X116.659 Y93.062 E24.68216
G1 X118.448 Y93.061 E24.77141
G1 X119.154 Y93.098 E24.80668
G1 X121.098 Y93.306 E24.90422
G1 X121.817 Y93.424 E24.94057
G1 X123.654 Y93.829 E25.03442
G1 X124.33 Y94.016 E25.06941
G1 X126.24 Y94.656 E25.16991
G1 X126.927 Y94.93 E25.20681
G1 X128.651 Y95.732 E25.30167
G1 X129.266 Y96.058 E25.3364
G1 X130.914 Y97.048 E25.43231
G1 X131.509 Y97.452 E25.46819
G1 X133.097 Y98.659 E25.56771
G1 X133.67 Y99.148 E25.60529
G1 X134.491 Y99.935 E25.66203
G1 X134.684 Y100.141 E25.67611
G1 X134.859 Y100.288 E25.68751
G1 X135.083 Y100.502 E25.70297
G1 X135.563 Y101.012 E25.73791
G1 X136.753 Y102.419 E25.82985
G1 X137.182 Y102.985 E25.86528
G1 X138.267 Y104.59 E25.96193
G1 X138.622 Y105.179 E25.99624
G1 X139.533 Y106.886 E26.09277
G1 X139.863 Y107.604 E26.1322
G1 X139.896 Y107.689 E26.13675
G1 X139.895 Y107.689 E26.1368
G1 X140.566 Y109.365 E26.22686
G1 X140.562 Y109.367 E26.22709
G1 X140.618 Y109.495 E26.23406
G1 X140.802 Y110.061 E26.26375
G1 X141.307 Y111.891 E26.35846
G1 X141.458 Y112.581 E26.3937
G1 X141.761 Y114.432 E26.48728
G1 X141.831 Y115.025 E26.51707
G1 X141.884 Y115.784 E26.55503
G1 X141.955 Y117.104 E26.62098
G1 X141.957 Y117.79 E26.6552
G1 X141.859 Y119.733 E26.75226
G1 X141.794 Y120.38 E26.7847
G1 X141.753 Y120.65 E26.79833
G1 X141.471 Y122.368 E26.88519
G1 X141.32 Y123.056 E26.92033
G1 X140.793 Y124.964 E27.01908
G1 X140.561 Y125.653 E27.05535
G1 X140.547 Y125.686 E27.05714
G1 X139.777 Y127.586 E27.15942
G1 X139.479 Y128.221 E27.19442
G1 X138.631 Y129.806 E27.2841
G1 X138.285 Y130.38 E27.31754
G1 X137.18 Y132.02 E27.41619
G1 X136.705 Y132.642 E27.45524
G1 X135.378 Y134.181 E27.55662
G1 X134.926 Y134.656 E27.58933
G1 X134.846 Y134.732 E27.59484
G1 X134.671 Y134.881 E27.60631
G1 X134.456 Y135.099 E27.62158
G1 X133.596 Y135.911 E27.68059
G1 X133.076 Y136.353 E27.71464
G1 X131.55 Y137.521 E27.81051
G1 X130.941 Y137.936 E27.84728
G1 X129.255 Y138.95 E27.94544
G1 X128.623 Y139.285 E27.98112
G1 X126.899 Y140.082 E28.07588
G1 X126.23 Y140.348 E28.1118
G1 X124.339 Y140.983 E28.21132
G1 X123.664 Y141.17 E28.24626
G1 X121.811 Y141.58 E28.34094
