;FLAVOR:Marlin
;TIME:3295
;Filament used: 1.92819m
;Layer height: 0.15
;MINX:87.348
;MINY:79.348
;MINZ:0.3
;MAXX:149.226
;MAXY:141.18
;MAXZ:7.05
;Generated with Cura_SteamEngine 4.5.0
M140 S60
M105
M190 S60
M104 S200
M105
M109 S200
M82 ;absolute extrusion mode
; Ender 3 Custom Start G-code
G92 E0 ; Reset Extruder
G28 ; Home all axes
G1 Z2.0 F3000 ; Move Z Axis up little to prevent scratching of Heat Bed
G1 X0.1 Y20 Z0.3 F5000.0 ; Move to start position
G1 X0.1 Y200.0 Z0.3 F1500.0 E15 ; Draw the first line
G1 X0.4 Y200.0 Z0.3 F5000.0 ; Move to side a little
G1 X0.4 Y20 Z0.3 F1500.0 E30 ; Draw the second line
G92 E0 ; Reset Extruder
G1 Z2.0 F3000 ; Move Z Axis up little to prevent scratching of Heat Bed
G1 X5 Y20 Z0.3 F5000.0 ; Move over to prevent blob squish
G92 E0
G92 E0
G1 F2700 E-5
;LAYER_COUNT:46
;LAYER:0
M107
G0 F6000 X95.533 Y89.297 Z0.3
;TYPE:SKIRT
G1 F2700 E0
G1 F1200 X96.116 Y88.681 E0.04231
G1 X97.938 Y86.956 E0.16749
G1 X98.579 Y86.411 E0.20947
G1 X100.575 Y84.893 E0.33457
G1 X101.276 Y84.418 E0.37682
G1 X103.422 Y83.127 E0.50176
G1 X104.167 Y82.732 E0.54383
G1 X106.442 Y81.679 E0.6689
G1 X107.231 Y81.365 E0.71127
G1 X109.606 Y80.566 E0.83628
G1 X110.414 Y80.342 E0.87812
G1 X112.864 Y79.802 E1.00328
G1 X113.7 Y79.665 E1.04554
G1 X116.192 Y79.394 E1.1706
G1 X117.035 Y79.348 E1.21272
G1 X119.539 Y79.348 E1.33765
G1 X120.382 Y79.394 E1.37977
G1 X122.874 Y79.665 E1.50483
G1 X123.71 Y79.802 E1.54709
G1 X126.16 Y80.342 E1.67226
G1 X126.968 Y80.566 E1.71409
G1 X129.343 Y81.365 E1.8391
G1 X130.132 Y81.679 E1.88147
G1 X132.405 Y82.731 E2.00643
G1 X133.149 Y83.126 E2.04845
G1 X135.297 Y84.418 E2.17351
G1 X135.999 Y84.893 E2.2158
G1 X137.995 Y86.411 E2.3409
G1 X138.636 Y86.956 E2.38288
G1 X140.458 Y88.681 E2.50806
G1 X141.041 Y89.297 E2.55037
G1 X142.661 Y91.205 E2.67524
G1 X143.171 Y91.875 E2.71725
G1 X144.578 Y93.95 E2.84233
G1 X145.013 Y94.674 E2.88447
G1 X146.187 Y96.888 E3.00949
G1 X146.542 Y97.654 E3.05161
G1 X147.471 Y99.985 E3.1768
G1 X147.741 Y100.787 E3.21902
G1 X148.411 Y103.201 E3.34401
G1 X148.592 Y104.023 E3.386
G1 X148.998 Y106.496 E3.51103
G1 X149.09 Y107.337 E3.55324
G1 X149.226 Y109.84 E3.6783
G1 X149.226 Y110.686 E3.72051
G1 X149.09 Y113.189 E3.84557
G1 X148.998 Y114.029 E3.88772
G1 X148.592 Y116.504 E4.01285
G1 X148.412 Y117.324 E4.05474
G1 X147.743 Y119.738 E4.17971
G1 X147.47 Y120.546 E4.22226
G1 X146.541 Y122.874 E4.34731
G1 X146.189 Y123.636 E4.38919
G1 X145.015 Y125.851 E4.51426
G1 X144.579 Y126.575 E4.55642
G1 X143.171 Y128.652 E4.68161
G1 X142.661 Y129.323 E4.72366
G1 X141.041 Y131.231 E4.84853
G1 X140.458 Y131.847 E4.89085
G1 X138.636 Y133.572 E5.01602
G1 X137.995 Y134.117 E5.058
G1 X135.999 Y135.635 E5.18311
G1 X135.298 Y136.11 E5.22535
G1 X133.152 Y137.401 E5.3503
G1 X132.405 Y137.797 E5.39248
G1 X130.13 Y138.849 E5.51753
G1 X129.346 Y139.161 E5.55962
G1 X126.971 Y139.961 E5.68465
G1 X126.16 Y140.186 E5.72664
G1 X123.71 Y140.726 E5.85181
G1 X122.874 Y140.863 E5.89407
G1 X120.382 Y141.134 E6.01913
G1 X119.539 Y141.18 E6.06125
G1 X117.035 Y141.18 E6.18618
G1 X116.192 Y141.134 E6.2283
G1 X113.7 Y140.863 E6.35336
G1 X112.864 Y140.726 E6.39562
G1 X110.414 Y140.186 E6.52079
G1 X109.603 Y139.961 E6.56277
G1 X107.228 Y139.161 E6.6878
G1 X106.444 Y138.849 E6.7299
G1 X104.169 Y137.797 E6.85495
G1 X103.422 Y137.401 E6.89713
G1 X101.276 Y136.11 E7.02208
G1 X100.575 Y135.635 E7.06432
G1 X98.579 Y134.117 E7.18943
G1 X97.938 Y133.572 E7.23141
G1 X96.116 Y131.847 E7.35658
G1 X95.533 Y131.231 E7.3989
G1 X93.913 Y129.323 E7.52377
G1 X93.403 Y128.652 E7.56582
G1 X91.995 Y126.575 E7.69101
G1 X91.559 Y125.851 E7.73317
G1 X90.385 Y123.636 E7.85824
G1 X90.031 Y122.871 E7.90029
G1 X89.103 Y120.543 E8.02533
G1 X88.833 Y119.741 E8.06754
G1 X88.163 Y117.327 E8.19253
G1 X87.982 Y116.504 E8.23457
G1 X87.576 Y114.029 E8.3597
G1 X87.485 Y113.19 E8.4018
G1 X87.349 Y110.689 E8.52676
G1 X87.348 Y109.842 E8.56902
G1 X87.484 Y107.339 E8.69408
G1 X87.576 Y106.499 E8.73624
G1 X87.982 Y104.024 E8.86137
G1 X88.162 Y103.204 E8.90325
G1 X88.831 Y100.79 E9.02823
G1 X89.103 Y99.983 E9.07071
G1 X90.032 Y97.654 E9.19581
G1 X90.386 Y96.89 E9.23782
G1 X91.56 Y94.676 E9.36284
G1 X91.995 Y93.953 E9.40494
G1 X93.403 Y91.876 E9.53013
G1 X93.913 Y91.205 E9.57218
G1 X95.533 Y89.297 E9.69705
G0 F6000 X95.838 Y89.555
G1 F1200 X96.391 Y88.971 E9.73718
G1 X98.213 Y87.246 E9.86235
G1 X98.821 Y86.73 E9.90214
G1 X100.817 Y85.212 E10.02724
G1 X101.482 Y84.761 E10.06733
G1 X103.628 Y83.47 E10.19228
G1 X104.335 Y83.095 E10.2322
G1 X106.61 Y82.042 E10.35727
G1 X107.358 Y81.744 E10.39744
G1 X109.733 Y80.945 E10.52246
G1 X110.5 Y80.732 E10.56217
G1 X112.95 Y80.192 E10.68734
G1 X113.743 Y80.062 E10.72743
G1 X116.235 Y79.791 E10.85249
G1 X117.035 Y79.748 E10.89246
G1 X119.539 Y79.748 E11.01738
G1 X120.339 Y79.791 E11.05735
G1 X122.831 Y80.062 E11.18241
G1 X123.624 Y80.192 E11.2225
G1 X126.074 Y80.732 E11.34767
G1 X126.841 Y80.945 E11.38738
G1 X129.216 Y81.744 E11.51239
G1 X129.964 Y82.042 E11.55256
G1 X132.237 Y83.094 E11.67752
G1 X132.943 Y83.469 E11.7174
G1 X135.091 Y84.761 E11.84246
G1 X135.757 Y85.212 E11.88259
G1 X137.753 Y86.73 E12.0077
G1 X138.361 Y87.246 E12.04748
G1 X140.183 Y88.971 E12.17266
G1 X140.736 Y89.555 E12.21278
G1 X142.356 Y91.463 E12.33766
G1 X142.84 Y92.1 E12.37757
G1 X144.247 Y94.175 E12.50265
G1 X144.66 Y94.861 E12.5426
G1 X145.834 Y97.075 E12.66762
G1 X146.17 Y97.802 E12.70758
G1 X147.099 Y100.133 E12.83277
G1 X147.355 Y100.894 E12.87282
G1 X148.025 Y103.308 E12.99781
G1 X148.197 Y104.088 E13.03766
G1 X148.603 Y106.561 E13.16269
G1 X148.69 Y107.359 E13.20274
G1 X148.826 Y109.862 E13.3278
G1 X148.826 Y110.664 E13.36781
G1 X148.69 Y113.167 E13.49287
G1 X148.603 Y113.964 E13.53287
G1 X148.197 Y116.439 E13.658
G1 X148.026 Y117.217 E13.69774
G1 X147.357 Y119.631 E13.82271
G1 X147.099 Y120.398 E13.86309
G1 X146.17 Y122.726 E13.98814
G1 X145.835 Y123.448 E14.02785
G1 X144.661 Y125.663 E14.15292
G1 X144.248 Y126.35 E14.19291
G1 X142.84 Y128.427 E14.31809
G1 X142.356 Y129.065 E14.35805
G1 X140.736 Y130.973 E14.48292
G1 X140.183 Y131.557 E14.52305
G1 X138.361 Y133.282 E14.64822
G1 X137.753 Y133.798 E14.68801
G1 X135.757 Y135.316 E14.81311
G1 X135.092 Y135.767 E14.8532
G1 X132.946 Y137.058 E14.97815
G1 X132.237 Y137.434 E15.01819
G1 X129.962 Y138.486 E15.14323
G1 X129.218 Y138.782 E15.18318
G1 X126.843 Y139.582 E15.30821
G1 X126.074 Y139.796 E15.34804
G1 X123.624 Y140.336 E15.4732
G1 X122.831 Y140.466 E15.51329
G1 X120.339 Y140.737 E15.63835
G1 X119.539 Y140.78 E15.67832
G1 X117.035 Y140.78 E15.80325
G1 X116.235 Y140.737 E15.84322
G1 X113.743 Y140.466 E15.96827
G1 X112.95 Y140.336 E16.00837
G1 X110.5 Y139.796 E16.13353
G1 X109.731 Y139.582 E16.17335
G1 X107.356 Y138.782 E16.29838
G1 X106.612 Y138.486 E16.33833
G1 X104.337 Y137.434 E16.46338
G1 X103.628 Y137.058 E16.50342
G1 X101.482 Y135.767 E16.62836
G1 X100.817 Y135.316 E16.66845
G1 X98.821 Y133.798 E16.79356
G1 X98.213 Y133.282 E16.83334
G1 X96.391 Y131.557 E16.95852
G1 X95.838 Y130.973 E16.99865
G1 X94.218 Y129.065 E17.12352
G1 X93.734 Y128.427 E17.16347
G1 X92.326 Y126.35 E17.28866
G1 X91.913 Y125.663 E17.32865
G1 X90.739 Y123.448 E17.45372
G1 X90.403 Y122.723 E17.49359
G1 X89.475 Y120.395 E17.61862
G1 X89.219 Y119.634 E17.65867
G1 X88.549 Y117.22 E17.78366
G1 X88.377 Y116.439 E17.82356
G1 X87.971 Y113.964 E17.94869
G1 X87.884 Y113.168 E17.98864
G1 X87.748 Y110.667 E18.1136
G1 X87.748 Y109.864 E18.15366
G1 X87.884 Y107.361 E18.27872
G1 X87.971 Y106.564 E18.31872
G1 X88.377 Y104.089 E18.44385
G1 X88.548 Y103.311 E18.48359
G1 X89.217 Y100.897 E18.60856
G1 X89.475 Y100.131 E18.64889
G1 X90.404 Y97.802 E18.77398
G1 X90.739 Y97.077 E18.81383
G1 X91.913 Y94.863 E18.93885
G1 X92.326 Y94.178 E18.97876
G1 X93.734 Y92.101 E19.10395
G1 X94.218 Y91.463 E19.1439
G1 X95.838 Y89.555 E19.26877
G0 F6000 X96.143 Y89.814
G1 F1200 X96.666 Y89.262 E19.30671
G1 X98.488 Y87.537 E19.43189
G1 X99.064 Y87.048 E19.46958
G1 X101.06 Y85.53 E19.59469
G1 X101.689 Y85.104 E19.63259
G1 X103.835 Y83.813 E19.75754
G1 X104.503 Y83.458 E19.79528
G1 X106.778 Y82.405 E19.92035
G1 X107.486 Y82.123 E19.95837
G1 X109.861 Y81.324 E20.08338
G1 X110.586 Y81.123 E20.12092
G1 X113.036 Y80.583 E20.24608
G1 X113.786 Y80.46 E20.284
G1 X116.278 Y80.189 E20.40906
G1 X117.035 Y80.148 E20.44688
G1 X119.539 Y80.148 E20.57181
G1 X120.296 Y80.189 E20.60963
G1 X122.788 Y80.46 E20.73469
G1 X123.538 Y80.583 E20.7726
G1 X125.988 Y81.123 E20.89777
G1 X126.713 Y81.324 E20.9353
G1 X129.088 Y82.123 E21.06032
G1 X129.796 Y82.405 E21.09834
G1 X132.069 Y83.457 E21.2233
G1 X132.737 Y83.811 E21.26101
G1 X134.885 Y85.103 E21.38607
G1 X135.514 Y85.53 E21.424
G1 X137.51 Y87.048 E21.54911
G1 X138.086 Y87.537 E21.5868
G1 X139.908 Y89.262 E21.71198
G1 X140.431 Y89.814 E21.74992
G1 X142.051 Y91.722 E21.87479
G1 X142.509 Y92.324 E21.91253
G1 X143.916 Y94.399 E22.03761
G1 X144.306 Y95.049 E22.07542
G1 X145.48 Y97.263 E22.20045
G1 X145.799 Y97.95 E22.23824
G1 X146.728 Y100.281 E22.36343
G1 X146.97 Y101.001 E22.40132
G1 X147.64 Y103.415 E22.52631
G1 X147.803 Y104.153 E22.56402
G1 X148.209 Y106.626 E22.68905
G1 X148.291 Y107.38 E22.72689
G1 X148.427 Y109.883 E22.85195
G1 X148.427 Y110.643 E22.88986
G1 X148.291 Y113.146 E23.01492
G1 X148.209 Y113.899 E23.05271
G1 X147.803 Y116.374 E23.17784
G1 X147.641 Y117.11 E23.21544
G1 X146.972 Y119.524 E23.34041
G1 X146.727 Y120.249 E23.37859
G1 X145.798 Y122.577 E23.50364
G1 X145.482 Y123.261 E23.54123
G1 X144.308 Y125.476 E23.6663
G1 X143.917 Y126.126 E23.70415
G1 X142.509 Y128.203 E23.82933
G1 X142.051 Y128.806 E23.86711
G1 X140.431 Y130.714 E23.99198
G1 X139.908 Y131.266 E24.02992
G1 X138.086 Y132.991 E24.1551
G1 X137.51 Y133.48 E24.19279
G1 X135.514 Y134.998 E24.3179
G1 X134.885 Y135.424 E24.3558
G1 X132.739 Y136.715 E24.48075
G1 X132.069 Y137.071 E24.5186
G1 X129.794 Y138.123 E24.64365
G1 X129.091 Y138.403 E24.6814
G1 X126.716 Y139.203 E24.80643
G1 X125.988 Y139.405 E24.84412
G1 X123.538 Y139.945 E24.96929
G1 X122.788 Y140.068 E25.00721
G1 X120.296 Y140.339 E25.13226
G1 X119.539 Y140.38 E25.17009
G1 X117.035 Y140.38 E25.29501
G1 X116.278 Y140.339 E25.33283
G1 X113.786 Y140.068 E25.45789
G1 X113.036 Y139.945 E25.49581
G1 X110.586 Y139.405 E25.62098
G1 X109.858 Y139.203 E25.65867
G1 X107.483 Y138.403 E25.7837
G1 X106.78 Y138.123 E25.82145
G1 X104.505 Y137.071 E25.9465
G1 X103.835 Y136.715 E25.98435
G1 X101.689 Y135.424 E26.1093
G1 X101.06 Y134.998 E26.1472
G1 X99.064 Y133.48 E26.2723
G1 X98.488 Y132.991 E26.31
G1 X96.666 Y131.266 E26.43518
G1 X96.143 Y130.714 E26.47311
G1 X94.523 Y128.806 E26.59799
G1 X94.065 Y128.203 E26.63576
G1 X92.657 Y126.126 E26.76095
G1 X92.266 Y125.476 E26.7988
G1 X91.092 Y123.261 E26.92387
G1 X90.775 Y122.575 E26.96157
G1 X89.847 Y120.247 E27.0866
G1 X89.604 Y119.527 E27.12451
G1 X88.934 Y117.113 E27.2495
G1 X88.771 Y116.374 E27.28725
G1 X88.365 Y113.899 E27.41238
G1 X88.283 Y113.146 E27.45017
G1 X88.147 Y110.645 E27.57513
G1 X88.147 Y109.885 E27.61305
G1 X88.283 Y107.382 E27.73811
G1 X88.365 Y106.629 E27.7759
G1 X88.771 Y104.154 E27.90103
G1 X88.933 Y103.418 E27.93862
G1 X89.602 Y101.004 E28.0636
G1 X89.846 Y100.28 E28.10171
G1 X90.775 Y97.951 E28.22681
G1 X91.093 Y97.265 E28.26453
G1 X92.267 Y95.051 E28.38956
G1 X92.657 Y94.402 E28.42734
G1 X94.065 Y92.325 E28.55252
G1 X94.523 Y91.722 E28.5903
G1 X96.143 Y89.814 E28.71517
G0 F6000 X96.448 Y90.073
G1 F1200 X96.941 Y89.552 E28.75096
G1 X98.763 Y87.827 E28.87614
G1 X99.306 Y87.367 E28.91164
G1 X101.302 Y85.849 E29.03675
G1 X101.895 Y85.447 E29.07249
G1 X104.041 Y84.156 E29.19743
G1 X104.671 Y83.821 E29.23303
G1 X106.946 Y82.768 E29.3581
G1 X107.614 Y82.503 E29.39395
G1 X109.989 Y81.704 E29.51897
G1 X110.672 Y81.514 E29.55434
G1 X113.122 Y80.974 E29.6795
G1 X113.829 Y80.858 E29.71525
G1 X116.321 Y80.587 E29.84031
G1 X117.035 Y80.548 E29.87598
G1 X119.539 Y80.548 E30.00091
G1 X120.253 Y80.587 E30.03658
G1 X122.745 Y80.858 E30.16164
G1 X123.452 Y80.974 E30.19738
G1 X125.902 Y81.514 E30.32255
G1 X126.585 Y81.704 E30.35792
G1 X128.96 Y82.503 E30.48293
G1 X129.628 Y82.768 E30.51879
G1 X131.901 Y83.82 E30.64374
G1 X132.531 Y84.154 E30.67932
G1 X134.679 Y85.446 E30.80437
G1 X135.272 Y85.849 E30.84014
G1 X137.268 Y87.367 E30.96525
G1 X137.811 Y87.827 E31.00076
G1 X139.633 Y89.552 E31.12593
G1 X140.126 Y90.073 E31.16172
G1 X141.746 Y91.981 E31.28659
G1 X142.178 Y92.549 E31.32219
G1 X143.585 Y94.624 E31.44727
G1 X143.953 Y95.236 E31.4829
G1 X145.127 Y97.45 E31.60792
G1 X145.427 Y98.099 E31.6436
G1 X146.356 Y100.43 E31.76878
G1 X146.585 Y101.108 E31.80449
G1 X147.255 Y103.522 E31.92948
G1 X147.408 Y104.218 E31.96503
G1 X147.814 Y106.691 E32.09006
G1 X147.891 Y107.402 E32.12574
G1 X148.027 Y109.905 E32.2508
G1 X148.027 Y110.621 E32.28652
G1 X147.891 Y113.124 E32.41158
G1 X147.814 Y113.834 E32.44721
G1 X147.408 Y116.309 E32.57234
G1 X147.255 Y117.004 E32.60784
G1 X146.586 Y119.418 E32.73281
G1 X146.356 Y120.101 E32.76877
G1 X145.427 Y122.429 E32.89382
G1 X145.129 Y123.074 E32.92927
G1 X143.955 Y125.289 E33.05434
G1 X143.586 Y125.901 E33.08999
G1 X142.178 Y127.978 E33.21518
G1 X141.746 Y128.547 E33.25082
G1 X140.126 Y130.455 E33.37569
G1 X139.633 Y130.976 E33.41148
G1 X137.811 Y132.701 E33.53666
G1 X137.268 Y133.161 E33.57216
G1 X135.272 Y134.679 E33.69727
G1 X134.679 Y135.081 E33.73301
G1 X132.533 Y136.372 E33.85795
G1 X131.901 Y136.708 E33.89366
G1 X129.626 Y137.76 E34.01871
G1 X128.963 Y138.024 E34.05431
G1 X126.588 Y138.824 E34.17935
G1 X125.902 Y139.014 E34.21486
G1 X123.452 Y139.554 E34.34002
G1 X122.745 Y139.67 E34.37577
G1 X120.253 Y139.941 E34.50083
G1 X119.539 Y139.98 E34.5365
G1 X117.035 Y139.98 E34.66143
G1 X116.321 Y139.941 E34.6971
G1 X113.829 Y139.67 E34.82216
G1 X113.122 Y139.554 E34.8579
G1 X110.672 Y139.014 E34.98307
G1 X109.986 Y138.824 E35.01858
G1 X107.611 Y138.024 E35.14361
G1 X106.948 Y137.76 E35.17922
G1 X104.673 Y136.708 E35.30426
G1 X104.041 Y136.372 E35.33997
G1 X101.895 Y135.081 E35.46492
G1 X101.302 Y134.679 E35.50066
G1 X99.306 Y133.161 E35.62577
G1 X98.763 Y132.701 E35.66127
G1 X96.941 Y130.976 E35.78645
G1 X96.448 Y130.455 E35.82223
G1 X94.828 Y128.547 E35.94711
G1 X94.396 Y127.978 E35.98275
G1 X92.988 Y125.901 E36.10794
G1 X92.619 Y125.289 E36.14359
G1 X91.445 Y123.074 E36.26866
G1 X91.146 Y122.427 E36.30422
G1 X90.218 Y120.099 E36.42925
G1 X89.989 Y119.42 E36.465
G1 X89.319 Y117.006 E36.58999
G1 X89.166 Y116.309 E36.62559
G1 X88.76 Y113.834 E36.75072
G1 X88.683 Y113.124 E36.78635
G1 X88.547 Y110.623 E36.91131
G1 X88.547 Y109.907 E36.94703
G1 X88.683 Y107.404 E37.07209
G1 X88.76 Y106.694 E37.10772
G1 X89.166 Y104.219 E37.23285
G1 X89.319 Y103.524 E37.26835
G1 X89.988 Y101.11 E37.39333
G1 X90.218 Y100.428 E37.42923
G1 X91.147 Y98.099 E37.55433
G1 X91.446 Y97.452 E37.58989
G1 X92.62 Y95.238 E37.71492
G1 X92.988 Y94.627 E37.7505
G1 X94.396 Y92.55 E37.87569
G1 X94.828 Y91.981 E37.91133
G1 X96.448 Y90.073 E38.0362
G0 F6000 X96.753 Y90.332
G1 F1200 X97.216 Y89.843 E38.0698
G1 X99.038 Y88.118 E38.19498
G1 X99.548 Y87.685 E38.22836
G1 X101.544 Y86.167 E38.35346
G1 X102.101 Y85.789 E38.38705
G1 X104.247 Y84.498 E38.51199
G1 X104.839 Y84.184 E38.54542
G1 X107.114 Y83.131 E38.67049
G1 X107.741 Y82.882 E38.70415
G1 X110.116 Y82.083 E38.82916
G1 X110.758 Y81.904 E38.86242
G1 X113.208 Y81.364 E38.98758
G1 X113.873 Y81.255 E39.0212
G1 X116.365 Y80.984 E39.14626
G1 X117.035 Y80.948 E39.17973
G1 X119.539 Y80.948 E39.30466
G1 X120.209 Y80.984 E39.33813
G1 X122.701 Y81.255 E39.46319
G1 X123.366 Y81.364 E39.49681
G1 X125.816 Y81.904 E39.62198
G1 X126.458 Y82.083 E39.65523
G1 X128.833 Y82.882 E39.78024
G1 X129.46 Y83.131 E39.8139
G1 X131.733 Y84.183 E39.93886
G1 X132.325 Y84.497 E39.97229
G1 X134.473 Y85.789 E40.09735
G1 X135.03 Y86.167 E40.13093
G1 X137.026 Y87.685 E40.25604
G1 X137.536 Y88.118 E40.28942
G1 X139.358 Y89.843 E40.41459
G1 X139.821 Y90.332 E40.44819
G1 X141.441 Y92.24 E40.57306
G1 X141.847 Y92.773 E40.60649
G1 X143.254 Y94.848 E40.73157
G1 X143.6 Y95.423 E40.76505
G1 X144.774 Y97.637 E40.89007
G1 X145.055 Y98.247 E40.92358
G1 X145.984 Y100.578 E41.04877
G1 X146.199 Y101.215 E41.08231
G1 X146.869 Y103.629 E41.2073
