;FLAVOR:Marlin
;TIME:1183
;Filament used: 0.703563m
;Layer height: 0.15
;MINX:92.236
;MINY:92.251
;MINZ:0.3
;MAXX:142.763
;MAXY:142.749
;MAXZ:3.45
;Generated with Cura_SteamEngine 4.6.0
M140 S60
M105
M190 S60
M104 S200
M105
M109 S200
M82 ;absolute extrusion mode
; Ender 3 Custom Start G-code
G92 E0 ; Reset Extruder
G28 ; Home all axes
G1 Z2.0 F3000 ; Move Z Axis up little to prevent scratching of Heat Bed
G1 X0.1 Y20 Z0.3 F5000.0 ; Move to start position
G1 X0.1 Y200.0 Z0.3 F1500.0 E15 ; Draw the first line
G1 X0.4 Y200.0 Z0.3 F5000.0 ; Move to side a little
G1 X0.4 Y20 Z0.3 F1500.0 E30 ; Draw the second line
G92 E0 ; Reset Extruder
G1 Z2.0 F3000 ; Move Z Axis up little to prevent scratching of Heat Bed
G1 X5 Y20 Z0.3 F5000.0 ; Move over to prevent blob squish
G92 E0
G92 E0
G1 F2700 E-5
;LAYER_COUNT:22
;LAYER:0
M107
G0 F6000 X99.45 Y99.82 Z0.3
;TYPE:SKIRT
G1 F2700 E0
G1 F1200 X100.825 Y98.518 E0.09447
G1 X101.464 Y97.975 E0.13631
G1 X102.971 Y96.828 E0.23079
G1 X103.674 Y96.351 E0.27318
G1 X105.293 Y95.377 E0.36744
G1 X106.037 Y94.983 E0.40944
G1 X107.754 Y94.188 E0.50384
G1 X108.545 Y93.873 E0.54632
G1 X110.338 Y93.27 E0.64069
G1 X111.144 Y93.046 E0.68243
G1 X112.994 Y92.638 E0.77694
G1 X113.833 Y92.5 E0.81936
G1 X115.714 Y92.296 E0.91376
G1 X116.555 Y92.251 E0.95578
G1 X118.445 Y92.251 E1.05007
G1 X119.286 Y92.296 E1.09209
G1 X121.167 Y92.5 E1.18648
G1 X122.006 Y92.638 E1.2289
G1 X123.856 Y93.046 E1.32342
G1 X124.662 Y93.27 E1.36515
G1 X126.455 Y93.873 E1.45953
G1 X127.246 Y94.188 E1.502
G1 X128.961 Y94.982 E1.59629
G1 X129.704 Y95.376 E1.63825
G1 X131.325 Y96.351 E1.73262
G1 X132.029 Y96.828 E1.77505
G1 X133.536 Y97.975 E1.86953
G1 X134.175 Y98.518 E1.91137
G1 X135.55 Y99.82 E2.00584
G1 X136.13 Y100.432 E2.04791
G1 X137.354 Y101.872 E2.1422
G1 X137.867 Y102.546 E2.18445
G1 X138.929 Y104.112 E2.27885
G1 X139.364 Y104.836 E2.32099
G1 X140.25 Y106.507 E2.41535
G1 X140.605 Y107.275 E2.45756
G1 X141.306 Y109.035 E2.55208
G1 X141.301 Y109.037 E2.55235
G1 X141.374 Y109.207 E2.56158
G1 X141.577 Y109.837 E2.5946
G1 X142.082 Y111.658 E2.68888
G1 X142.263 Y112.481 E2.73092
G1 X142.569 Y114.349 E2.82536
G1 X142.66 Y115.185 E2.86731
G1 X142.763 Y117.074 E2.96169
G1 X142.763 Y117.924 E3.0041
G1 X142.66 Y119.813 E3.09848
G1 X142.57 Y120.648 E3.14038
G1 X142.264 Y122.518 E3.23492
G1 X142.082 Y123.342 E3.27702
G1 X141.577 Y125.163 E3.3713
G1 X141.328 Y125.913 E3.41072
G1 X141.305 Y125.963 E3.41347
G1 X141.307 Y125.964 E3.41358
G1 X140.607 Y127.722 E3.50798
G1 X140.251 Y128.491 E3.55026
G1 X139.365 Y130.162 E3.64462
G1 X138.93 Y130.885 E3.68672
G1 X137.867 Y132.453 E3.78123
G1 X137.354 Y133.128 E3.82353
G1 X136.13 Y134.568 E3.91781
G1 X135.55 Y135.18 E3.95988
G1 X134.175 Y136.482 E4.05435
G1 X133.536 Y137.025 E4.09619
G1 X132.029 Y138.172 E4.19067
G1 X131.326 Y138.649 E4.23306
G1 X129.707 Y139.623 E4.32732
G1 X128.963 Y140.017 E4.36932
G1 X127.246 Y140.812 E4.46372
G1 X126.455 Y141.127 E4.5062
G1 X124.662 Y141.73 E4.60057
G1 X123.856 Y141.954 E4.64231
G1 X122.006 Y142.362 E4.73682
G1 X121.167 Y142.5 E4.77925
G1 X119.286 Y142.704 E4.87364
G1 X118.445 Y142.749 E4.91566
G1 X116.555 Y142.749 E5.00995
G1 X115.714 Y142.704 E5.05197
G1 X113.833 Y142.5 E5.14636
G1 X112.994 Y142.362 E5.18878
G1 X111.144 Y141.954 E5.2833
G1 X110.338 Y141.73 E5.32503
G1 X108.545 Y141.127 E5.41941
G1 X107.754 Y140.812 E5.46188
G1 X106.037 Y140.017 E5.55628
G1 X105.293 Y139.623 E5.59828
G1 X103.674 Y138.649 E5.69255
G1 X102.971 Y138.172 E5.73493
G1 X101.464 Y137.025 E5.82942
G1 X100.825 Y136.482 E5.87125
G1 X99.45 Y135.18 E5.96573
G1 X98.87 Y134.568 E6.00779
G1 X97.646 Y133.128 E6.10208
G1 X97.133 Y132.453 E6.14438
G1 X96.07 Y130.885 E6.23889
G1 X95.635 Y130.162 E6.28098
G1 X94.749 Y128.491 E6.37534
G1 X94.393 Y127.722 E6.41762
G1 X93.693 Y125.964 E6.51202
G1 X93.699 Y125.962 E6.51234
G1 X93.626 Y125.793 E6.52152
G1 X93.423 Y125.163 E6.55455
G1 X92.918 Y123.342 E6.64883
G1 X92.736 Y122.518 E6.69093
G1 X92.43 Y120.648 E6.78546
G1 X92.34 Y119.813 E6.82736
G1 X92.237 Y117.926 E6.92164
G1 X92.236 Y117.093 E6.9632
G1 X92.279 Y116.272 E7.00422
G1 X92.281 Y116.248 E7.00542
G1 X92.34 Y115.181 E7.05873
G1 X92.43 Y114.352 E7.10034
G1 X92.736 Y112.482 E7.19487
G1 X92.918 Y111.658 E7.23697
G1 X93.423 Y109.837 E7.33125
G1 X93.672 Y109.087 E7.37068
G1 X93.695 Y109.037 E7.37342
G1 X93.693 Y109.036 E7.37353
G1 X94.393 Y107.278 E7.46794
G1 X94.749 Y106.509 E7.51022
G1 X95.635 Y104.838 E7.60458
G1 X96.07 Y104.115 E7.64667
G1 X97.133 Y102.547 E7.74118
G1 X97.646 Y101.872 E7.78348
G1 X98.87 Y100.432 E7.87777
G1 X99.45 Y99.82 E7.91983
G0 F6000 X99.725 Y100.111
G1 F1200 X101.1 Y98.809 E8.01431
G1 X101.706 Y98.294 E8.05398
G1 X103.213 Y97.147 E8.14847
G1 X103.88 Y96.694 E8.18869
G1 X105.499 Y95.72 E8.28296
G1 X106.205 Y95.346 E8.32282
G1 X107.922 Y94.551 E8.41721
G1 X108.672 Y94.252 E8.4575
G1 X110.465 Y93.649 E8.55187
G1 X111.23 Y93.437 E8.59148
G1 X113.08 Y93.029 E8.68599
G1 X113.876 Y92.898 E8.72624
G1 X115.757 Y92.694 E8.82063
G1 X116.555 Y92.651 E8.8605
G1 X118.445 Y92.651 E8.95479
G1 X119.243 Y92.694 E8.99467
G1 X121.124 Y92.898 E9.08906
G1 X121.92 Y93.029 E9.12931
G1 X123.77 Y93.437 E9.22382
G1 X124.535 Y93.649 E9.26342
G1 X126.328 Y94.252 E9.3578
G1 X127.078 Y94.551 E9.39808
G1 X128.793 Y95.345 E9.49237
G1 X129.498 Y95.719 E9.53218
G1 X131.119 Y96.694 E9.62656
G1 X131.787 Y97.147 E9.66683
G1 X133.294 Y98.294 E9.76131
G1 X133.9 Y98.809 E9.80099
G1 X135.275 Y100.111 E9.89546
G1 X135.825 Y100.691 E9.93534
G1 X137.049 Y102.131 E10.02963
G1 X137.535 Y102.771 E10.06972
G1 X138.597 Y104.337 E10.16412
G1 X139.011 Y105.023 E10.20409
G1 X139.897 Y106.694 E10.29845
G1 X140.234 Y107.423 E10.33852
G1 X140.935 Y109.183 E10.43304
G1 X140.926 Y109.186 E10.43351
G1 X141.078 Y109.572 E10.45421
G1 X141.192 Y109.943 E10.47357
G1 X141.697 Y111.764 E10.56785
G1 X141.869 Y112.546 E10.60779
G1 X142.175 Y114.414 E10.70223
G1 X142.261 Y115.207 E10.74203
G1 X142.364 Y117.096 E10.83641
G1 X142.364 Y117.902 E10.87662
G1 X142.261 Y119.791 E10.971
G1 X142.175 Y120.583 E11.01075
G1 X141.869 Y122.453 E11.10528
G1 X141.697 Y123.236 E11.14528
G1 X141.192 Y125.057 E11.23956
G1 X140.948 Y125.786 E11.27791
G1 X140.935 Y125.816 E11.27954
G1 X140.235 Y127.574 E11.37395
G1 X139.898 Y128.304 E11.41406
G1 X139.012 Y129.975 E11.50842
G1 X138.599 Y130.66 E11.54833
G1 X137.536 Y132.228 E11.64284
G1 X137.049 Y132.869 E11.683
G1 X135.825 Y134.309 E11.77729
G1 X135.275 Y134.889 E11.81716
G1 X133.9 Y136.191 E11.91164
G1 X133.294 Y136.706 E11.95131
G1 X131.787 Y137.853 E12.0458
G1 X131.12 Y138.306 E12.08602
G1 X129.501 Y139.28 E12.18029
G1 X128.795 Y139.654 E12.22015
G1 X127.078 Y140.449 E12.31455
G1 X126.328 Y140.748 E12.35483
G1 X124.535 Y141.351 E12.4492
G1 X123.77 Y141.563 E12.48881
G1 X121.92 Y141.971 E12.58332
G1 X121.124 Y142.102 E12.62357
G1 X119.243 Y142.306 E12.71796
G1 X118.445 Y142.349 E12.75783
G1 X116.555 Y142.349 E12.85213
G1 X115.757 Y142.306 E12.892
G1 X113.876 Y142.102 E12.98639
G1 X113.08 Y141.971 E13.02664
G1 X111.23 Y141.563 E13.12115
G1 X110.465 Y141.351 E13.16076
G1 X108.672 Y140.748 E13.25513
G1 X107.922 Y140.449 E13.29541
G1 X106.205 Y139.654 E13.38981
G1 X105.499 Y139.28 E13.42967
G1 X103.88 Y138.306 E13.52393
G1 X103.213 Y137.853 E13.56416
G1 X101.706 Y136.706 E13.65864
G1 X101.1 Y136.191 E13.69832
G1 X99.725 Y134.889 E13.79279
G1 X99.175 Y134.309 E13.83267
G1 X97.951 Y132.869 E13.92696
G1 X97.464 Y132.228 E13.96712
G1 X96.401 Y130.66 E14.06163
G1 X95.988 Y129.975 E14.10154
G1 X95.102 Y128.304 E14.1959
G1 X94.765 Y127.574 E14.23601
G1 X94.065 Y125.816 E14.33042
G1 X94.073 Y125.813 E14.33084
G1 X93.922 Y125.428 E14.35147
G1 X93.808 Y125.057 E14.37084
G1 X93.303 Y123.236 E14.46512
G1 X93.131 Y122.453 E14.50511
G1 X92.825 Y120.583 E14.59965
G1 X92.739 Y119.791 E14.63939
G1 X92.636 Y117.904 E14.73368
G1 X92.635 Y117.114 E14.77309
G1 X92.678 Y116.293 E14.8141
G1 X92.68 Y116.27 E14.81526
G1 X92.739 Y115.203 E14.86857
G1 X92.825 Y114.417 E14.90802
G1 X93.131 Y112.547 E15.00255
G1 X93.303 Y111.764 E15.04255
G1 X93.808 Y109.943 E15.13683
G1 X94.052 Y109.214 E15.17518
G1 X94.065 Y109.184 E15.17681
G1 X94.765 Y107.426 E15.27122
G1 X95.102 Y106.696 E15.31133
G1 X95.988 Y105.025 E15.40569
G1 X96.401 Y104.34 E15.4456
G1 X97.464 Y102.772 E15.54011
G1 X97.951 Y102.131 E15.58027
G1 X99.175 Y100.691 E15.67456
G1 X99.725 Y100.111 E15.71443
G0 F6000 X100 Y100.401
G1 F1200 X101.375 Y99.099 E15.80891
G1 X101.948 Y98.612 E15.84643
G1 X103.455 Y97.465 E15.94091
G1 X104.086 Y97.037 E15.97895
G1 X105.705 Y96.063 E16.07321
G1 X106.373 Y95.709 E16.11093
G1 X108.09 Y94.914 E16.20533
G1 X108.8 Y94.631 E16.24346
G1 X110.593 Y94.028 E16.33784
G1 X111.316 Y93.827 E16.37527
G1 X113.166 Y93.419 E16.46979
G1 X113.919 Y93.296 E16.50785
G1 X115.8 Y93.092 E16.60225
G1 X116.555 Y93.051 E16.63997
G1 X118.445 Y93.051 E16.73426
G1 X119.2 Y93.092 E16.77199
G1 X121.081 Y93.296 E16.86638
G1 X121.834 Y93.419 E16.90444
G1 X123.684 Y93.827 E16.99896
G1 X124.407 Y94.028 E17.0364
G1 X126.2 Y94.631 E17.13077
G1 X126.91 Y94.914 E17.16891
G1 X128.625 Y95.708 E17.26319
G1 X129.292 Y96.061 E17.30084
G1 X130.913 Y97.036 E17.39522
G1 X131.545 Y97.465 E17.43333
G1 X133.052 Y98.612 E17.52781
G1 X133.625 Y99.099 E17.56533
G1 X135 Y100.401 E17.6598
G1 X135.521 Y100.95 E17.69756
G1 X136.745 Y102.39 E17.79185
G1 X137.204 Y102.995 E17.82974
G1 X138.266 Y104.561 E17.92414
G1 X138.657 Y105.211 E17.96198
G1 X139.543 Y106.882 E18.05634
G1 X139.862 Y107.571 E18.09422
G1 X140.519 Y109.221 E18.18282
G1 X140.563 Y109.331 E18.18873
G1 X140.559 Y109.333 E18.18896
G1 X140.806 Y110.05 E18.22679
G1 X141.311 Y111.871 E18.32107
G1 X141.474 Y112.61 E18.35883
G1 X141.78 Y114.478 E18.45326
G1 X141.862 Y115.229 E18.49095
G1 X141.965 Y117.118 E18.58534
G1 X141.965 Y117.88 E18.62335
G1 X141.862 Y119.769 E18.71773
G1 X141.78 Y120.518 E18.75533
G1 X141.474 Y122.388 E18.84986
G1 X141.311 Y123.129 E18.88771
G1 X140.806 Y124.95 E18.98199
G1 X140.568 Y125.659 E19.0193
G1 X140.563 Y125.669 E19.01986
G1 X139.863 Y127.427 E19.11427
G1 X139.544 Y128.116 E19.15215
G1 X138.658 Y129.787 E19.24651
G1 X138.268 Y130.436 E19.28428
G1 X137.205 Y132.004 E19.37879
G1 X136.745 Y132.61 E19.41675
G1 X135.521 Y134.05 E19.51104
G1 X135 Y134.599 E19.5488
G1 X133.625 Y135.901 E19.64327
G1 X133.052 Y136.388 E19.68079
G1 X131.545 Y137.535 E19.77527
G1 X130.914 Y137.963 E19.81331
G1 X129.295 Y138.937 E19.90757
G1 X128.627 Y139.291 E19.94529
G1 X126.91 Y140.086 E20.03969
G1 X126.2 Y140.369 E20.07782
G1 X124.407 Y140.972 E20.1722
G1 X123.684 Y141.173 E20.20964
G1 X121.834 Y141.581 E20.30415
G1 X121.081 Y141.704 E20.34222
G1 X119.2 Y141.908 E20.43661
G1 X118.445 Y141.949 E20.47433
G1 X116.555 Y141.949 E20.56862
G1 X115.8 Y141.908 E20.60635
G1 X113.919 Y141.704 E20.70074
G1 X113.166 Y141.581 E20.73881
G1 X111.316 Y141.173 E20.83332
G1 X110.593 Y140.972 E20.87076
G1 X108.8 Y140.369 E20.96514
G1 X108.09 Y140.086 E21.00327
G1 X106.373 Y139.291 E21.09767
G1 X105.705 Y138.937 E21.13538
G1 X104.086 Y137.963 E21.22965
G1 X103.455 Y137.535 E21.26769
G1 X101.948 Y136.388 E21.36217
G1 X101.375 Y135.901 E21.39969
G1 X100 Y134.599 E21.49416
G1 X99.479 Y134.05 E21.53192
G1 X98.255 Y132.61 E21.62621
G1 X97.795 Y132.004 E21.66417
G1 X96.732 Y130.436 E21.75868
G1 X96.342 Y129.787 E21.79645
G1 X95.456 Y128.116 E21.89081
G1 X95.137 Y127.427 E21.92869
G1 X94.481 Y125.778 E22.01723
G1 X94.437 Y125.669 E22.0231
G1 X94.441 Y125.667 E22.02332
G1 X94.194 Y124.95 E22.06115
G1 X93.689 Y123.129 E22.15543
G1 X93.526 Y122.388 E22.19328
G1 X93.22 Y120.518 E22.28782
G1 X93.138 Y119.77 E22.32536
G1 X93.035 Y117.883 E22.41964
G1 X93.035 Y117.135 E22.45696
G1 X93.078 Y116.314 E22.49798
G1 X93.08 Y116.293 E22.49903
G1 X93.139 Y115.226 E22.55234
G1 X93.22 Y114.482 E22.58968
G1 X93.526 Y112.612 E22.68422
G1 X93.689 Y111.871 E22.72207
G1 X94.194 Y110.05 E22.81635
G1 X94.432 Y109.341 E22.85366
G1 X94.44 Y109.324 E22.8546
G1 X95.137 Y107.573 E22.94862
G1 X95.456 Y106.884 E22.9865
G1 X96.342 Y105.213 E23.08086
G1 X96.732 Y104.564 E23.11864
G1 X97.795 Y102.996 E23.21315
G1 X98.255 Y102.39 E23.25111
G1 X99.479 Y100.95 E23.34539
G1 X100 Y100.401 E23.38315
G0 F6000 X100.275 Y100.692
G1 F1200 X101.65 Y99.39 E23.47763
G1 X102.191 Y98.93 E23.51306
G1 X103.698 Y97.783 E23.60754
G1 X104.293 Y97.38 E23.64339
G1 X105.912 Y96.406 E23.73766
G1 X106.541 Y96.072 E23.77319
G1 X108.258 Y95.277 E23.86758
G1 X108.927 Y95.01 E23.90352
G1 X110.72 Y94.407 E23.9979
G1 X111.403 Y94.218 E24.03325
G1 X113.253 Y93.81 E24.12777
G1 X113.962 Y93.693 E24.16362
G1 X115.843 Y93.489 E24.25801
G1 X116.555 Y93.451 E24.29358
G1 X118.445 Y93.451 E24.38788
G1 X119.157 Y93.489 E24.42345
G1 X121.038 Y93.693 E24.51784
G1 X121.747 Y93.81 E24.55369
G1 X123.597 Y94.218 E24.64821
G1 X124.28 Y94.407 E24.68356
G1 X126.073 Y95.01 E24.77794
G1 X126.742 Y95.277 E24.81388
G1 X128.457 Y96.071 E24.90816
G1 X129.086 Y96.404 E24.94367
G1 X130.707 Y97.379 E25.03804
G1 X131.302 Y97.783 E25.07392
G1 X132.809 Y98.93 E25.16841
G1 X133.35 Y99.39 E25.20384
G1 X134.725 Y100.692 E25.29831
G1 X135.216 Y101.21 E25.33392
G1 X136.44 Y102.65 E25.42821
G1 X136.873 Y103.22 E25.46392
G1 X137.935 Y104.786 E25.55832
G1 X138.304 Y105.398 E25.59397
G1 X139.19 Y107.069 E25.68833
G1 X139.491 Y107.719 E25.72407
G1 X140.192 Y109.479 E25.81858
G1 X140.187 Y109.481 E25.81885
G1 X140.239 Y109.599 E25.82529
G1 X140.421 Y110.157 E25.85457
G1 X140.926 Y111.978 E25.94885
G1 X141.079 Y112.675 E25.98445
G1 X141.385 Y114.543 E26.07889
G1 X141.462 Y115.251 E26.11442
G1 X141.565 Y117.14 E26.2088
G1 X141.565 Y117.858 E26.24462
G1 X141.462 Y119.747 E26.339
G1 X141.385 Y120.454 E26.37448
G1 X141.079 Y122.324 E26.46902
G1 X140.926 Y123.022 E26.50467
G1 X140.421 Y124.843 E26.59895
G1 X140.189 Y125.531 E26.63517
G1 X140.182 Y125.545 E26.63595
G1 X139.492 Y127.279 E26.72906
G1 X139.191 Y127.929 E26.7648
G1 X138.305 Y129.6 E26.85916
G1 X137.937 Y130.212 E26.89478
G1 X136.874 Y131.78 E26.98929
G1 X136.44 Y132.35 E27.02504
G1 X135.216 Y133.79 E27.11932
G1 X134.725 Y134.308 E27.15493
G1 X133.35 Y135.61 E27.24941
G1 X132.809 Y136.07 E27.28483
G1 X131.302 Y137.217 E27.37932
G1 X130.707 Y137.62 E27.41517
G1 X129.088 Y138.594 E27.50943
G1 X128.459 Y138.928 E27.54497
G1 X126.742 Y139.723 E27.63936
G1 X126.073 Y139.99 E27.6753
G1 X124.28 Y140.593 E27.76968
G1 X123.597 Y140.782 E27.80503
G1 X121.747 Y141.19 E27.89955
G1 X121.038 Y141.307 E27.9354
G1 X119.157 Y141.511 E28.02979
G1 X118.445 Y141.549 E28.06536
G1 X116.555 Y141.549 E28.15966
G1 X115.843 Y141.511 E28.19523
G1 X113.962 Y141.307 E28.28962
G1 X113.253 Y141.19 E28.32547
G1 X111.403 Y140.782 E28.41999
G1 X110.72 Y140.593 E28.45534
G1 X108.927 Y139.99 E28.54972
G1 X108.258 Y139.723 E28.58566
G1 X106.541 Y138.928 E28.68005
G1 X105.912 Y138.594 E28.71558
G1 X104.293 Y137.62 E28.80985
G1 X103.698 Y137.217 E28.8457
G1 X102.191 Y136.07 E28.94018
G1 X101.65 Y135.61 E28.97561
G1 X100.275 Y134.308 E29.07009
G1 X99.784 Y133.79 E29.10569
G1 X98.56 Y132.35 E29.19998
G1 X98.126 Y131.78 E29.23572
G1 X97.063 Y130.212 E29.33023
G1 X96.695 Y129.6 E29.36586
G1 X95.809 Y127.929 E29.46022
G1 X95.508 Y127.279 E29.49596
G1 X94.808 Y125.521 E29.59036
G1 X94.813 Y125.519 E29.59063
G1 X94.761 Y125.401 E29.59707
G1 X94.579 Y124.843 E29.62635
G1 X94.074 Y123.022 E29.72063
G1 X93.921 Y122.324 E29.75628
G1 X93.615 Y120.454 E29.85081
G1 X93.538 Y119.748 E29.88624
G1 X93.435 Y117.861 E29.98053
G1 X93.434 Y117.156 E30.0157
G1 X93.477 Y116.335 E30.05672
G1 X93.479 Y116.315 E30.05772
G1 X93.538 Y115.248 E30.11103
G1 X93.615 Y114.546 E30.14627
G1 X93.921 Y112.676 E30.2408
G1 X94.074 Y111.978 E30.27645
G1 X94.579 Y110.157 E30.37073
G1 X94.811 Y109.469 E30.40695
G1 X94.818 Y109.455 E30.40773
G1 X95.508 Y107.721 E30.50084
G1 X95.809 Y107.071 E30.53658
G1 X96.695 Y105.4 E30.63094
G1 X97.063 Y104.788 E30.66657
G1 X98.126 Y103.22 E30.76108
G1 X98.56 Y102.65 E30.79682
G1 X99.784 Y101.21 E30.89111
G1 X100.275 Y100.692 E30.92671
G0 F6000 X100.55 Y100.982
G1 F1200 X101.925 Y99.68 E31.02119
G1 X102.433 Y99.248 E31.05446
G1 X103.94 Y98.101 E31.14894
G1 X104.499 Y97.722 E31.18264
G1 X106.118 Y96.748 E31.2769
