;FLAVOR:Marlin
;TIME:2939
;Filament used: 1.66168m
;Layer height: 0.15
;MINX:94.5
;MINY:66.5
;MINZ:0.3
;MAXX:140.5
;MAXY:168.5
;MAXZ:6
;Generated with Cura_SteamEngine 4.5.0
M140 S60
M105
M190 S60
M104 S200
M105
M109 S200
M82 ;absolute extrusion mode
; Ender 3 Custom Start G-code
G92 E0 ; Reset Extruder
G28 ; Home all axes
G1 Z2.0 F3000 ; Move Z Axis up little to prevent scratching of Heat Bed
G1 X0.1 Y20 Z0.3 F5000.0 ; Move to start position
G1 X0.1 Y200.0 Z0.3 F1500.0 E15 ; Draw the first line
G1 X0.4 Y200.0 Z0.3 F5000.0 ; Move to side a little
G1 X0.4 Y20 Z0.3 F1500.0 E30 ; Draw the second line
G92 E0 ; Reset Extruder
G1 Z2.0 F3000 ; Move Z Axis up little to prevent scratching of Heat Bed
G1 X5 Y20 Z0.3 F5000.0 ; Move over to prevent blob squish
G92 E0
G92 E0
G1 F2700 E-5
;LAYER_COUNT:39
;LAYER:0
M107
G0 F6000 X96.496 Y71.203 Z0.3
;TYPE:SKIRT
G1 F2700 E0
G1 F1200 X97.066 Y70.458 E0.0468
G1 X97.698 Y69.764 E0.09363
G1 X98.386 Y69.127 E0.14041
G1 X99.126 Y68.551 E0.18719
G1 X99.912 Y68.039 E0.23399
G1 X100.739 Y67.597 E0.28077
G1 X101.601 Y67.227 E0.32757
G1 X102.491 Y66.931 E0.37437
G1 X103.403 Y66.713 E0.42115
G1 X104.33 Y66.572 E0.46793
G1 X105.201 Y66.513 E0.51148
G1 X105.83 Y66.5 E0.54287
G1 X128.951 Y66.501 E1.69638
G1 X129.649 Y66.511 E1.73121
G1 X130.585 Y66.565 E1.77798
G1 X131.513 Y66.697 E1.82475
G1 X132.427 Y66.909 E1.87156
G1 X133.319 Y67.198 E1.91834
G1 X134.184 Y67.561 E1.96514
G1 X135.014 Y67.997 E2.01191
G1 X135.805 Y68.502 E2.05873
G1 X136.549 Y69.073 E2.10552
G1 X137.242 Y69.705 E2.15231
G1 X137.879 Y70.393 E2.19909
G1 X138.454 Y71.134 E2.24588
G1 X138.965 Y71.92 E2.29266
G1 X139.407 Y72.748 E2.33948
G1 X139.776 Y73.61 E2.38626
G1 X140.071 Y74.5 E2.43304
G1 X140.289 Y75.412 E2.47982
G1 X140.429 Y76.34 E2.52665
G1 X140.487 Y77.201 E2.5697
G1 X140.5 Y77.83 E2.60109
G1 X140.499 Y100.927 E3.7534
G1 X140.489 Y101.644 E3.78917
G1 X140.436 Y102.581 E3.836
G1 X140.305 Y103.498 E3.88221
G1 X139.994 Y105.147 E3.96593
G1 X139.572 Y107.617 E4.09094
G1 X139.216 Y110.126 E4.21737
G1 X138.936 Y112.603 E4.34174
G1 X138.721 Y115.133 E4.46841
G1 X138.582 Y117.607 E4.59204
G1 X138.5 Y121.504 E4.7865
G1 X138.499 Y156.915 E6.55316
G1 X138.489 Y157.642 E6.58944
G1 X138.436 Y158.579 E6.63626
G1 X138.304 Y159.507 E6.68302
G1 X138.093 Y160.421 E6.72982
G1 X137.804 Y161.313 E6.7766
G1 X137.441 Y162.178 E6.8234
G1 X137.006 Y163.009 E6.8702
G1 X136.501 Y163.799 E6.91698
G1 X135.931 Y164.544 E6.96378
G1 X135.3 Y165.238 E7.01057
G1 X134.611 Y165.875 E7.05739
G1 X133.871 Y166.451 E7.10417
G1 X133.085 Y166.962 E7.15094
G1 X132.258 Y167.404 E7.19773
G1 X131.396 Y167.774 E7.24452
G1 X130.506 Y168.069 E7.2913
G1 X129.594 Y168.288 E7.3381
G1 X128.667 Y168.428 E7.38487
G1 X127.799 Y168.487 E7.42827
G1 X127.17 Y168.5 E7.45966
G1 X108.065 Y168.499 E8.41281
G1 X107.367 Y168.49 E8.44764
G1 X106.431 Y168.438 E8.49441
G1 X105.502 Y168.306 E8.54122
G1 X104.588 Y168.096 E8.58801
G1 X103.695 Y167.809 E8.63481
G1 X102.83 Y167.446 E8.68161
G1 X101.999 Y167.012 E8.72838
G1 X101.208 Y166.508 E8.77517
G1 X100.463 Y165.938 E8.82197
G1 X99.769 Y165.307 E8.86877
G1 X99.132 Y164.62 E8.91551
G1 X98.555 Y163.88 E8.96232
G1 X98.043 Y163.094 E9.00912
G1 X97.6 Y162.267 E9.05593
G1 X97.229 Y161.406 E9.1027
G1 X96.933 Y160.516 E9.1495
G1 X96.714 Y159.604 E9.19629
G1 X96.573 Y158.677 E9.24307
G1 X96.513 Y157.788 E9.28752
G1 X96.5 Y157.158 E9.31896
G1 X96.5 Y121.433 E11.10129
G1 X96.463 Y118.825 E11.23141
G1 X96.356 Y116.303 E11.35735
G1 X96.179 Y113.808 E11.48214
G1 X95.931 Y111.309 E11.60743
G1 X95.613 Y108.82 E11.73261
G1 X95.219 Y106.311 E11.85932
G1 X94.713 Y103.597 E11.99706
G1 X94.551 Y102.301 E12.06222
G1 X94.524 Y101.889 E12.08282
G1 X94.5 Y101.17 E12.11871
G1 X94.501 Y78.025 E13.27342
G1 X94.51 Y77.36 E13.3066
G1 X94.563 Y76.424 E13.35337
G1 X94.695 Y75.495 E13.40018
G1 X94.906 Y74.581 E13.44698
G1 X95.194 Y73.689 E13.49375
G1 X95.557 Y72.824 E13.54055
G1 X95.992 Y71.993 E13.58734
G1 X96.496 Y71.203 E13.63409
G0 F6000 X96.892 Y71.335
G1 F1200 X97.461 Y70.611 E13.68003
G1 X98.089 Y69.939 E13.72592
G1 X98.774 Y69.323 E13.77188
G1 X99.51 Y68.77 E13.81781
G1 X100.291 Y68.282 E13.86376
G1 X101.111 Y67.864 E13.90968
G1 X101.965 Y67.519 E13.95563
G1 X102.845 Y67.249 E14.00155
G1 X103.745 Y67.057 E14.04746
G1 X104.659 Y66.943 E14.09341
G1 X105.212 Y66.913 E14.12104
G1 X105.83 Y66.9 E14.15188
G1 X128.945 Y66.901 E15.3051
G1 X129.643 Y66.911 E15.33992
G1 X130.562 Y66.964 E15.38585
G1 X131.473 Y67.097 E15.43178
G1 X132.369 Y67.308 E15.4777
G1 X133.243 Y67.596 E15.52361
G1 X134.09 Y67.959 E15.56959
G1 X134.901 Y68.394 E15.6155
G1 X135.671 Y68.898 E15.66142
G1 X136.395 Y69.467 E15.70736
G1 X137.067 Y70.097 E15.75331
G1 X137.682 Y70.782 E15.79924
G1 X138.235 Y71.518 E15.84517
G1 X138.722 Y72.299 E15.89109
G1 X139.139 Y73.12 E15.93703
G1 X139.484 Y73.974 E15.98298
G1 X139.753 Y74.854 E16.02889
G1 X139.945 Y75.755 E16.07485
G1 X140.058 Y76.668 E16.12074
G1 X140.087 Y77.212 E16.14792
G1 X140.1 Y77.83 E16.17876
G1 X140.099 Y100.922 E17.33083
G1 X140.089 Y101.639 E17.3666
G1 X140.036 Y102.558 E17.41253
G1 X139.912 Y103.425 E17.45622
G1 X139.602 Y105.073 E17.53988
G1 X139.175 Y107.565 E17.66602
G1 X138.822 Y110.058 E17.79164
G1 X138.535 Y112.596 E17.91907
G1 X138.321 Y115.111 E18.04499
G1 X138.182 Y117.576 E18.16817
G1 X138.1 Y121.498 E18.36388
G1 X138.099 Y156.91 E20.13059
G1 X138.089 Y157.637 E20.16687
G1 X138.036 Y158.556 E20.21279
G1 X137.904 Y159.467 E20.25872
G1 X137.693 Y160.363 E20.30464
G1 X137.406 Y161.238 E20.35058
G1 X137.043 Y162.084 E20.39651
G1 X136.609 Y162.896 E20.44245
G1 X136.105 Y163.667 E20.4884
G1 X135.537 Y164.391 E20.53431
G1 X134.908 Y165.063 E20.58023
G1 X134.223 Y165.678 E20.62616
G1 X133.487 Y166.231 E20.67209
G1 X132.706 Y166.719 E20.71803
G1 X131.886 Y167.137 E20.76395
G1 X131.032 Y167.482 E20.8099
G1 X130.152 Y167.751 E20.85581
G1 X129.251 Y167.944 E20.90178
G1 X128.338 Y168.057 E20.94768
G1 X127.788 Y168.087 E20.97516
G1 X127.17 Y168.1 E21.006
G1 X108.07 Y168.099 E21.9589
G1 X107.372 Y168.09 E21.99373
G1 X106.453 Y168.038 E22.03965
G1 X105.542 Y167.907 E22.08557
G1 X104.646 Y167.697 E22.13148
G1 X103.771 Y167.41 E22.17742
G1 X102.924 Y167.048 E22.22338
G1 X102.112 Y166.614 E22.26931
G1 X101.341 Y166.112 E22.31521
G1 X100.616 Y165.544 E22.36116
G1 X99.943 Y164.915 E22.40712
G1 X99.328 Y164.231 E22.45301
G1 X98.774 Y163.496 E22.49893
G1 X98.286 Y162.715 E22.54487
G1 X97.867 Y161.895 E22.59082
G1 X97.521 Y161.042 E22.63674
G1 X97.251 Y160.162 E22.68266
G1 X97.058 Y159.261 E22.72863
G1 X96.944 Y158.348 E22.77454
G1 X96.913 Y157.777 E22.80307
G1 X96.9 Y157.158 E22.83396
G1 X96.9 Y121.427 E24.61658
G1 X96.863 Y118.802 E24.74756
G1 X96.756 Y116.294 E24.8728
G1 X96.578 Y113.773 E24.99888
G1 X96.328 Y111.255 E25.12512
G1 X96.005 Y108.731 E25.25207
G1 X95.619 Y106.275 E25.37611
G1 X95.106 Y103.523 E25.51577
G1 X94.95 Y102.275 E25.57852
G1 X94.923 Y101.863 E25.59912
G1 X94.9 Y101.17 E25.63371
G1 X94.901 Y78.031 E26.78812
G1 X94.91 Y77.366 E26.8213
G1 X94.962 Y76.446 E26.86727
G1 X95.094 Y75.535 E26.9132
G1 X95.305 Y74.639 E26.95912
G1 X95.592 Y73.764 E27.00506
G1 X95.955 Y72.918 E27.05099
G1 X96.389 Y72.106 E27.09692
G1 X96.892 Y71.335 E27.14285
G0 F6000 X97.288 Y71.471
G1 F1200 X97.855 Y70.767 E27.18795
G1 X98.481 Y70.117 E27.23297
G1 X99.162 Y69.524 E27.27802
G1 X99.894 Y68.994 E27.32311
G1 X100.669 Y68.531 E27.36815
G1 X101.482 Y68.138 E27.4132
G1 X102.327 Y67.818 E27.45828
G1 X103.196 Y67.575 E27.5033
G1 X104.084 Y67.409 E27.54837
G1 X105.223 Y67.313 E27.60539
G1 X105.83 Y67.3 E27.63568
G1 X128.939 Y67.301 E28.7886
G1 X129.637 Y67.311 E28.82342
G1 X130.539 Y67.364 E28.8685
G1 X131.432 Y67.496 E28.91354
G1 X132.31 Y67.707 E28.95859
G1 X133.166 Y67.995 E29.00365
G1 X133.993 Y68.357 E29.04869
G1 X134.785 Y68.792 E29.09377
G1 X135.536 Y69.294 E29.13883
G1 X136.239 Y69.861 E29.18389
G1 X136.889 Y70.488 E29.22895
G1 X137.481 Y71.17 E29.27401
G1 X138.011 Y71.901 E29.31905
G1 X138.473 Y72.677 E29.36411
G1 X138.866 Y73.49 E29.40916
G1 X139.184 Y74.335 E29.4542
G1 X139.427 Y75.205 E29.49927
G1 X139.592 Y76.093 E29.54433
G1 X139.687 Y77.223 E29.60091
G1 X139.7 Y77.83 E29.6312
G1 X139.699 Y100.916 E30.78296
G1 X139.689 Y101.633 E30.81874
G1 X139.636 Y102.535 E30.86381
G1 X139.519 Y103.352 E30.90499
G1 X139.208 Y105.005 E30.98891
G1 X138.779 Y107.512 E31.1158
G1 X138.422 Y110.027 E31.24253
G1 X138.14 Y112.518 E31.3676
G1 X137.922 Y115.09 E31.49638
G1 X137.782 Y117.573 E31.62045
G1 X137.7 Y121.492 E31.81601
G1 X137.699 Y156.904 E33.58273
G1 X137.689 Y157.631 E33.619
G1 X137.637 Y158.533 E33.66408
G1 X137.505 Y159.426 E33.70911
G1 X137.294 Y160.305 E33.75421
G1 X137.007 Y161.161 E33.79925
G1 X136.645 Y161.988 E33.84429
G1 X136.211 Y162.78 E33.88935
G1 X135.709 Y163.531 E33.93442
G1 X135.143 Y164.234 E33.97944
G1 X134.516 Y164.885 E34.02454
G1 X133.835 Y165.477 E34.06955
G1 X133.104 Y166.007 E34.1146
G1 X132.328 Y166.47 E34.15968
G1 X131.515 Y166.863 E34.20474
G1 X130.67 Y167.183 E34.24981
G1 X129.801 Y167.426 E34.29483
G1 X128.913 Y167.591 E34.33989
G1 X127.777 Y167.687 E34.39677
G1 X127.17 Y167.7 E34.42706
G1 X108.075 Y167.699 E35.37971
G1 X107.377 Y167.69 E35.41454
G1 X106.476 Y167.639 E35.45956
G1 X105.582 Y167.507 E35.50465
G1 X104.704 Y167.298 E35.54968
G1 X103.847 Y167.011 E35.59477
G1 X103.02 Y166.65 E35.63978
G1 X102.227 Y166.217 E35.68486
G1 X101.476 Y165.716 E35.7299
G1 X100.772 Y165.15 E35.77497
G1 X100.121 Y164.524 E35.82003
G1 X99.528 Y163.843 E35.86508
G1 X98.998 Y163.112 E35.91012
G1 X98.534 Y162.337 E35.95519
G1 X98.14 Y161.524 E36.00026
G1 X97.82 Y160.68 E36.04529
G1 X97.576 Y159.81 E36.09037
G1 X97.41 Y158.922 E36.13544
G1 X97.313 Y157.767 E36.19327
G1 X97.3 Y157.158 E36.22366
G1 X97.3 Y121.421 E38.00658
G1 X97.263 Y118.815 E38.13661
G1 X97.154 Y116.247 E38.26484
G1 X96.977 Y113.745 E38.38998
G1 X96.728 Y111.232 E38.51597
G1 X96.4 Y108.669 E38.64488
G1 X96.008 Y106.177 E38.77074
G1 X95.5 Y103.45 E38.90913
G1 X95.349 Y102.249 E38.96952
G1 X95.322 Y101.837 E38.99012
G1 X95.3 Y101.17 E39.02341
G1 X95.301 Y78.036 E40.17757
G1 X95.31 Y77.371 E40.21075
G1 X95.362 Y76.469 E40.25583
G1 X95.494 Y75.576 E40.30086
G1 X95.704 Y74.698 E40.3459
G1 X95.991 Y73.841 E40.39099
G1 X96.353 Y73.014 E40.43603
G1 X96.786 Y72.222 E40.48106
G1 X97.288 Y71.471 E40.52613
G1 F2700 E35.52613
;MESH:Wall_Attachment_1.stl
G0 F6000 X104.835 Y77.92
G0 X105.92 Y77.92
G0 X106.682 Y100.318
G0 X108.682 Y100.318
G0 X108.682 Y156.318
G0 X126.5 Y156.5
;TYPE:WALL-INNER
G1 F2700 E40.52613
G1 F1200 X108.5 Y156.5 E41.42415
G1 X108.5 Y100.5 E44.21801
G1 X106.5 Y100.5 E44.31779
G1 X106.5 Y78.5 E45.41537
G1 X128.5 Y78.5 E46.51295
G1 X128.5 Y100.5 E47.61054
G1 X126.5 Y100.5 E47.71032
G1 X126.5 Y156.5 E50.50417
G0 F6000 X126.9 Y156.9
G1 F1200 X108.1 Y156.9 E51.44211
G1 X108.1 Y100.9 E54.23596
G1 X106.1 Y100.9 E54.33574
G1 X106.1 Y78.1 E55.47324
G1 X128.9 Y78.1 E56.61073
G1 X128.9 Y100.9 E57.74823
G1 X126.9 Y100.9 E57.84801
G1 X126.9 Y156.9 E60.64186
G0 F6000 X127.3 Y157.3
;TYPE:WALL-OUTER
G1 F1200 X107.7 Y157.3 E61.61971
G1 X107.7 Y101.3 E64.41356
G1 X105.7 Y101.3 E64.51334
G1 X105.7 Y77.7 E65.69075
G1 X129.3 Y77.7 E66.86816
G1 X129.3 Y101.3 E68.04557
G1 X127.3 Y101.3 E68.14535
G1 X127.3 Y157.3 E70.9392
G0 F6000 X127.03 Y157.03
G0 X126.39 Y156.11
G0 X126.11 Y156.11
;TYPE:SKIN
G1 F1200 X108.89 Y156.11 E71.79831
G1 X108.89 Y100.11 E74.59216
G1 X106.89 Y100.11 E74.69194
G1 X106.89 Y78.89 E75.75061
G1 X128.11 Y78.89 E76.80928
G1 X128.11 Y100.11 E77.86795
G1 X126.11 Y100.11 E77.96773
G1 X126.11 Y156.11 E80.76158
G0 F6000 X126.39 Y156.11
G0 X126.326 Y156.297
G0 X109.563 Y156.39
G0 X109.563 Y155.949
G1 F1200 X109.049 Y155.435 E80.79785
G0 F6000 X109.049 Y154.869
G1 F1200 X110.129 Y155.949 E80.87405
G0 F6000 X110.694 Y155.949
G1 F1200 X109.049 Y154.304 E80.99011
G0 F6000 X109.049 Y153.738
G1 F1200 X111.26 Y155.949 E81.14611
G0 F6000 X111.826 Y155.949
G1 F1200 X109.049 Y153.172 E81.34204
G0 F6000 X109.049 Y152.607
G1 F1200 X112.391 Y155.949 E81.57784
G0 F6000 X112.957 Y155.949
G1 F1200 X109.049 Y152.041 E81.85357
G0 F6000 X109.049 Y151.475
G1 F1200 X113.523 Y155.949 E82.16923
G0 F6000 X114.088 Y155.949
G1 F1200 X109.049 Y150.91 E82.52476
G0 F6000 X109.049 Y150.344
G1 F1200 X114.654 Y155.949 E82.92022
G0 F6000 X115.22 Y155.949
G1 F1200 X109.049 Y149.778 E83.35562
G0 F6000 X109.049 Y149.212
G1 F1200 X115.785 Y155.949 E83.83092
G0 F6000 X116.351 Y155.949
G1 F1200 X109.049 Y148.647 E84.34611
G0 F6000 X109.049 Y148.081
G1 F1200 X116.917 Y155.949 E84.90124
G0 F6000 X117.482 Y155.949
G1 F1200 X109.049 Y147.515 E85.49627
G0 F6000 X109.049 Y146.95
G1 F1200 X118.048 Y155.949 E86.1312
G0 F6000 X118.614 Y155.949
G1 F1200 X109.049 Y146.384 E86.80606
G0 F6000 X109.049 Y145.818
G1 F1200 X119.18 Y155.949 E87.52086
G0 F6000 X119.745 Y155.949
G1 F1200 X109.049 Y145.253 E88.27552
G0 F6000 X109.049 Y144.687
G1 F1200 X120.311 Y155.949 E89.07011
G0 F6000 X120.877 Y155.949
G1 F1200 X109.049 Y144.121 E89.90464
G0 F6000 X109.049 Y143.556
G1 F1200 X121.442 Y155.949 E90.77904
G0 F6000 X122.008 Y155.949
G1 F1200 X109.049 Y142.99 E91.69336
G0 F6000 X109.049 Y142.424
G1 F1200 X122.574 Y155.949 E92.64763
G0 F6000 X123.139 Y155.949
G1 F1200 X109.049 Y141.859 E93.64175
G0 F6000 X109.049 Y141.293
G1 F1200 X123.705 Y155.949 E94.67581
G0 F6000 X124.271 Y155.949
G1 F1200 X109.049 Y140.727 E95.74981
G0 F6000 X109.049 Y140.161
G1 F1200 X124.836 Y155.949 E96.8637
G0 F6000 X125.402 Y155.949
G1 F1200 X109.049 Y139.596 E98.01749
G0 F6000 X109.049 Y139.03
G1 F1200 X125.949 Y155.931 E99.20991
G0 F6000 X125.949 Y155.365
G1 F1200 X109.049 Y138.464 E100.40234
G0 F6000 X109.049 Y137.899
G1 F1200 X125.949 Y154.799 E101.59472
G0 F6000 X125.949 Y154.234
G1 F1200 X109.049 Y137.333 E102.78714
G0 F6000 X109.049 Y136.767
G1 F1200 X125.949 Y153.668 E103.97956
G0 F6000 X125.949 Y153.102
G1 F1200 X109.049 Y136.202 E105.17195
G0 F6000 X109.049 Y135.636
G1 F1200 X125.949 Y152.537 E106.36437
G0 F6000 X125.949 Y151.971
G1 F1200 X109.049 Y135.07 E107.55679
G0 F6000 X109.049 Y134.505
G1 F1200 X125.949 Y151.405 E108.74918
G0 F6000 X125.949 Y150.84
G1 F1200 X109.049 Y133.939 E109.9416
G0 F6000 X109.049 Y133.373
G1 F1200 X125.949 Y150.274 E111.13402
G0 F6000 X125.949 Y149.708
G1 F1200 X109.049 Y132.808 E112.32641
G0 F6000 X109.049 Y132.242
G1 F1200 X125.949 Y149.142 E113.5188
G0 F6000 X125.949 Y148.577
G1 F1200 X109.049 Y131.676 E114.71122
G0 F6000 X109.049 Y131.111
G1 F1200 X125.949 Y148.011 E115.9036
G0 F6000 X125.949 Y147.445
G1 F1200 X109.049 Y130.545 E117.09599
G0 F6000 X109.049 Y129.979
G1 F1200 X125.949 Y146.88 E118.28841
G0 F6000 X125.949 Y146.314
G1 F1200 X109.049 Y129.413 E119.48083
G0 F6000 X109.049 Y128.848
G1 F1200 X125.949 Y145.748 E120.67322
G0 F6000 X125.949 Y145.183
G1 F1200 X109.049 Y128.282 E121.86564
G0 F6000 X109.049 Y127.716
G1 F1200 X125.949 Y144.617 E123.05806
G0 F6000 X125.949 Y144.051
G1 F1200 X109.049 Y127.151 E124.25045
G0 F6000 X109.049 Y126.585
G1 F1200 X125.949 Y143.486 E125.44287
G0 F6000 X125.949 Y142.92
G1 F1200 X109.049 Y126.019 E126.63529
G0 F6000 X109.049 Y125.454
G1 F1200 X125.949 Y142.354 E127.82768
G0 F6000 X125.949 Y141.789
G1 F1200 X109.049 Y124.888 E129.0201
G0 F6000 X109.049 Y124.322
G1 F1200 X125.949 Y141.223 E130.21252
G0 F6000 X125.949 Y140.657
G1 F1200 X109.049 Y123.757 E131.40491
G0 F6000 X109.049 Y123.191
G1 F1200 X125.949 Y140.091 E132.59729
G0 F6000 X125.949 Y139.526
G1 F1200 X109.049 Y122.625 E133.78972
G0 F6000 X109.049 Y122.06
G1 F1200 X125.949 Y138.96 E134.9821
G0 F6000 X125.949 Y138.394
G1 F1200 X109.049 Y121.494 E136.17449
G0 F6000 X109.049 Y120.928
G1 F1200 X125.949 Y137.829 E137.36691
G0 F6000 X125.949 Y137.263
G1 F1200 X109.049 Y120.363 E138.5593
G0 F6000 X109.049 Y119.797
G1 F1200 X125.949 Y136.697 E139.75168
G0 F6000 X125.949 Y136.132
G1 F1200 X109.049 Y119.231 E140.9441
G0 F6000 X109.049 Y118.665
G1 F1200 X125.949 Y135.566 E142.13653
G0 F6000 X125.949 Y135
G1 F1200 X109.049 Y118.1 E143.32891
G0 F6000 X109.049 Y117.534
G1 F1200 X125.949 Y134.435 E144.52133
G0 F6000 X125.949 Y133.869
G1 F1200 X109.049 Y116.968 E145.71375
G0 F6000 X109.049 Y116.403
